;FLAVOR:Marlin
;TIME:11628
;Filament used: 16.3172m
;Layer height: 0.3
;MINX:-106.107
;MINY:-74.78
;MINZ:0.3
;MAXX:106.107
;MAXY:74.78
;MAXZ:3.9
;Generated with Cura_SteamEngine 4.7.1
M140 S50
M105
M190 S50
M104 S255
M105
M109 S255
M82 ;absolute extrusion mode
G28 ;Home
G1 Z15.0 F6000 ;Move the platform down 15mm
;Prime the extruder
G92 E0
G1 F200 E3
G92 E0
G92 E0
G92 E0
G1 F1500 E-6.5
;LAYER_COUNT:13
;LAYER:0
M107
;MESH:powerModule2020_07_06.stl
G0 F3600 X-.287 Y2.302 Z0.3
;TYPE:WALL-INNER
G1 F1500 E0
G1 F1800 X0.28 Y2.302 E0.02829
G1 X0.822 Y2.168 E0.05614
G1 X1.317 Y1.909 E0.08401
G1 X1.736 Y1.538 E0.11194
G1 X2.053 Y1.078 E0.13981
G1 X2.252 Y0.554 E0.16777
G1 X2.318 Y0.00 E0.1956
G1 X2.252 Y-.554 E0.22344
G1 X2.053 Y-1.078 E0.2514
G1 X1.736 Y-1.538 E0.27927
G1 X1.317 Y-1.909 E0.3072
G1 X0.822 Y-2.168 E0.33507
G1 X0.28 Y-2.302 E0.36292
G1 X-.28 Y-2.302 E0.39086
G1 X-.822 Y-2.168 E0.41872
G1 X-1.317 Y-1.909 E0.44659
G1 X-1.736 Y-1.538 E0.47451
G1 X-2.053 Y-1.078 E0.50238
G1 X-2.252 Y-.554 E0.53034
G1 X-2.318 Y0.00 E0.55818
G1 X-2.252 Y0.554 E0.58601
G1 X-2.053 Y1.078 E0.61398
G1 X-1.736 Y1.538 E0.64185
G1 X-1.317 Y1.909 E0.66977
G1 X-.864 Y2.146 E0.69528
G1 X-.287 Y2.302 E0.7251
G0 F3600 X-.3 Y2.401
G0 X-1.339 Y1.941
G0 X-8.367 Y-3.33
G0 X-8.372 Y-8.098
G0 X-25.324 Y-15.377
G0 X-25.39 Y-15.303
G1 F1800 X-25.908 Y-15.661 E0.75651
G1 X-26.497 Y-15.884 E0.78793
G1 X-27.119 Y-15.959 E0.81919
G1 X-27.742 Y-15.884 E0.85049
G1 X-28.33 Y-15.661 E0.88187
G1 X-28.847 Y-15.304 E0.91321
G1 X-29.263 Y-14.833 E0.94456
G1 X-29.554 Y-14.279 E0.97578
G1 X-29.705 Y-13.669 E1.00714
G1 X-29.705 Y-13.041 E1.03847
G1 X-29.554 Y-12.431 E1.06982
G1 X-29.263 Y-11.877 E1.10104
G1 X-28.847 Y-11.406 E1.13239
G1 X-28.33 Y-11.049 E1.16374
G1 X-27.742 Y-10.826 E1.19511
G1 X-27.119 Y-10.751 E1.22642
G1 X-26.497 Y-10.826 E1.25767
G1 X-25.909 Y-11.049 E1.28905
G1 X-25.392 Y-11.405 E1.32036
G1 X-24.975 Y-11.876 E1.35175
G1 X-24.684 Y-12.432 E1.38306
G1 X-24.534 Y-13.041 E1.41435
G1 X-24.534 Y-13.669 E1.44568
G1 X-24.684 Y-14.278 E1.47697
G1 X-24.965 Y-14.815 E1.50721
G1 X-25.39 Y-15.303 E1.53949
G0 F3600 X-25.324 Y-15.377
G0 X-8.372 Y-18.372
G0 X-.3 Y-35.099
G0 X-.287 Y-35.198
G1 F1800 X0.28 Y-35.198 E1.56778
G1 X0.822 Y-35.332 E1.59563
G1 X1.317 Y-35.591 E1.62351
G1 X1.736 Y-35.962 E1.65143
G1 X2.053 Y-36.422 E1.6793
G1 X2.252 Y-36.946 E1.70726
G1 X2.318 Y-37.5 E1.7351
G1 X2.252 Y-38.054 E1.76293
G1 X2.053 Y-38.578 E1.7909
G1 X1.736 Y-39.038 E1.81877
G1 X1.317 Y-39.409 E1.84669
G1 X0.822 Y-39.668 E1.87456
G1 X0.28 Y-39.802 E1.90241
G1 X-.28 Y-39.802 E1.93035
G1 X-.822 Y-39.668 E1.95821
G1 X-1.317 Y-39.409 E1.98608
G1 X-1.736 Y-39.038 E2.014
G1 X-2.053 Y-38.578 E2.04187
G1 X-2.252 Y-38.054 E2.06984
G1 X-2.318 Y-37.5 E2.09767
G1 X-2.252 Y-36.946 E2.1255
G1 X-2.053 Y-36.422 E2.15347
G1 X-1.736 Y-35.962 E2.18134
G1 X-1.317 Y-35.591 E2.20926
G1 X-.864 Y-35.354 E2.23477
G1 X-.287 Y-35.198 E2.26459
G0 F3600 X-.3 Y-35.099
G0 X0.836 Y-35.295
G0 X1.765 Y-35.936
G0 X2.25 Y-36.835
G0 X5.33 Y-62.67
G0 X5.4 Y-62.6
G1 F1800 X5.4 Y62.6 E8.51084
G1 X39.6 Y62.6 E10.21709
G1 X39.6 Y-62.6 E16.46334
G1 X5.4 Y-62.6 E18.16958
G0 F3600 X5.33 Y-62.67
G0 X-1.342 Y-64.519
G0 X-1.408 Y-64.445
G1 F1800 X-1.926 Y-64.803 E18.201
G1 X-2.515 Y-65.026 E18.23242
G1 X-3.137 Y-65.101 E18.26368
G1 X-3.76 Y-65.026 E18.29498
G1 X-4.348 Y-64.803 E18.32636
G1 X-4.864 Y-64.446 E18.35766
G1 X-5.281 Y-63.976 E18.38901
G1 X-5.572 Y-63.421 E18.42027
G1 X-5.723 Y-62.811 E18.45162
G1 X-5.723 Y-62.183 E18.48295
G1 X-5.572 Y-61.572 E18.51435
G1 X-5.281 Y-61.017 E18.54562
G1 X-4.864 Y-60.547 E18.57697
G1 X-4.348 Y-60.191 E18.60824
G1 X-3.76 Y-59.968 E18.63962
G1 X-3.137 Y-59.893 E18.67092
G1 X-2.515 Y-59.968 E18.70218
G1 X-1.927 Y-60.191 E18.73355
G1 X-1.41 Y-60.547 E18.76487
G1 X-.993 Y-61.017 E18.79622
G1 X-.702 Y-61.573 E18.82752
G1 X-.552 Y-62.183 E18.85886
G1 X-.552 Y-62.811 E18.8902
G1 X-.702 Y-63.42 E18.92149
G1 X-.983 Y-63.957 E18.95172
G1 X-1.408 Y-64.445 E18.98401
G0 F3600 X-1.342 Y-64.519
G0 X-2.506 Y-65.064
G0 X-37.3 Y-65.531
G0 X-37.287 Y-65.63
G1 F1800 X-36.72 Y-65.63 E19.0123
G1 X-36.178 Y-65.764 E19.04015
G1 X-35.683 Y-66.023 E19.06802
G1 X-35.264 Y-66.394 E19.09594
G1 X-34.947 Y-66.855 E19.12386
G1 X-34.748 Y-67.377 E19.15173
G1 X-34.681 Y-67.932 E19.17962
G1 X-34.748 Y-68.488 E19.20756
G1 X-34.947 Y-69.011 E19.23547
G1 X-35.264 Y-69.47 E19.2633
G1 X-35.683 Y-69.841 E19.29123
G1 X-36.178 Y-70.1 E19.3191
G1 X-36.72 Y-70.234 E19.34695
G1 X-37.28 Y-70.234 E19.37489
G1 X-37.822 Y-70.1 E19.40275
G1 X-38.317 Y-69.841 E19.43062
G1 X-38.736 Y-69.47 E19.45854
G1 X-39.053 Y-69.011 E19.48637
G1 X-39.252 Y-68.488 E19.51429
G1 X-39.319 Y-67.932 E19.54223
G1 X-39.252 Y-67.377 E19.57012
G1 X-39.053 Y-66.855 E19.59799
G1 X-38.736 Y-66.394 E19.6259
G1 X-38.317 Y-66.023 E19.65382
G1 X-37.864 Y-65.786 E19.67933
G1 X-37.287 Y-65.63 E19.70915
G0 F3600 X-37.3 Y-65.531
G0 X-57.31 Y-65.531
G0 X-57.297 Y-65.63
G1 F1800 X-56.731 Y-65.63 E19.73738
G1 X-56.188 Y-65.764 E19.76529
G1 X-55.693 Y-66.023 E19.79316
G1 X-55.274 Y-66.394 E19.82108
G1 X-54.957 Y-66.856 E19.84903
G1 X-54.759 Y-67.378 E19.87689
G1 X-54.692 Y-67.932 E19.90473
G1 X-54.759 Y-68.487 E19.93262
G1 X-54.957 Y-69.01 E19.96052
G1 X-55.274 Y-69.47 E19.98839
G1 X-55.693 Y-69.841 E20.01631
G1 X-56.188 Y-70.1 E20.04418
G1 X-56.731 Y-70.234 E20.07208
G1 X-57.29 Y-70.234 E20.09997
G1 X-57.832 Y-70.1 E20.12783
G1 X-58.326 Y-69.841 E20.15565
G1 X-58.747 Y-69.47 E20.18365
G1 X-59.063 Y-69.01 E20.21149
G1 X-59.262 Y-68.488 E20.23936
G1 X-59.329 Y-67.932 E20.2673
G1 X-59.262 Y-67.377 E20.29519
G1 X-59.063 Y-66.856 E20.32302
G1 X-58.747 Y-66.394 E20.35094
G1 X-58.326 Y-66.023 E20.37894
G1 X-57.874 Y-65.786 E20.4044
G1 X-57.297 Y-65.63 E20.43422
G0 F3600 X-57.31 Y-65.531
G0 X-77.3 Y-65.531
G0 X-77.287 Y-65.63
G1 F1800 X-76.72 Y-65.63 E20.46251
G1 X-76.178 Y-65.764 E20.49036
G1 X-75.683 Y-66.023 E20.51824
G1 X-75.264 Y-66.394 E20.54616
G1 X-74.947 Y-66.855 E20.57407
G1 X-74.748 Y-67.378 E20.60199
G1 X-74.682 Y-67.932 E20.62982
G1 X-74.748 Y-68.487 E20.6577
G1 X-74.947 Y-69.011 E20.68567
G1 X-75.264 Y-69.47 E20.7135
G1 X-75.683 Y-69.841 E20.74142
G1 X-76.178 Y-70.1 E20.76929
G1 X-76.72 Y-70.234 E20.79715
G1 X-77.28 Y-70.234 E20.82508
G1 X-77.822 Y-70.1 E20.85294
G1 X-78.317 Y-69.841 E20.88081
G1 X-78.736 Y-69.47 E20.90873
G1 X-79.053 Y-69.011 E20.93656
G1 X-79.252 Y-68.488 E20.96448
G1 X-79.319 Y-67.932 E20.99242
G1 X-79.252 Y-67.377 E21.02031
G1 X-79.053 Y-66.855 E21.04818
G1 X-78.736 Y-66.394 E21.07609
G1 X-78.317 Y-66.023 E21.10401
G1 X-77.864 Y-65.786 E21.12952
G1 X-77.287 Y-65.63 E21.15934
G0 F3600 X-77.3 Y-65.531
G0 X-101.05 Y-65.531
G0 X-101.037 Y-65.63
G1 F1800 X-100.47 Y-65.63 E21.18763
G1 X-99.928 Y-65.764 E21.21548
G1 X-99.433 Y-66.023 E21.24335
G1 X-99.014 Y-66.394 E21.27127
G1 X-98.697 Y-66.855 E21.29919
G1 X-98.498 Y-67.377 E21.32706
G1 X-98.431 Y-67.932 E21.35495
G1 X-98.498 Y-68.488 E21.38289
G1 X-98.697 Y-69.011 E21.41081
G1 X-99.014 Y-69.47 E21.43864
G1 X-99.433 Y-69.841 E21.46656
G1 X-99.928 Y-70.1 E21.49443
G1 X-100.47 Y-70.234 E21.52228
G1 X-101.03 Y-70.234 E21.55022
G1 X-101.572 Y-70.1 E21.57808
G1 X-102.067 Y-69.841 E21.60595
G1 X-102.486 Y-69.47 E21.63387
G1 X-102.803 Y-69.011 E21.6617
G1 X-103.002 Y-68.488 E21.68962
G1 X-103.069 Y-67.932 E21.71756
G1 X-103.002 Y-67.377 E21.74545
G1 X-102.803 Y-66.855 E21.77332
G1 X-102.486 Y-66.394 E21.80123
G1 X-102.067 Y-66.023 E21.82915
G1 X-101.614 Y-65.786 E21.85466
G1 X-101.037 Y-65.63 E21.88448
G0 F3600 X-101.05 Y-65.531
G0 X-8.372 Y-62.628
G0 X-8.372 Y-18.372
G0 X-58.323 Y-15.375
G0 X-58.389 Y-15.301
G1 F1800 X-58.907 Y-15.658 E21.91586
G1 X-59.493 Y-15.881 E21.94714
G1 X-60.117 Y-15.958 E21.97851
G1 X-60.741 Y-15.881 E22.00988
G1 X-61.328 Y-15.658 E22.04121
G1 X-61.844 Y-15.303 E22.07245
G1 X-62.261 Y-14.832 E22.10384
G1 X-62.552 Y-14.277 E22.1351
G1 X-62.703 Y-13.667 E22.16645
G1 X-62.703 Y-13.038 E22.19784
G1 X-62.552 Y-12.428 E22.22919
G1 X-62.261 Y-11.872 E22.2605
G1 X-61.844 Y-11.403 E22.2918
G1 X-61.328 Y-11.047 E22.32308
G1 X-60.74 Y-10.824 E22.35445
G1 X-60.117 Y-10.749 E22.38576
G1 X-59.494 Y-10.824 E22.41707
G1 X-58.906 Y-11.047 E22.44844
G1 X-58.391 Y-11.403 E22.47968
G1 X-57.973 Y-11.872 E22.51102
G1 X-57.682 Y-12.429 E22.54237
G1 X-57.532 Y-13.038 E22.57366
G1 X-57.532 Y-13.667 E22.60504
G1 X-57.682 Y-14.276 E22.63633
G1 X-57.963 Y-14.813 E22.66657
G1 X-58.389 Y-15.301 E22.69889
G0 F3600 X-58.323 Y-15.375
G0 X-8.372 Y-8.098
G0 X-8.372 Y56.658
G0 X-86.827 Y58.127
G0 X-86.893 Y58.201
G1 F1800 X-87.411 Y57.843 E22.7303
G1 X-88 Y57.62 E22.76173
G1 X-88.622 Y57.545 E22.79298
G1 X-89.245 Y57.62 E22.82429
G1 X-89.833 Y57.843 E22.85566
G1 X-90.35 Y58.2 E22.88701
G1 X-90.766 Y58.671 E22.91836
G1 X-91.057 Y59.225 E22.94958
G1 X-91.208 Y59.835 E22.98093
G1 X-91.208 Y60.463 E23.01226
G1 X-91.057 Y61.073 E23.04361
G1 X-90.766 Y61.627 E23.07483
G1 X-90.35 Y62.098 E23.10618
G1 X-89.833 Y62.455 E23.13753
G1 X-89.245 Y62.678 E23.1689
G1 X-88.622 Y62.753 E23.20021
G1 X-88 Y62.678 E23.23147
G1 X-87.412 Y62.455 E23.26284
G1 X-86.895 Y62.099 E23.29416
G1 X-86.478 Y61.628 E23.32554
G1 X-86.187 Y61.072 E23.35685
G1 X-86.037 Y60.463 E23.38814
G1 X-86.037 Y59.835 E23.41947
G1 X-86.187 Y59.226 E23.45076
G1 X-86.468 Y58.689 E23.481
G1 X-86.893 Y58.201 E23.51329
G0 F3600 X-86.827 Y58.127
G0 X-78.765 Y69.496
G0 X-77.3 Y70.333
G0 X-77.287 Y70.234
G1 F1800 X-76.72 Y70.234 E23.54157
G1 X-76.178 Y70.1 E23.56943
G1 X-75.683 Y69.841 E23.5973
G1 X-75.264 Y69.47 E23.62522
G1 X-74.947 Y69.011 E23.65305
G1 X-74.748 Y68.487 E23.68102
G1 X-74.682 Y67.932 E23.7089
G1 X-74.748 Y67.378 E23.73673
G1 X-74.947 Y66.855 E23.76465
G1 X-75.264 Y66.394 E23.79256
G1 X-75.683 Y66.023 E23.82049
G1 X-76.178 Y65.764 E23.84836
G1 X-76.72 Y65.63 E23.87621
G1 X-77.28 Y65.63 E23.90415
G1 X-77.822 Y65.764 E23.932
G1 X-78.317 Y66.023 E23.95988
G1 X-78.736 Y66.394 E23.9878
G1 X-79.053 Y66.855 E24.01571
G1 X-79.252 Y67.377 E24.04358
G1 X-79.319 Y67.932 E24.07147
G1 X-79.252 Y68.488 E24.09941
G1 X-79.053 Y69.011 E24.12733
G1 X-78.736 Y69.47 E24.15516
G1 X-78.317 Y69.841 E24.18308
G1 X-77.864 Y70.078 E24.20859
G1 X-77.287 Y70.234 E24.23841
G0 F3600 X-77.3 Y70.333
G0 X-57.31 Y70.333
G0 X-57.297 Y70.234
G1 F1800 X-56.731 Y70.234 E24.26664
G1 X-56.188 Y70.1 E24.29455
G1 X-55.693 Y69.841 E24.32242
G1 X-55.274 Y69.47 E24.35034
G1 X-54.957 Y69.01 E24.37821
G1 X-54.759 Y68.487 E24.40611
G1 X-54.692 Y67.932 E24.434
G1 X-54.759 Y67.378 E24.46184
G1 X-54.957 Y66.856 E24.48969
G1 X-55.274 Y66.394 E24.51765
G1 X-55.693 Y66.023 E24.54557
G1 X-56.188 Y65.764 E24.57344
G1 X-56.731 Y65.63 E24.60134
G1 X-57.29 Y65.63 E24.62923
G1 X-57.832 Y65.764 E24.65709
G1 X-58.326 Y66.023 E24.68491
G1 X-58.747 Y66.394 E24.71291
G1 X-59.063 Y66.856 E24.74083
G1 X-59.262 Y67.377 E24.76866
G1 X-59.329 Y67.932 E24.79655
G1 X-59.262 Y68.488 E24.82449
G1 X-59.063 Y69.01 E24.85236
G1 X-58.747 Y69.47 E24.8802
G1 X-58.326 Y69.841 E24.9082
G1 X-57.874 Y70.078 E24.93366
G1 X-57.297 Y70.234 E24.96348
G0 F3600 X-57.31 Y70.333
G0 X-37.3 Y70.333
G0 X-37.287 Y70.234
G1 F1800 X-36.72 Y70.234 E24.99177
G1 X-36.178 Y70.1 E25.01962
G1 X-35.683 Y69.841 E25.04749
G1 X-35.264 Y69.47 E25.07542
G1 X-34.947 Y69.011 E25.10325
G1 X-34.748 Y68.488 E25.13116
G1 X-34.681 Y67.932 E25.1591
G1 X-34.748 Y67.377 E25.18699
G1 X-34.947 Y66.855 E25.21486
G1 X-35.264 Y66.394 E25.24278
G1 X-35.683 Y66.023 E25.2707
G1 X-36.178 Y65.764 E25.29857
G1 X-36.72 Y65.63 E25.32642
G1 X-37.28 Y65.63 E25.35436
G1 X-37.822 Y65.764 E25.38222
G1 X-38.317 Y66.023 E25.41009
G1 X-38.736 Y66.394 E25.43801
G1 X-39.053 Y66.855 E25.46592
G1 X-39.252 Y67.377 E25.49379
G1 X-39.319 Y67.932 E25.52168
G1 X-39.252 Y68.488 E25.54962
G1 X-39.053 Y69.011 E25.57754
G1 X-38.736 Y69.47 E25.60537
G1 X-38.317 Y69.841 E25.63329
G1 X-37.864 Y70.078 E25.6588
G1 X-37.287 Y70.234 E25.68862
G0 F3600 X-37.3 Y70.333
G0 X-36.164 Y70.137
G0 X-8.372 Y56.658
G0 X-.3 Y39.901
G0 X-.287 Y39.802
G1 F1800 X0.28 Y39.802 E25.7169
G1 X0.822 Y39.668 E25.74476
G1 X1.317 Y39.409 E25.77263
G1 X1.736 Y39.038 E25.80055
G1 X2.053 Y38.578 E25.82842
G1 X2.252 Y38.054 E25.85639
G1 X2.318 Y37.5 E25.88422
G1 X2.252 Y36.946 E25.91206
G1 X2.053 Y36.422 E25.94002
G1 X1.736 Y35.962 E25.96789
G1 X1.317 Y35.591 E25.99581
G1 X0.822 Y35.332 E26.02368
G1 X0.28 Y35.198 E26.05154
G1 X-.28 Y35.198 E26.07948
G1 X-.822 Y35.332 E26.10733
G1 X-1.317 Y35.591 E26.1352
G1 X-1.736 Y35.962 E26.16313
G1 X-2.053 Y36.422 E26.191
G1 X-2.252 Y36.946 E26.21896
G1 X-2.318 Y37.5 E26.2468
G1 X-2.252 Y38.054 E26.27463
G1 X-2.053 Y38.578 E26.30259
G1 X-1.736 Y39.038 E26.33047
G1 X-1.317 Y39.409 E26.35839
G1 X-.864 Y39.646 E26.38389
G1 X-.287 Y39.802 E26.41371
G0 F3600 X-.3 Y39.901
G0 X5.372 Y62.628
G0 X36.7 Y70.333
G0 X36.713 Y70.234
G1 F1800 X37.28 Y70.234 E26.442
G1 X37.822 Y70.1 E26.46985
G1 X38.317 Y69.841 E26.49773
G1 X38.736 Y69.47 E26.52565
G1 X39.053 Y69.011 E26.55348
G1 X39.252 Y68.488 E26.5814
G1 X39.319 Y67.932 E26.60933
G1 X39.252 Y67.377 E26.63723
G1 X39.053 Y66.855 E26.6651
G1 X38.736 Y66.394 E26.69301
G1 X38.317 Y66.023 E26.72093
G1 X37.822 Y65.764 E26.7488
G1 X37.28 Y65.63 E26.77666
G1 X36.72 Y65.63 E26.80459
G1 X36.178 Y65.764 E26.83245
G1 X35.683 Y66.023 E26.86032
G1 X35.264 Y66.394 E26.88824
G1 X34.947 Y66.855 E26.91615
G1 X34.748 Y67.377 E26.94402
G1 X34.681 Y67.932 E26.97191
G1 X34.748 Y68.488 E26.99985
G1 X34.947 Y69.011 E27.02777
G1 X35.264 Y69.47 E27.0556
G1 X35.683 Y69.841 E27.08352
G1 X36.136 Y70.078 E27.10903
G1 X36.713 Y70.234 E27.13885
G0 F3600 X36.7 Y70.333
G0 X37.836 Y70.137
G0 X38.765 Y69.496
G0 X42.824 Y63.001
G0 X42.376 Y61.818
G0 X42.528 Y60.563
G0 X43.247 Y59.521
G0 X44.368 Y58.933
G0 X45.632 Y58.933
G0 X46.795 Y59.478
G0 X46.729 Y59.552
G1 F1800 X46.211 Y59.194 E27.17026
G1 X45.623 Y58.971 E27.20164
G1 X45 Y58.896 E27.23294
G1 X44.377 Y58.971 E27.26425
G1 X43.79 Y59.194 E27.29558
G1 X43.273 Y59.55 E27.32689
G1 X42.856 Y60.021 E27.35828
G1 X42.565 Y60.577 E27.38959
G1 X42.415 Y61.186 E27.42088
G1 X42.415 Y61.814 E27.45221
G1 X42.565 Y62.423 E27.4835
G1 X42.856 Y62.979 E27.51481
G1 X43.273 Y63.45 E27.54619
G1 X43.79 Y63.806 E27.57751
G1 X44.377 Y64.029 E27.60884
G1 X45 Y64.104 E27.64014
G1 X45.623 Y64.029 E27.67145
G1 X46.21 Y63.806 E27.70278
G1 X46.727 Y63.45 E27.73409
G1 X47.144 Y62.979 E27.76548
G1 X47.435 Y62.423 E27.79679
G1 X47.585 Y61.814 E27.82808
G1 X47.585 Y61.186 E27.85941
G1 X47.435 Y60.577 E27.8907
G1 X47.154 Y60.04 E27.92094
G1 X46.729 Y59.552 E27.95322
G0 F3600 X46.795 Y59.478
G0 X55.245 Y69.496
G0 X56.712 Y70.333
G0 X56.725 Y70.234
G1 F1800 X57.29 Y70.234 E27.98141
G1 X57.832 Y70.1 E28.00927
G1 X58.326 Y69.841 E28.03709
G1 X58.747 Y69.47 E28.06509
G1 X59.063 Y69.01 E28.09293
G1 X59.262 Y68.488 E28.1208
G1 X59.329 Y67.932 E28.14874
G1 X59.262 Y67.377 E28.17663
G1 X59.063 Y66.856 E28.20446
G1 X58.747 Y66.394 E28.23238
G1 X58.326 Y66.023 E28.26038
G1 X57.832 Y65.764 E28.28821
G1 X57.29 Y65.63 E28.31606
G1 X56.731 Y65.63 E28.34395
G1 X56.188 Y65.764 E28.37185
G1 X55.693 Y66.023 E28.39972
G1 X55.274 Y66.394 E28.42764
G1 X54.957 Y66.856 E28.4556
G1 X54.759 Y67.378 E28.48345
G1 X54.692 Y67.932 E28.51129
G1 X54.759 Y68.487 E28.53918
G1 X54.957 Y69.01 E28.56708
G1 X55.274 Y69.47 E28.59495
G1 X55.693 Y69.841 E28.62287
G1 X56.146 Y70.078 E28.64838
G1 X56.725 Y70.234 E28.6783
G0 F3600 X56.712 Y70.333
G0 X76.7 Y70.333
G0 X76.713 Y70.234
G1 F1800 X77.28 Y70.234 E28.70658
G1 X77.822 Y70.1 E28.73444
G1 X78.317 Y69.841 E28.76231
G1 X78.736 Y69.47 E28.79023
G1 X79.053 Y69.011 E28.81806
G1 X79.252 Y68.488 E28.84598
G1 X79.319 Y67.932 E28.87392
G1 X79.252 Y67.377 E28.90181
G1 X79.053 Y66.855 E28.92968
G1 X78.736 Y66.394 E28.95759
G1 X78.317 Y66.023 E28.98551
G1 X77.822 Y65.764 E29.01338
G1 X77.28 Y65.63 E29.04124
G1 X76.72 Y65.63 E29.06918
G1 X76.178 Y65.764 E29.09703
G1 X75.683 Y66.023 E29.1249
G1 X75.264 Y66.394 E29.15283
G1 X74.947 Y66.855 E29.18074
G1 X74.748 Y67.378 E29.20866
G1 X74.682 Y67.932 E29.23649
G1 X74.748 Y68.487 E29.26437
G1 X74.947 Y69.011 E29.29234
G1 X75.264 Y69.47 E29.32017
G1 X75.683 Y69.841 E29.34809
G1 X76.136 Y70.078 E29.3736
