;FLAVOR:Marlin
;TIME:6288
;Filament used: 8.86137m
;Layer height: 0.3
;MINX:-53.114
;MINY:-105.207
;MINZ:0.3
;MAXX:73.114
;MAXY:55.33
;MAXZ:7.8
;Generated with Cura_SteamEngine 4.7.1
M140 S50
M105
M190 S50
M104 S250
M105
M109 S250
M82 ;absolute extrusion mode
G28 ;Home
G1 Z15.0 F6000 ;Move the platform down 15mm
;Prime the extruder
G92 E0
G1 F200 E3
G92 E0
G92 E0
G92 E0
G1 F1500 E-6.5
;LAYER_COUNT:26
;LAYER:0
M107
G0 F3600 X-6.798 Y-10.27 Z0.3
;TYPE:SKIRT
G1 F1500 E0
G1 F1800 X-7.078 Y-10.487 E0.01767
G1 X-7.651 Y-11.03 E0.05706
G1 X-8.166 Y-11.629 E0.09647
G1 X-8.617 Y-12.277 E0.13586
G1 X-9.001 Y-12.968 E0.1753
G1 X-9.313 Y-13.693 E0.21467
G1 X-9.55 Y-14.446 E0.25406
G1 X-9.709 Y-15.22 E0.29348
G1 X-9.79 Y-16.005 E0.33285
G1 X-9.8 Y-16.607 E0.36289
G1 X-32.645 Y-16.607 E1.50263
G1 X-33.434 Y-16.647 E1.54204
G1 X-34.214 Y-16.766 E1.58141
G1 X-34.979 Y-16.964 E1.62083
G1 X-35.719 Y-17.238 E1.6602
G1 X-36.428 Y-17.586 E1.6996
G1 X-37.099 Y-18.004 E1.73905
G1 X-37.723 Y-18.487 E1.77841
G1 X-38.468 Y-19.217 E1.83045
G1 X-38.811 Y-19.602 E1.85618
G1 X-39.043 Y-19.747 E1.86982
G1 X-39.47 Y-19.793 E1.89125
G1 X-43.749 Y-19.793 E2.10473
G1 X-44.538 Y-19.833 E2.14414
G1 X-45.039 Y-19.9 E2.16936
G1 X-45.504 Y-19.978 E2.19289
G1 X-46.276 Y-20.148 E2.23232
G1 X-47.026 Y-20.395 E2.27172
G1 X-47.844 Y-20.755 E2.31631
G1 X-48.543 Y-21.121 E2.35567
G1 X-49.202 Y-21.556 E2.39506
G1 X-49.875 Y-22.097 E2.43814
G1 X-50.456 Y-22.632 E2.47755
G1 X-50.981 Y-23.222 E2.51695
G1 X-51.501 Y-23.935 E2.56098
G1 X-51.923 Y-24.602 E2.60035
G1 X-52.275 Y-25.309 E2.63976
G1 X-52.584 Y-26.103 E2.68226
G1 X-52.82 Y-26.857 E2.72168
G1 X-53.006 Y-27.817 E2.77046
G1 X-53.05 Y-28.158 E2.78762
G1 X-53.114 Y-29.156 E2.83751
G1 X-53.114 Y-94.656 E6.10532
G1 X-53.074 Y-95.445 E6.14473
G1 X-53.007 Y-95.944 E6.16985
G1 X-52.929 Y-96.41 E6.19342
G1 X-52.759 Y-97.181 E6.23281
G1 X-52.513 Y-97.931 E6.27219
G1 X-52.318 Y-98.392 E6.29716
G1 X-52.149 Y-98.758 E6.31728
G1 X-51.782 Y-99.457 E6.35666
G1 X-51.346 Y-100.116 E6.39609
G1 X-50.81 Y-100.782 E6.43874
G1 X-50.275 Y-101.363 E6.47814
G1 X-49.685 Y-101.888 E6.51754
G1 X-48.972 Y-102.408 E6.56157
G1 X-48.305 Y-102.83 E6.60095
G1 X-47.598 Y-103.182 E6.64035
G1 X-46.801 Y-103.491 E6.683
G1 X-46.048 Y-103.727 E6.72237
G1 X-45.1 Y-103.911 E6.77054
G1 X-44.754 Y-103.956 E6.78795
G1 X-43.748 Y-104.021 E6.83825
G1 X-39.592 Y-104.021 E7.04559
G1 X-39.037 Y-104.089 E7.07349
G1 X-38.308 Y-104.439 E7.11383
G1 X-37.58 Y-104.745 E7.15323
G1 X-36.824 Y-104.974 E7.19264
G1 X-36.049 Y-105.127 E7.23205
G1 X-34.934 Y-105.207 E7.28782
G1 X54.934 Y-105.207 E11.77135
G1 X55.723 Y-105.167 E11.81077
G1 X56.503 Y-105.048 E11.85013
G1 X57.268 Y-104.85 E11.88955
G1 X58.308 Y-104.439 E11.94534
G1 X59.037 Y-104.089 E11.98569
G1 X59.592 Y-104.021 E12.01359
G1 X63.749 Y-104.021 E12.22098
G1 X64.538 Y-103.981 E12.26039
G1 X65.039 Y-103.914 E12.28561
G1 X65.504 Y-103.836 E12.30913
G1 X66.276 Y-103.666 E12.34857
G1 X67.026 Y-103.419 E12.38797
G1 X67.844 Y-103.059 E12.43255
G1 X68.543 Y-102.693 E12.47192
G1 X69.202 Y-102.258 E12.51131
G1 X69.875 Y-101.717 E12.55439
G1 X70.456 Y-101.182 E12.5938
G1 X70.981 Y-100.592 E12.6332
G1 X71.501 Y-99.879 E12.67722
G1 X71.923 Y-99.212 E12.7166
G1 X72.275 Y-98.505 E12.756
G1 X72.579 Y-97.723 E12.79786
G1 X72.817 Y-96.97 E12.83726
G1 X73.003 Y-96.012 E12.88595
G1 X73.048 Y-95.667 E12.90331
G1 X73.114 Y-94.658 E12.95375
G1 X73.114 Y-29.158 E16.22156
G1 X73.074 Y-28.369 E16.26098
G1 X73.007 Y-27.868 E16.28619
G1 X72.929 Y-27.403 E16.30972
G1 X72.759 Y-26.631 E16.34915
G1 X72.512 Y-25.881 E16.38855
G1 X72.152 Y-25.063 E16.43314
G1 X71.786 Y-24.364 E16.4725
G1 X71.351 Y-23.705 E16.5119
G1 X70.81 Y-23.032 E16.55497
G1 X70.275 Y-22.451 E16.59438
G1 X69.685 Y-21.926 E16.63378
G1 X68.972 Y-21.406 E16.67781
G1 X68.305 Y-20.984 E16.71718
G1 X67.598 Y-20.632 E16.75659
G1 X66.801 Y-20.323 E16.79923
G1 X66.048 Y-20.087 E16.8386
G1 X65.1 Y-19.903 E16.88678
G1 X64.754 Y-19.858 E16.90419
G1 X63.748 Y-19.793 E16.95448
G1 X59.471 Y-19.793 E17.16786
G1 X59.051 Y-19.75 E17.18893
G1 X58.803 Y-19.594 E17.20354
G1 X58.659 Y-19.362 E17.21717
G1 X58.614 Y-18.936 E17.23854
G1 X58.614 Y-8.158 E17.77625
G1 X58.574 Y-7.369 E17.81567
G1 X58.507 Y-6.868 E17.84089
G1 X58.429 Y-6.403 E17.86441
G1 X58.259 Y-5.631 E17.90385
G1 X58.012 Y-4.881 E17.94324
G1 X57.652 Y-4.063 E17.98783
G1 X57.286 Y-3.364 E18.02719
G1 X56.851 Y-2.705 E18.06659
G1 X56.31 Y-2.032 E18.10967
G1 X55.775 Y-1.451 E18.14907
G1 X55.185 Y-.926 E18.18847
G1 X54.472 Y-.406 E18.2325
G1 X53.805 Y0.016 E18.27188
G1 X53.098 Y0.368 E18.31128
G1 X52.301 Y0.677 E18.35393
G1 X51.548 Y0.913 E18.39329
G1 X50.6 Y1.097 E18.44147
G1 X50.254 Y1.142 E18.45888
G1 X49.248 Y1.207 E18.50917
G1 X31.3 Y1.207 E19.4046
G1 X30.511 Y1.167 E19.44402
G1 X29.731 Y1.048 E19.48338
G1 X28.966 Y0.85 E19.52281
G1 X28.226 Y0.576 E19.56217
G1 X27.517 Y0.228 E19.60158
G1 X26.846 Y-.19 E19.64102
G1 X26.222 Y-.673 E19.68039
G1 X25.649 Y-1.216 E19.71977
G1 X25.134 Y-1.815 E19.75918
G1 X24.683 Y-2.463 E19.79857
G1 X24.299 Y-3.154 E19.83801
G1 X23.987 Y-3.879 E19.87739
G1 X23.75 Y-4.632 E19.91677
G1 X23.591 Y-5.406 E19.95619
G1 X23.51 Y-6.191 E19.99556
G1 X23.5 Y-6.593 E20.01563
G1 X23.5 Y-8.607 E20.1161
G1 X16.798 Y-8.607 E20.45047
G1 X17.078 Y-8.39 E20.46814
G1 X17.651 Y-7.847 E20.50753
G1 X18.166 Y-7.248 E20.54694
G1 X18.617 Y-6.6 E20.58633
G1 X19.001 Y-5.909 E20.62577
G1 X19.313 Y-5.184 E20.66514
G1 X19.55 Y-4.431 E20.70453
G1 X19.709 Y-3.657 E20.74395
G1 X19.79 Y-2.872 E20.78332
G1 X19.8 Y-2.47 E20.80338
G1 X19.8 Y0.53 E20.95305
G1 X19.76 Y1.319 E20.99247
G1 X19.641 Y2.099 E21.03183
G1 X19.443 Y2.864 E21.07125
G1 X19.169 Y3.604 E21.11062
G1 X18.821 Y4.313 E21.15003
G1 X18.403 Y4.984 E21.18947
G1 X17.92 Y5.608 E21.22883
G1 X17.377 Y6.181 E21.26822
G1 X16.778 Y6.696 E21.30763
G1 X16.13 Y7.147 E21.34702
G1 X15.439 Y7.531 E21.38646
G1 X14.714 Y7.843 E21.42584
G1 X13.961 Y8.08 E21.46522
G1 X13.187 Y8.239 E21.50464
G1 X12.402 Y8.32 E21.54401
G1 X12 Y8.33 E21.56407
G1 X9.3 Y8.33 E21.69878
G1 X9.3 Y36.73 E23.11566
G1 X12 Y36.73 E23.25036
G1 X12.789 Y36.77 E23.28978
G1 X13.569 Y36.889 E23.32914
G1 X14.334 Y37.087 E23.36857
G1 X15.074 Y37.361 E23.40793
G1 X15.783 Y37.709 E23.44734
G1 X16.454 Y38.127 E23.48678
G1 X17.078 Y38.61 E23.52615
G1 X17.651 Y39.153 E23.56553
G1 X18.166 Y39.752 E23.60494
G1 X18.617 Y40.4 E23.64433
G1 X19.001 Y41.091 E23.68377
G1 X19.313 Y41.816 E23.72315
G1 X19.55 Y42.569 E23.76253
G1 X19.709 Y43.343 E23.80195
G1 X19.79 Y44.128 E23.84132
G1 X19.8 Y44.53 E23.86139
G1 X19.8 Y47.53 E24.01106
G1 X19.76 Y48.319 E24.05047
G1 X19.641 Y49.099 E24.08983
G1 X19.443 Y49.864 E24.12926
G1 X19.169 Y50.604 E24.16863
G1 X18.821 Y51.313 E24.20803
G1 X18.403 Y51.984 E24.24747
G1 X17.92 Y52.608 E24.28684
G1 X17.377 Y53.181 E24.32622
G1 X16.778 Y53.696 E24.36563
G1 X16.13 Y54.147 E24.40502
G1 X15.439 Y54.531 E24.44446
G1 X14.714 Y54.843 E24.48384
G1 X13.961 Y55.08 E24.52322
G1 X13.187 Y55.239 E24.56264
G1 X12.402 Y55.32 E24.60202
G1 X12 Y55.33 E24.62208
G1 X-12 Y55.33 E25.81944
G1 X-12.789 Y55.29 E25.85886
G1 X-13.569 Y55.171 E25.89822
G1 X-14.334 Y54.973 E25.93765
G1 X-15.074 Y54.699 E25.97701
G1 X-15.783 Y54.351 E26.01642
G1 X-16.454 Y53.933 E26.05586
G1 X-17.078 Y53.45 E26.09523
G1 X-17.651 Y52.907 E26.13461
G1 X-18.166 Y52.308 E26.17402
G1 X-18.617 Y51.66 E26.21341
G1 X-19.001 Y50.969 E26.25285
G1 X-19.313 Y50.244 E26.29223
G1 X-19.55 Y49.491 E26.33161
G1 X-19.709 Y48.717 E26.37103
G1 X-19.79 Y47.932 E26.4104
G1 X-19.8 Y47.53 E26.43047
G1 X-19.8 Y44.53 E26.58014
G1 X-19.76 Y43.741 E26.61955
G1 X-19.641 Y42.961 E26.65891
G1 X-19.443 Y42.196 E26.69834
G1 X-19.169 Y41.456 E26.73771
G1 X-18.821 Y40.747 E26.77711
G1 X-18.403 Y40.076 E26.81655
G1 X-17.92 Y39.452 E26.85592
G1 X-17.377 Y38.879 E26.8953
G1 X-16.778 Y38.364 E26.93471
G1 X-16.13 Y37.913 E26.9741
G1 X-15.439 Y37.529 E27.01354
G1 X-14.714 Y37.217 E27.05292
G1 X-13.961 Y36.98 E27.0923
G1 X-13.187 Y36.821 E27.13172
G1 X-12.402 Y36.74 E27.1711
G1 X-12 Y36.73 E27.19116
G1 X-9.3 Y36.73 E27.32586
G1 X-9.3 Y8.33 E28.74274
G1 X-12 Y8.33 E28.87745
G1 X-12.789 Y8.29 E28.91686
G1 X-13.569 Y8.171 E28.95623
G1 X-14.334 Y7.973 E28.99565
G1 X-15.074 Y7.699 E29.03502
G1 X-15.783 Y7.351 E29.07442
G1 X-16.454 Y6.933 E29.11386
G1 X-17.078 Y6.45 E29.15323
G1 X-17.651 Y5.907 E29.19261
G1 X-18.166 Y5.308 E29.23202
G1 X-18.617 Y4.66 E29.27141
G1 X-19.001 Y3.969 E29.31085
G1 X-19.313 Y3.244 E29.35023
G1 X-19.55 Y2.491 E29.38961
G1 X-19.709 Y1.717 E29.42903
G1 X-19.79 Y0.932 E29.46841
G1 X-19.8 Y0.53 E29.48847
G1 X-19.8 Y-2.47 E29.63814
G1 X-19.76 Y-3.259 E29.67755
G1 X-19.641 Y-4.039 E29.71692
G1 X-19.443 Y-4.804 E29.75634
G1 X-19.169 Y-5.544 E29.79571
G1 X-18.821 Y-6.253 E29.83511
G1 X-18.403 Y-6.924 E29.87455
G1 X-17.92 Y-7.548 E29.91392
G1 X-17.377 Y-8.121 E29.95331
G1 X-16.778 Y-8.636 E29.99272
G1 X-16.13 Y-9.087 E30.0321
G1 X-15.439 Y-9.471 E30.07154
G1 X-14.714 Y-9.783 E30.11092
G1 X-13.961 Y-10.02 E30.15031
G1 X-13.187 Y-10.179 E30.18973
G1 X-12.402 Y-10.26 E30.2291
G1 X-12 Y-10.27 E30.24916
G1 X-6.798 Y-10.27 E30.50869
G0 F3600 X-6.323 Y-10.401
G1 F1800 X-6.923 Y-10.882 E30.54706
G1 X-7.47 Y-11.423 E30.58544
G1 X-7.958 Y-12.018 E30.62383
G1 X-8.381 Y-12.66 E30.66219
G1 X-8.736 Y-13.343 E30.70059
G1 X-9.017 Y-14.058 E30.73892
G1 X-9.223 Y-14.8 E30.77734
G1 X-9.351 Y-15.558 E30.81569
G1 X-9.4 Y-16.407 E30.85812
G1 X-9.4 Y-17.007 E30.88805
G1 X-32.645 Y-17.007 E32.04775
G1 X-33.413 Y-17.047 E32.08611
G1 X-34.173 Y-17.166 E32.12449
G1 X-34.916 Y-17.364 E32.16286
G1 X-35.635 Y-17.638 E32.20124
G1 X-36.321 Y-17.985 E32.2396
G1 X-36.968 Y-18.401 E32.27797
G1 X-37.568 Y-18.882 E32.31634
G1 X-38.169 Y-19.483 E32.35874
G1 X-38.527 Y-19.884 E32.38556
G1 X-38.8 Y-20.079 E32.4023
G1 X-39.13 Y-20.175 E32.41944
G1 X-39.447 Y-20.193 E32.43529
G1 X-43.749 Y-20.193 E32.64991
G1 X-44.517 Y-20.233 E32.68828
G1 X-45.438 Y-20.373 E32.73476
G1 X-46.189 Y-20.539 E32.77313
G1 X-46.919 Y-20.783 E32.81153
G1 X-47.676 Y-21.118 E32.85283
G1 X-48.357 Y-21.476 E32.89121
G1 X-48.997 Y-21.902 E32.92957
G1 X-49.62 Y-22.405 E32.96952
G1 X-50.185 Y-22.927 E33.00789
G1 X-50.693 Y-23.504 E33.04625
G1 X-51.174 Y-24.165 E33.08703
G1 X-51.584 Y-24.816 E33.12542
G1 X-52.066 Y-25.86 E33.18278
G1 X-52.208 Y-26.243 E33.20316
G1 X-52.438 Y-26.977 E33.24154
G1 X-52.609 Y-27.868 E33.2868
G1 X-52.653 Y-28.209 E33.30395
G1 X-52.714 Y-29.156 E33.3513
G1 X-52.714 Y-94.656 E36.61911
G1 X-52.674 Y-95.424 E36.65747
G1 X-52.534 Y-96.344 E36.7039
G1 X-52.368 Y-97.095 E36.74227
G1 X-52.125 Y-97.824 E36.78061
G1 X-51.785 Y-98.59 E36.82242
G1 X-51.427 Y-99.271 E36.86081
G1 X-51 Y-99.911 E36.89919
G1 X-50.502 Y-100.527 E36.93871
G1 X-49.98 Y-101.092 E36.97709
G1 X-49.403 Y-101.6 E37.01544
G1 X-48.742 Y-102.081 E37.05622
G1 X-48.091 Y-102.491 E37.09461
G1 X-47.401 Y-102.832 E37.13301
G1 X-46.662 Y-103.116 E37.1725
G1 X-45.928 Y-103.345 E37.21086
G1 X-45.048 Y-103.514 E37.25557
G1 X-44.702 Y-103.559 E37.27298
G1 X-43.748 Y-103.621 E37.32067
G1 X-39.58 Y-103.621 E37.52862
G1 X-39.062 Y-103.667 E37.55456
G1 X-38.901 Y-103.712 E37.5629
G1 X-38.135 Y-104.079 E37.60528
G1 X-37.425 Y-104.375 E37.64365
G1 X-36.689 Y-104.596 E37.68199
G1 X-35.933 Y-104.739 E37.72038
G1 X-34.934 Y-104.807 E37.77033
G1 X54.934 Y-104.807 E42.25387
G1 X55.702 Y-104.767 E42.29223
G1 X56.462 Y-104.648 E42.33061
G1 X57.205 Y-104.45 E42.36897
G1 X58.135 Y-104.079 E42.41893
G1 X58.901 Y-103.712 E42.4613
G1 X59.062 Y-103.667 E42.46964
G1 X59.58 Y-103.621 E42.49559
G1 X63.749 Y-103.621 E42.70358
G1 X64.517 Y-103.581 E42.74195
G1 X65.438 Y-103.441 E42.78843
G1 X66.189 Y-103.275 E42.8268
G1 X66.919 Y-103.031 E42.8652
G1 X67.676 Y-102.696 E42.9065
G1 X68.357 Y-102.338 E42.94488
G1 X68.997 Y-101.912 E42.98324
G1 X69.62 Y-101.409 E43.02318
G1 X70.185 Y-100.887 E43.06156
G1 X70.693 Y-100.31 E43.09992
G1 X71.174 Y-99.649 E43.1407
G1 X71.584 Y-98.998 E43.17908
G1 X72.064 Y-97.962 E43.23605
G1 X72.205 Y-97.583 E43.25622
G1 X72.435 Y-96.849 E43.2946
G1 X72.607 Y-95.96 E43.33977
G1 X72.652 Y-95.615 E43.35713
G1 X72.714 Y-94.658 E43.40497
G1 X72.714 Y-29.158 E46.67278
G1 X72.674 Y-28.39 E46.71115
G1 X72.534 Y-27.469 E46.75763
G1 X72.368 Y-26.718 E46.796
G1 X72.124 Y-25.988 E46.8344
G1 X71.789 Y-25.231 E46.8757
G1 X71.431 Y-24.55 E46.91408
G1 X71.005 Y-23.91 E46.95244
G1 X70.502 Y-23.287 E46.99239
G1 X69.98 Y-22.722 E47.03076
G1 X69.403 Y-22.214 E47.06912
G1 X68.742 Y-21.733 E47.1099
G1 X68.091 Y-21.323 E47.14829
G1 X67.401 Y-20.982 E47.18668
G1 X66.662 Y-20.698 E47.22618
G1 X65.928 Y-20.469 E47.26454
G1 X65.048 Y-20.3 E47.30925
G1 X64.702 Y-20.255 E47.32666
G1 X63.748 Y-20.193 E47.37435
G1 X59.448 Y-20.193 E47.58888
G1 X58.911 Y-20.125 E47.61588
G1 X58.609 Y-19.958 E47.6331
G1 X58.385 Y-19.707 E47.64988
G1 X58.253 Y-19.394 E47.66683
G1 X58.214 Y-18.962 E47.68847
G1 X58.214 Y-8.158 E48.22749
G1 X58.174 Y-7.39 E48.26585
G1 X58.034 Y-6.469 E48.31233
G1 X57.868 Y-5.718 E48.3507
G1 X57.624 Y-4.988 E48.3891
G1 X57.289 Y-4.231 E48.4304
G1 X56.931 Y-3.55 E48.46879
G1 X56.505 Y-2.91 E48.50714
G1 X56.002 Y-2.287 E48.54709
G1 X55.48 Y-1.722 E48.58547
G1 X54.903 Y-1.214 E48.62382
G1 X54.242 Y-.733 E48.66461
G1 X53.591 Y-.323 E48.70299
G1 X52.901 Y0.018 E48.74139
G1 X52.162 Y0.302 E48.78088
G1 X51.428 Y0.531 E48.81924
G1 X50.548 Y0.7 E48.86395
G1 X50.202 Y0.745 E48.88136
G1 X49.248 Y0.807 E48.92905
G1 X31.3 Y0.807 E49.82448
G1 X30.532 Y0.767 E49.86285
G1 X29.772 Y0.648 E49.90123
G1 X29.029 Y0.45 E49.93959
G1 X28.31 Y0.176 E49.97798
G1 X27.624 Y-.171 E50.01633
G1 X26.977 Y-.587 E50.05471
G1 X26.377 Y-1.068 E50.09307
G1 X25.83 Y-1.609 E50.13146
G1 X25.342 Y-2.204 E50.16985
G1 X24.919 Y-2.846 E50.20821
G1 X24.564 Y-3.529 E50.24661
G1 X24.283 Y-4.244 E50.28494
G1 X24.077 Y-4.986 E50.32335
G1 X23.949 Y-5.744 E50.36171
G1 X23.9 Y-6.593 E50.40413
G1 X23.9 Y-9.007 E50.52457
G1 X15.449 Y-9.007 E50.94619
G1 X15.676 Y-8.892 E50.95889
G1 X16.323 Y-8.476 E50.99726
G1 X16.923 Y-7.995 E51.03563
G1 X17.47 Y-7.454 E51.07401
G1 X17.958 Y-6.859 E51.1124
G1 X18.381 Y-6.217 E51.15076
G1 X18.736 Y-5.534 E51.18916
G1 X19.017 Y-4.819 E51.22749
G1 X19.223 Y-4.077 E51.26591
G1 X19.351 Y-3.319 E51.30426
G1 X19.4 Y-2.47 E51.34669
G1 X19.4 Y0.53 E51.49636
G1 X19.36 Y1.298 E51.53473
G1 X19.241 Y2.058 E51.5731
G1 X19.043 Y2.801 E51.61147
G1 X18.769 Y3.52 E51.64985
G1 X18.422 Y4.206 E51.68821
G1 X18.006 Y4.853 E51.72658
G1 X17.525 Y5.453 E51.76495
G1 X16.984 Y6 E51.80333
G1 X16.389 Y6.488 E51.84172
G1 X15.747 Y6.911 E51.88008
G1 X15.064 Y7.266 E51.91848
G1 X14.349 Y7.547 E51.95681
G1 X13.607 Y7.753 E51.99523
G1 X12.849 Y7.881 E52.03358
G1 X12 Y7.93 E52.07601
G1 X8.9 Y7.93 E52.23067
G1 X8.9 Y37.13 E53.68746
G1 X12 Y37.13 E53.84212
G1 X12.768 Y37.17 E53.88049
G1 X13.528 Y37.289 E53.91887
G1 X14.271 Y37.487 E53.95723
G1 X14.99 Y37.761 E53.99562
G1 X15.676 Y38.108 E54.03397
G1 X16.323 Y38.524 E54.07235
G1 X16.923 Y39.005 E54.11071
G1 X17.47 Y39.546 E54.14909
G1 X17.958 Y40.141 E54.18749
G1 X18.381 Y40.783 E54.22584
G1 X18.736 Y41.466 E54.26425
G1 X19.017 Y42.181 E54.30257
G1 X19.223 Y42.923 E54.34099
G1 X19.351 Y43.681 E54.37934
G1 X19.4 Y44.53 E54.42177
G1 X19.4 Y47.53 E54.57144
G1 X19.36 Y48.298 E54.60981
G1 X19.241 Y49.058 E54.64819
G1 X19.043 Y49.801 E54.68655
G1 X18.769 Y50.52 E54.72494
G1 X18.422 Y51.206 E54.76329
G1 X18.006 Y51.853 E54.80167
G1 X17.525 Y52.453 E54.84003
G1 X16.984 Y53 E54.87842
G1 X16.389 Y53.488 E54.91681
G1 X15.747 Y53.911 E54.95516
G1 X15.064 Y54.266 E54.99357
G1 X14.349 Y54.547 E55.03189
G1 X13.607 Y54.753 E55.07031
G1 X12.849 Y54.881 E55.10867
G1 X12 Y54.93 E55.15109
G1 X-12 Y54.93 E56.34846
G1 X-12.768 Y54.89 E56.38683
G1 X-13.528 Y54.771 E56.4252
G1 X-14.271 Y54.573 E56.46357
G1 X-14.99 Y54.299 E56.50195
G1 X-15.676 Y53.952 E56.54031
G1 X-16.323 Y53.536 E56.57868
G1 X-16.923 Y53.055 E56.61705
G1 X-17.47 Y52.514 E56.65543
G1 X-17.958 Y51.919 E56.69382
G1 X-18.381 Y51.277 E56.73218
G1 X-18.736 Y50.594 E56.77058
G1 X-19.017 Y49.879 E56.80891
G1 X-19.223 Y49.137 E56.84733
G1 X-19.351 Y48.379 E56.88568
G1 X-19.4 Y47.53 E56.92811
G1 X-19.4 Y44.53 E57.07778
G1 X-19.36 Y43.762 E57.11615
