;FLAVOR:Marlin
;TIME:6252
;Filament used: 8.80347m
;Layer height: 0.3
;MINX:-80.237
;MINY:-114.032
;MINZ:0.3
;MAXX:73.114
;MAXY:-7.618
;MAXZ:7.8
;Generated with Cura_SteamEngine 4.7.1
M140 S50
M105
M190 S50
M104 S255
M105
M109 S255
M82 ;absolute extrusion mode
G28 ;Home
G1 Z15.0 F6000 ;Move the platform down 15mm
;Prime the extruder
G92 E0
G1 F200 E3
G92 E0
G92 E0
G92 E0
G1 F1500 E-6.5
;LAYER_COUNT:26
;LAYER:0
M107
G0 F3600 X-2 Y-17.432 Z0.3
;TYPE:SKIRT
G1 F1500 E0
G1 F1800 X-2.789 Y-17.472 E0.03941
G1 X-3.569 Y-17.591 E0.07878
G1 X-4.334 Y-17.789 E0.1182
G1 X-5.074 Y-18.063 E0.15757
G1 X-5.783 Y-18.411 E0.19697
G1 X-6.454 Y-18.829 E0.23641
G1 X-7.078 Y-19.312 E0.27578
G1 X-7.651 Y-19.855 E0.31517
G1 X-8.166 Y-20.454 E0.35458
G1 X-8.617 Y-21.102 E0.39397
G1 X-9.001 Y-21.793 E0.43341
G1 X-9.313 Y-22.518 E0.47278
G1 X-9.55 Y-23.271 E0.51217
G1 X-9.709 Y-24.045 E0.55159
G1 X-9.79 Y-24.83 E0.59096
G1 X-9.8 Y-25.432 E0.621
G1 X-32.645 Y-25.432 E1.76074
G1 X-33.434 Y-25.472 E1.80015
G1 X-34.214 Y-25.591 E1.83952
G1 X-34.979 Y-25.789 E1.87894
G1 X-35.719 Y-26.063 E1.91831
G1 X-36.428 Y-26.411 E1.95771
G1 X-37.099 Y-26.829 E1.99715
G1 X-37.723 Y-27.312 E2.03652
G1 X-38.468 Y-28.042 E2.08856
G1 X-38.811 Y-28.427 E2.11428
G1 X-39.043 Y-28.572 E2.12793
G1 X-39.47 Y-28.618 E2.14936
G1 X-43.749 Y-28.618 E2.36284
G1 X-44.538 Y-28.658 E2.40225
G1 X-45.039 Y-28.725 E2.42747
G1 X-45.504 Y-28.803 E2.45099
G1 X-46.276 Y-28.973 E2.49043
G1 X-47.026 Y-29.22 E2.52983
G1 X-47.844 Y-29.58 E2.57441
G1 X-48.543 Y-29.946 E2.61378
G1 X-49.202 Y-30.381 E2.65317
G1 X-49.875 Y-30.922 E2.69625
G1 X-50.456 Y-31.457 E2.73566
G1 X-50.981 Y-32.047 E2.77506
G1 X-51.501 Y-32.76 E2.81908
G1 X-51.923 Y-33.427 E2.85846
G1 X-52.275 Y-34.134 E2.89786
G1 X-52.584 Y-34.928 E2.94037
G1 X-52.82 Y-35.682 E2.97979
G1 X-53.006 Y-36.642 E3.02857
G1 X-53.05 Y-36.983 E3.04573
G1 X-53.114 Y-37.981 E3.09562
G1 X-53.114 Y-46.032 E3.49729
G1 X-72.437 Y-46.032 E4.46131
G1 X-73.226 Y-46.072 E4.50073
G1 X-74.006 Y-46.191 E4.54009
G1 X-74.771 Y-46.389 E4.57952
G1 X-75.511 Y-46.663 E4.61888
G1 X-76.22 Y-47.011 E4.65829
G1 X-76.891 Y-47.429 E4.69773
G1 X-77.515 Y-47.912 E4.7371
G1 X-78.088 Y-48.455 E4.77648
G1 X-78.603 Y-49.054 E4.81589
G1 X-79.054 Y-49.702 E4.85528
G1 X-79.438 Y-50.393 E4.89472
G1 X-79.75 Y-51.118 E4.9341
G1 X-79.987 Y-51.871 E4.97348
G1 X-80.146 Y-52.645 E5.0129
G1 X-80.227 Y-53.43 E5.05227
G1 X-80.237 Y-53.832 E5.07234
G1 X-80.237 Y-56.832 E5.22201
G1 X-80.197 Y-57.621 E5.26142
G1 X-80.078 Y-58.401 E5.30079
G1 X-79.88 Y-59.166 E5.34021
G1 X-79.606 Y-59.906 E5.37958
G1 X-79.258 Y-60.615 E5.41898
G1 X-78.84 Y-61.286 E5.45842
G1 X-78.357 Y-61.91 E5.49779
G1 X-77.814 Y-62.483 E5.53717
G1 X-77.215 Y-62.998 E5.57658
G1 X-76.567 Y-63.449 E5.61597
G1 X-75.876 Y-63.833 E5.65541
G1 X-75.151 Y-64.145 E5.69479
G1 X-74.398 Y-64.382 E5.73417
G1 X-73.624 Y-64.541 E5.7736
G1 X-72.839 Y-64.622 E5.81297
G1 X-72.437 Y-64.632 E5.83303
G1 X-69.737 Y-64.632 E5.96773
G1 X-69.737 Y-93.032 E7.38461
G1 X-72.437 Y-93.032 E7.51932
G1 X-73.226 Y-93.072 E7.55873
G1 X-74.006 Y-93.191 E7.5981
G1 X-74.771 Y-93.389 E7.63752
G1 X-75.511 Y-93.663 E7.67689
G1 X-76.22 Y-94.011 E7.71629
G1 X-76.891 Y-94.429 E7.75573
G1 X-77.515 Y-94.912 E7.7951
G1 X-78.088 Y-95.455 E7.83448
G1 X-78.603 Y-96.054 E7.8739
G1 X-79.054 Y-96.702 E7.91328
G1 X-79.438 Y-97.393 E7.95272
G1 X-79.75 Y-98.118 E7.9921
G1 X-79.987 Y-98.871 E8.03148
G1 X-80.146 Y-99.645 E8.07091
G1 X-80.227 Y-100.43 E8.11028
G1 X-80.237 Y-100.832 E8.13034
G1 X-80.237 Y-103.832 E8.28001
G1 X-80.197 Y-104.621 E8.31942
G1 X-80.078 Y-105.401 E8.35879
G1 X-79.88 Y-106.166 E8.39821
G1 X-79.606 Y-106.906 E8.43758
G1 X-79.258 Y-107.615 E8.47698
G1 X-78.84 Y-108.286 E8.51642
G1 X-78.357 Y-108.91 E8.55579
G1 X-77.814 Y-109.483 E8.59518
G1 X-77.215 Y-109.998 E8.63459
G1 X-76.567 Y-110.449 E8.67398
G1 X-75.876 Y-110.833 E8.71342
G1 X-75.151 Y-111.145 E8.75279
G1 X-74.398 Y-111.382 E8.79218
G1 X-73.624 Y-111.541 E8.8316
G1 X-72.839 Y-111.622 E8.87097
G1 X-72.437 Y-111.632 E8.89103
G1 X-48.437 Y-111.632 E10.0884
G1 X-48.305 Y-111.655 E10.09508
G1 X-47.598 Y-112.007 E10.13448
G1 X-46.801 Y-112.316 E10.17713
G1 X-46.048 Y-112.552 E10.2165
G1 X-45.1 Y-112.736 E10.26468
G1 X-44.754 Y-112.781 E10.28209
G1 X-43.748 Y-112.846 E10.33238
G1 X-39.592 Y-112.846 E10.53972
G1 X-39.037 Y-112.914 E10.56762
G1 X-38.308 Y-113.264 E10.60796
G1 X-37.58 Y-113.57 E10.64736
G1 X-36.824 Y-113.799 E10.68677
G1 X-36.049 Y-113.952 E10.72618
G1 X-34.934 Y-114.032 E10.78195
G1 X54.934 Y-114.032 E15.26549
G1 X55.723 Y-113.992 E15.3049
G1 X56.503 Y-113.873 E15.34426
G1 X57.268 Y-113.675 E15.38369
G1 X58.308 Y-113.264 E15.43948
G1 X59.037 Y-112.914 E15.47982
G1 X59.592 Y-112.846 E15.50772
G1 X63.749 Y-112.846 E15.71511
G1 X64.538 Y-112.806 E15.75453
G1 X65.039 Y-112.739 E15.77974
G1 X65.504 Y-112.661 E15.80327
G1 X66.276 Y-112.491 E15.84271
G1 X67.026 Y-112.244 E15.8821
G1 X67.844 Y-111.884 E15.92669
G1 X68.543 Y-111.518 E15.96605
G1 X69.202 Y-111.083 E16.00545
G1 X69.875 Y-110.542 E16.04853
G1 X70.456 Y-110.007 E16.08793
G1 X70.981 Y-109.417 E16.12733
G1 X71.501 Y-108.704 E16.17136
G1 X71.923 Y-108.037 E16.21074
G1 X72.275 Y-107.33 E16.25014
G1 X72.579 Y-106.548 E16.292
G1 X72.817 Y-105.795 E16.3314
G1 X73.003 Y-104.837 E16.38008
G1 X73.048 Y-104.492 E16.39744
G1 X73.114 Y-103.483 E16.44789
G1 X73.114 Y-37.983 E19.7157
G1 X73.074 Y-37.194 E19.75511
G1 X73.007 Y-36.693 E19.78033
G1 X72.929 Y-36.228 E19.80385
G1 X72.759 Y-35.456 E19.84329
G1 X72.512 Y-34.706 E19.88268
G1 X72.152 Y-33.888 E19.92727
G1 X71.786 Y-33.189 E19.96664
G1 X71.351 Y-32.53 E20.00603
G1 X70.81 Y-31.857 E20.04911
G1 X70.275 Y-31.276 E20.08851
G1 X69.685 Y-30.751 E20.12791
G1 X68.972 Y-30.231 E20.17194
G1 X68.305 Y-29.809 E20.21132
G1 X67.598 Y-29.457 E20.25072
G1 X66.801 Y-29.148 E20.29337
G1 X66.048 Y-28.912 E20.33274
G1 X65.1 Y-28.728 E20.38092
G1 X64.754 Y-28.683 E20.39832
G1 X63.748 Y-28.618 E20.44862
G1 X59.471 Y-28.618 E20.662
G1 X59.051 Y-28.575 E20.68306
G1 X58.803 Y-28.419 E20.69768
G1 X58.659 Y-28.187 E20.7113
G1 X58.614 Y-27.761 E20.73267
G1 X58.614 Y-16.983 E21.27039
G1 X58.574 Y-16.194 E21.3098
G1 X58.507 Y-15.693 E21.33502
G1 X58.429 Y-15.228 E21.35854
G1 X58.259 Y-14.456 E21.39798
G1 X58.012 Y-13.706 E21.43738
G1 X57.652 Y-12.888 E21.48196
G1 X57.286 Y-12.189 E21.52133
G1 X56.851 Y-11.53 E21.56072
G1 X56.31 Y-10.857 E21.6038
G1 X55.775 Y-10.276 E21.64321
G1 X55.185 Y-9.751 E21.68261
G1 X54.472 Y-9.231 E21.72663
G1 X53.805 Y-8.809 E21.76601
G1 X53.098 Y-8.457 E21.80541
G1 X52.301 Y-8.148 E21.84806
G1 X51.548 Y-7.912 E21.88743
G1 X50.6 Y-7.728 E21.93561
G1 X50.254 Y-7.683 E21.95302
G1 X49.248 Y-7.618 E22.00331
G1 X31.3 Y-7.618 E22.89874
G1 X30.511 Y-7.658 E22.93815
G1 X29.731 Y-7.777 E22.97752
G1 X28.966 Y-7.975 E23.01694
G1 X28.226 Y-8.249 E23.05631
G1 X27.517 Y-8.597 E23.09571
G1 X26.846 Y-9.015 E23.13515
G1 X26.222 Y-9.498 E23.17452
G1 X25.649 Y-10.041 E23.21391
G1 X25.134 Y-10.64 E23.25332
G1 X24.683 Y-11.288 E23.2927
G1 X24.299 Y-11.979 E23.33214
G1 X23.987 Y-12.704 E23.37152
G1 X23.75 Y-13.457 E23.41091
G1 X23.591 Y-14.231 E23.45033
G1 X23.51 Y-15.016 E23.4897
G1 X23.5 Y-15.418 E23.50976
G1 X23.5 Y-17.432 E23.61024
G1 X-2 Y-17.432 E24.88244
G0 F3600 X-2 Y-17.832
G1 F1800 X-2.768 Y-17.872 E24.92081
G1 X-3.528 Y-17.991 E24.95919
G1 X-4.271 Y-18.189 E24.99755
G1 X-4.99 Y-18.463 E25.03594
G1 X-5.676 Y-18.81 E25.07429
G1 X-6.323 Y-19.226 E25.11266
G1 X-6.923 Y-19.707 E25.15103
G1 X-7.47 Y-20.248 E25.18941
G1 X-7.958 Y-20.843 E25.2278
G1 X-8.381 Y-21.485 E25.26616
G1 X-8.736 Y-22.168 E25.30456
G1 X-9.017 Y-22.883 E25.34289
G1 X-9.223 Y-23.625 E25.38131
G1 X-9.351 Y-24.383 E25.41966
G1 X-9.4 Y-25.232 E25.46209
G1 X-9.4 Y-25.832 E25.49202
G1 X-32.645 Y-25.832 E26.65172
G1 X-33.413 Y-25.872 E26.69009
G1 X-34.173 Y-25.991 E26.72847
G1 X-34.916 Y-26.189 E26.76683
G1 X-35.635 Y-26.463 E26.80522
G1 X-36.321 Y-26.81 E26.84357
G1 X-36.968 Y-27.226 E26.88195
G1 X-37.568 Y-27.707 E26.92031
G1 X-38.169 Y-28.308 E26.96272
G1 X-38.527 Y-28.709 E26.98954
G1 X-38.8 Y-28.904 E27.00627
G1 X-39.13 Y-29 E27.02342
G1 X-39.447 Y-29.018 E27.03926
G1 X-43.749 Y-29.018 E27.25389
G1 X-44.517 Y-29.058 E27.29226
G1 X-45.438 Y-29.198 E27.33873
G1 X-46.189 Y-29.364 E27.3771
G1 X-46.919 Y-29.608 E27.4155
G1 X-47.676 Y-29.943 E27.4568
G1 X-48.357 Y-30.301 E27.49519
G1 X-48.997 Y-30.727 E27.53354
G1 X-49.62 Y-31.23 E27.57349
G1 X-50.185 Y-31.752 E27.61187
G1 X-50.693 Y-32.329 E27.65022
G1 X-51.174 Y-32.99 E27.69101
G1 X-51.584 Y-33.641 E27.72939
G1 X-52.066 Y-34.685 E27.78676
G1 X-52.208 Y-35.068 E27.80714
G1 X-52.438 Y-35.802 E27.84551
G1 X-52.609 Y-36.693 E27.89078
G1 X-52.653 Y-37.034 E27.90793
G1 X-52.714 Y-37.981 E27.95527
G1 X-52.714 Y-46.432 E28.3769
G1 X-72.437 Y-46.432 E29.36088
G1 X-73.205 Y-46.472 E29.39925
G1 X-73.965 Y-46.591 E29.43763
G1 X-74.708 Y-46.789 E29.47599
G1 X-75.427 Y-47.063 E29.51438
G1 X-76.113 Y-47.41 E29.55273
G1 X-76.76 Y-47.826 E29.59111
G1 X-77.36 Y-48.307 E29.62947
G1 X-77.907 Y-48.848 E29.66785
G1 X-78.395 Y-49.443 E29.70625
G1 X-78.818 Y-50.085 E29.7446
G1 X-79.173 Y-50.768 E29.78301
G1 X-79.454 Y-51.483 E29.82133
G1 X-79.66 Y-52.225 E29.85975
G1 X-79.788 Y-52.983 E29.8981
G1 X-79.837 Y-53.832 E29.94053
G1 X-79.837 Y-56.832 E30.0902
G1 X-79.797 Y-57.6 E30.12857
G1 X-79.678 Y-58.36 E30.16695
G1 X-79.48 Y-59.103 E30.20531
G1 X-79.206 Y-59.822 E30.2437
G1 X-78.859 Y-60.508 E30.28205
G1 X-78.443 Y-61.155 E30.32043
G1 X-77.962 Y-61.755 E30.35879
G1 X-77.421 Y-62.302 E30.39717
G1 X-76.826 Y-62.79 E30.43557
G1 X-76.184 Y-63.213 E30.47392
G1 X-75.501 Y-63.568 E30.51233
G1 X-74.786 Y-63.849 E30.55065
G1 X-74.044 Y-64.055 E30.58907
G1 X-73.286 Y-64.183 E30.62742
G1 X-72.437 Y-64.232 E30.66985
G1 X-69.337 Y-64.232 E30.82451
G1 X-69.337 Y-93.432 E32.28131
G1 X-72.437 Y-93.432 E32.43597
G1 X-73.205 Y-93.472 E32.47433
G1 X-73.965 Y-93.591 E32.51271
G1 X-74.708 Y-93.789 E32.55107
G1 X-75.427 Y-94.063 E32.58946
G1 X-76.113 Y-94.41 E32.62781
G1 X-76.76 Y-94.826 E32.66619
G1 X-77.36 Y-95.307 E32.70456
G1 X-77.907 Y-95.848 E32.74294
G1 X-78.395 Y-96.443 E32.78133
G1 X-78.818 Y-97.085 E32.81969
G1 X-79.173 Y-97.768 E32.85809
G1 X-79.454 Y-98.483 E32.89642
G1 X-79.66 Y-99.225 E32.93484
G1 X-79.788 Y-99.983 E32.97319
G1 X-79.837 Y-100.832 E33.01562
G1 X-79.837 Y-103.832 E33.16529
G1 X-79.797 Y-104.6 E33.20365
G1 X-79.678 Y-105.36 E33.24203
G1 X-79.48 Y-106.103 E33.28039
G1 X-79.206 Y-106.822 E33.31878
G1 X-78.859 Y-107.508 E33.35714
G1 X-78.443 Y-108.155 E33.39551
G1 X-77.962 Y-108.755 E33.43388
G1 X-77.421 Y-109.302 E33.47226
G1 X-76.826 Y-109.79 E33.51065
G1 X-76.184 Y-110.213 E33.54901
G1 X-75.501 Y-110.568 E33.58741
G1 X-74.786 Y-110.849 E33.62574
G1 X-74.044 Y-111.055 E33.66416
G1 X-73.286 Y-111.183 E33.70251
G1 X-72.437 Y-111.232 E33.74494
G1 X-48.437 Y-111.232 E34.9423
G1 X-48.241 Y-111.222 E34.95209
G1 X-48.091 Y-111.316 E34.96092
G1 X-47.401 Y-111.657 E34.99932
G1 X-46.662 Y-111.941 E35.03882
G1 X-45.928 Y-112.17 E35.07718
G1 X-45.048 Y-112.339 E35.12189
G1 X-44.702 Y-112.384 E35.13929
G1 X-43.748 Y-112.446 E35.18699
G1 X-39.58 Y-112.446 E35.39493
G1 X-39.062 Y-112.492 E35.42088
G1 X-38.901 Y-112.537 E35.42922
G1 X-38.135 Y-112.904 E35.47159
G1 X-37.425 Y-113.2 E35.50997
G1 X-36.689 Y-113.421 E35.54831
G1 X-35.933 Y-113.564 E35.58669
G1 X-34.934 Y-113.632 E35.63665
G1 X54.934 Y-113.632 E40.12018
G1 X55.702 Y-113.592 E40.15855
G1 X56.462 Y-113.473 E40.19693
G1 X57.205 Y-113.275 E40.23529
G1 X58.135 Y-112.904 E40.28524
G1 X58.901 Y-112.537 E40.32762
G1 X59.062 Y-112.492 E40.33596
G1 X59.58 Y-112.446 E40.36191
G1 X63.749 Y-112.446 E40.5699
G1 X64.517 Y-112.406 E40.60827
G1 X65.438 Y-112.266 E40.65474
G1 X66.189 Y-112.1 E40.69311
G1 X66.919 Y-111.856 E40.73151
G1 X67.676 Y-111.521 E40.77281
G1 X68.357 Y-111.163 E40.8112
G1 X68.997 Y-110.737 E40.84955
G1 X69.62 Y-110.234 E40.8895
G1 X70.185 Y-109.712 E40.92788
G1 X70.693 Y-109.135 E40.96623
G1 X71.174 Y-108.474 E41.00702
G1 X71.584 Y-107.823 E41.0454
G1 X72.064 Y-106.787 E41.10236
G1 X72.205 Y-106.408 E41.12254
G1 X72.435 Y-105.674 E41.16091
G1 X72.607 Y-104.785 E41.20609
G1 X72.652 Y-104.44 E41.22345
G1 X72.714 Y-103.483 E41.27129
G1 X72.714 Y-37.983 E44.5391
G1 X72.674 Y-37.215 E44.57747
G1 X72.534 Y-36.294 E44.62394
G1 X72.368 Y-35.543 E44.66232
G1 X72.124 Y-34.813 E44.70072
G1 X71.789 Y-34.056 E44.74202
G1 X71.431 Y-33.375 E44.7804
G1 X71.005 Y-32.735 E44.81876
G1 X70.502 Y-32.112 E44.8587
G1 X69.98 Y-31.547 E44.89708
G1 X69.403 Y-31.039 E44.93543
G1 X68.742 Y-30.558 E44.97622
G1 X68.091 Y-30.148 E45.0146
G1 X67.401 Y-29.807 E45.053
G1 X66.662 Y-29.523 E45.0925
G1 X65.928 Y-29.294 E45.13086
G1 X65.048 Y-29.125 E45.17556
G1 X64.702 Y-29.08 E45.19297
G1 X63.748 Y-29.018 E45.24067
G1 X59.448 Y-29.018 E45.4552
G1 X58.911 Y-28.95 E45.4822
G1 X58.609 Y-28.783 E45.49942
G1 X58.385 Y-28.532 E45.5162
G1 X58.253 Y-28.219 E45.53315
G1 X58.214 Y-27.787 E45.55479
G1 X58.214 Y-16.983 E46.0938
G1 X58.174 Y-16.215 E46.13217
G1 X58.034 Y-15.294 E46.17865
G1 X57.868 Y-14.543 E46.21702
G1 X57.624 Y-13.813 E46.25542
G1 X57.289 Y-13.056 E46.29672
G1 X56.931 Y-12.375 E46.3351
G1 X56.505 Y-11.735 E46.37346
G1 X56.002 Y-11.112 E46.41341
G1 X55.48 Y-10.547 E46.45178
G1 X54.903 Y-10.039 E46.49014
G1 X54.242 Y-9.558 E46.53092
G1 X53.591 Y-9.148 E46.56931
G1 X52.901 Y-8.807 E46.6077
G1 X52.162 Y-8.523 E46.6472
G1 X51.428 Y-8.294 E46.68556
G1 X50.548 Y-8.125 E46.73027
G1 X50.202 Y-8.08 E46.74767
G1 X49.248 Y-8.018 E46.79537
G1 X31.3 Y-8.018 E47.6908
G1 X30.532 Y-8.058 E47.72917
G1 X29.772 Y-8.177 E47.76755
G1 X29.029 Y-8.375 E47.80591
G1 X28.31 Y-8.649 E47.8443
G1 X27.624 Y-8.996 E47.88265
G1 X26.977 Y-9.412 E47.92102
G1 X26.377 Y-9.893 E47.95939
G1 X25.83 Y-10.434 E47.99777
G1 X25.342 Y-11.029 E48.03616
G1 X24.919 Y-11.671 E48.07452
G1 X24.564 Y-12.354 E48.11292
G1 X24.283 Y-13.069 E48.15125
G1 X24.077 Y-13.811 E48.18967
G1 X23.949 Y-14.569 E48.22802
G1 X23.9 Y-15.418 E48.27045
G1 X23.9 Y-17.832 E48.39089
G1 X-2 Y-17.832 E49.68304
G0 F3600 X-2 Y-18.232
G1 F1800 X-2.747 Y-18.272 E49.72036
G1 X-3.485 Y-18.391 E49.75766
G1 X-4.207 Y-18.589 E49.79501
G1 X-4.903 Y-18.862 E49.83231
G1 X-5.566 Y-19.209 E49.86964
G1 X-6.189 Y-19.624 E49.90699
G1 X-6.763 Y-20.103 E49.94429
G1 X-7.284 Y-20.64 E49.98161
G1 X-7.743 Y-21.23 E50.01891
G1 X-8.138 Y-21.866 E50.05626
G1 X-8.462 Y-22.54 E50.09357
G1 X-8.712 Y-23.245 E50.13089
G1 X-8.886 Y-23.973 E50.16823
G1 X-8.981 Y-24.715 E50.20555
G1 X-9 Y-25.232 E50.23136
G1 X-9 Y-26.232 E50.28125
G1 X-32.645 Y-26.232 E51.46091
G1 X-33.392 Y-26.272 E51.49823
G1 X-34.13 Y-26.391 E51.53552
G1 X-34.852 Y-26.589 E51.57287
G1 X-35.548 Y-26.862 E51.61017
G1 X-36.211 Y-27.209 E51.64751
G1 X-36.834 Y-27.624 E51.68485
G1 X-37.408 Y-28.103 E51.72215
G1 X-37.871 Y-28.575 E51.75514
G1 X-38.238 Y-28.987 E51.78266
G1 X-38.485 Y-29.186 E51.79849
G1 X-38.933 Y-29.372 E51.82269
G1 X-39.443 Y-29.418 E51.84824
G1 X-43.749 Y-29.418 E52.06306
G1 X-44.496 Y-29.458 E52.10038
G1 X-45.372 Y-29.592 E52.1446
G1 X-46.102 Y-29.755 E52.18191
G1 X-47.142 Y-30.138 E52.23721
G1 X-47.509 Y-30.307 E52.25736
G1 X-48.171 Y-30.656 E52.2947
G1 X-49.052 Y-31.279 E52.34853
G1 X-49.364 Y-31.538 E52.36876
G1 X-49.913 Y-32.046 E52.40608
G1 X-50.612 Y-32.888 E52.46068
G1 X-50.847 Y-33.221 E52.48101
G1 X-51.245 Y-33.854 E52.51831
G1 X-51.691 Y-34.824 E52.57158
G1 X-51.833 Y-35.207 E52.59196
G1 X-52.056 Y-35.921 E52.62927
G1 X-52.212 Y-36.744 E52.67107
G1 X-52.256 Y-37.085 E52.68822
G1 X-52.314 Y-37.981 E52.73301
G1 X-52.314 Y-46.832 E53.17459
G1 X-72.437 Y-46.832 E54.17853
G1 X-73.184 Y-46.872 E54.21585
G1 X-73.922 Y-46.991 E54.25315
G1 X-74.644 Y-47.189 E54.2905
G1 X-75.34 Y-47.462 E54.3278
G1 X-76.003 Y-47.809 E54.36513
G1 X-76.626 Y-48.224 E54.40248
G1 X-77.2 Y-48.703 E54.43978
G1 X-77.721 Y-49.24 E54.4771
G1 X-78.18 Y-49.83 E54.5144
G1 X-78.575 Y-50.466 E54.55175
G1 X-78.899 Y-51.14 E54.58906
G1 X-79.149 Y-51.845 E54.62638
G1 X-79.323 Y-52.573 E54.66372
G1 X-79.418 Y-53.315 E54.70104
G1 X-79.437 Y-53.832 E54.72685
G1 X-79.437 Y-56.832 E54.87652
G1 X-79.397 Y-57.579 E54.91384
