;FLAVOR:Marlin
;TIME:12485
;Filament used: 17.6082m
;Layer height: 0.3
;MINX:-80.237
;MINY:-114.032
;MINZ:0.3
;MAXX:73.779
;MAXY:94.846
;MAXZ:7.8
;Generated with Cura_SteamEngine 4.7.1
M140 S50
M105
M190 S50
M104 S255
M105
M109 S255
M82 ;absolute extrusion mode
G28 ;Home
G1 Z15.0 F6000 ;Move the platform down 15mm
;Prime the extruder
G92 E0
G1 F200 E3
G92 E0
G92 E0
G92 E0
G1 F1500 E-6.5
;LAYER_COUNT:26
;LAYER:0
M107
G0 F3600 X-2 Y-17.432 Z0.3
;TYPE:SKIRT
G1 F1500 E0
G1 F1800 X-2.789 Y-17.472 E0.03941
G1 X-3.569 Y-17.591 E0.07878
G1 X-4.334 Y-17.789 E0.1182
G1 X-5.074 Y-18.063 E0.15757
G1 X-5.783 Y-18.411 E0.19697
G1 X-6.454 Y-18.829 E0.23641
G1 X-7.078 Y-19.312 E0.27578
G1 X-7.651 Y-19.855 E0.31517
G1 X-8.166 Y-20.454 E0.35458
G1 X-8.617 Y-21.102 E0.39397
G1 X-9.001 Y-21.793 E0.43341
G1 X-9.313 Y-22.518 E0.47278
G1 X-9.55 Y-23.271 E0.51217
G1 X-9.709 Y-24.045 E0.55159
G1 X-9.79 Y-24.83 E0.59096
G1 X-9.8 Y-25.432 E0.621
G1 X-32.645 Y-25.432 E1.76074
G1 X-33.434 Y-25.472 E1.80015
G1 X-34.214 Y-25.591 E1.83952
G1 X-34.979 Y-25.789 E1.87894
G1 X-35.719 Y-26.063 E1.91831
G1 X-36.428 Y-26.411 E1.95771
G1 X-37.099 Y-26.829 E1.99715
G1 X-37.723 Y-27.312 E2.03652
G1 X-38.468 Y-28.042 E2.08856
G1 X-38.811 Y-28.427 E2.11428
G1 X-39.043 Y-28.572 E2.12793
G1 X-39.47 Y-28.618 E2.14936
G1 X-41.316 Y-28.618 E2.24146
G1 X-41.217 Y-28.439 E2.25166
G1 X-40.905 Y-27.714 E2.29104
G1 X-40.668 Y-26.961 E2.33042
G1 X-40.509 Y-26.187 E2.36985
G1 X-40.428 Y-25.402 E2.40922
G1 X-40.418 Y-25 E2.42928
G1 X-40.418 Y-22 E2.57895
G1 X-40.458 Y-21.211 E2.61836
G1 X-40.577 Y-20.431 E2.65773
G1 X-40.775 Y-19.666 E2.69715
G1 X-41.049 Y-18.926 E2.73652
G1 X-41.397 Y-18.217 E2.77592
G1 X-41.815 Y-17.546 E2.81536
G1 X-42.298 Y-16.922 E2.85473
G1 X-42.841 Y-16.349 E2.89412
G1 X-43.44 Y-15.834 E2.93353
G1 X-44.088 Y-15.383 E2.97292
G1 X-44.779 Y-14.999 E3.01235
G1 X-45.504 Y-14.687 E3.05173
G1 X-46.257 Y-14.45 E3.09112
G1 X-47.031 Y-14.291 E3.13054
G1 X-47.816 Y-14.21 E3.16991
G1 X-48.218 Y-14.2 E3.18997
G1 X-50.918 Y-14.2 E3.32468
G1 X-50.918 Y-6.119 E3.72784
G1 X-50.404 Y-6.831 E3.77165
G1 X-50.145 Y-7.143 E3.79188
G1 X-49.61 Y-7.724 E3.83128
G1 X-49.02 Y-8.249 E3.87068
G1 X-48.307 Y-8.769 E3.91471
G1 X-47.64 Y-9.191 E3.95409
G1 X-46.933 Y-9.543 E3.99349
G1 X-46.136 Y-9.852 E4.03614
G1 X-45.383 Y-10.088 E4.07551
G1 X-44.435 Y-10.272 E4.12368
G1 X-44.089 Y-10.317 E4.14109
G1 X-43.083 Y-10.382 E4.19139
G1 X-38.935 Y-10.382 E4.39833
G1 X-38.372 Y-10.45 E4.42662
G1 X-37.643 Y-10.8 E4.46697
G1 X-36.915 Y-11.106 E4.50637
G1 X-36.159 Y-11.335 E4.54578
G1 X-35.384 Y-11.488 E4.58519
G1 X-34.269 Y-11.568 E4.64096
G1 X24.527 Y-11.568 E7.5743
G1 X24.299 Y-11.979 E7.59775
G1 X23.987 Y-12.704 E7.63713
G1 X23.75 Y-13.457 E7.67651
G1 X23.591 Y-14.231 E7.71593
G1 X23.51 Y-15.016 E7.7553
G1 X23.5 Y-15.418 E7.77537
G1 X23.5 Y-17.432 E7.87585
G1 X-2 Y-17.432 E9.14805
G0 F3600 X-2 Y-17.832
G1 F1800 X-2.768 Y-17.872 E9.18641
G1 X-3.528 Y-17.991 E9.22479
G1 X-4.271 Y-18.189 E9.26315
G1 X-4.99 Y-18.463 E9.30154
G1 X-5.676 Y-18.81 E9.3399
G1 X-6.323 Y-19.226 E9.37827
G1 X-6.923 Y-19.707 E9.41664
G1 X-7.47 Y-20.248 E9.45502
G1 X-7.958 Y-20.843 E9.49341
G1 X-8.381 Y-21.485 E9.53177
G1 X-8.736 Y-22.168 E9.57017
G1 X-9.017 Y-22.883 E9.6085
G1 X-9.223 Y-23.625 E9.64692
G1 X-9.351 Y-24.383 E9.68527
G1 X-9.4 Y-25.232 E9.7277
G1 X-9.4 Y-25.832 E9.75763
G1 X-32.645 Y-25.832 E10.91733
G1 X-33.413 Y-25.872 E10.9557
G1 X-34.173 Y-25.991 E10.99407
G1 X-34.916 Y-26.189 E11.03244
G1 X-35.635 Y-26.463 E11.07082
G1 X-36.321 Y-26.81 E11.10918
G1 X-36.968 Y-27.226 E11.14755
G1 X-37.568 Y-27.707 E11.18592
G1 X-38.169 Y-28.308 E11.22832
G1 X-38.527 Y-28.709 E11.25514
G1 X-38.8 Y-28.904 E11.27188
G1 X-39.13 Y-29 E11.28903
G1 X-39.447 Y-29.018 E11.30487
G1 X-42.016 Y-29.018 E11.43303
G1 X-41.837 Y-28.747 E11.44924
G1 X-41.482 Y-28.064 E11.48764
G1 X-41.201 Y-27.349 E11.52597
G1 X-40.995 Y-26.607 E11.56439
G1 X-40.867 Y-25.849 E11.60274
G1 X-40.818 Y-25 E11.64517
G1 X-40.818 Y-22 E11.79484
G1 X-40.858 Y-21.232 E11.8332
G1 X-40.977 Y-20.472 E11.87158
G1 X-41.175 Y-19.729 E11.90994
G1 X-41.449 Y-19.01 E11.94833
G1 X-41.796 Y-18.324 E11.98669
G1 X-42.212 Y-17.677 E12.02506
G1 X-42.693 Y-17.077 E12.06343
G1 X-43.234 Y-16.53 E12.10181
G1 X-43.829 Y-16.042 E12.1402
G1 X-44.471 Y-15.619 E12.17856
G1 X-45.154 Y-15.264 E12.21696
G1 X-45.869 Y-14.983 E12.25529
G1 X-46.611 Y-14.777 E12.29371
G1 X-47.369 Y-14.649 E12.33206
G1 X-48.218 Y-14.6 E12.37449
G1 X-51.318 Y-14.6 E12.52915
G1 X-51.318 Y-4.517 E13.03219
G1 X-51.12 Y-4.951 E13.05599
G1 X-50.762 Y-5.632 E13.09437
G1 X-50.335 Y-6.272 E13.13276
G1 X-49.837 Y-6.888 E13.17228
G1 X-49.315 Y-7.453 E13.21065
G1 X-48.738 Y-7.961 E13.24901
G1 X-48.077 Y-8.442 E13.28979
G1 X-47.426 Y-8.852 E13.32817
G1 X-46.736 Y-9.193 E13.36657
G1 X-45.997 Y-9.477 E13.40607
G1 X-45.263 Y-9.706 E13.44443
G1 X-44.383 Y-9.875 E13.48914
G1 X-44.037 Y-9.92 E13.50654
G1 X-43.083 Y-9.982 E13.55424
G1 X-38.911 Y-9.982 E13.76238
G1 X-38.404 Y-10.028 E13.78778
G1 X-38.231 Y-10.075 E13.79672
G1 X-37.47 Y-10.44 E13.83883
G1 X-36.76 Y-10.736 E13.87721
G1 X-36.024 Y-10.957 E13.91555
G1 X-35.268 Y-11.1 E13.95393
G1 X-34.269 Y-11.168 E14.00389
G1 X25.25 Y-11.168 E16.9733
G1 X24.919 Y-11.671 E17.00334
G1 X24.564 Y-12.354 E17.04175
G1 X24.283 Y-13.069 E17.08007
G1 X24.077 Y-13.811 E17.11849
G1 X23.949 Y-14.569 E17.15685
G1 X23.9 Y-15.418 E17.19927
G1 X23.9 Y-17.832 E17.31971
G1 X-2 Y-17.832 E18.61186
G0 F3600 X-2 Y-18.232
G1 F1800 X-2.747 Y-18.272 E18.64919
G1 X-3.485 Y-18.391 E18.68648
G1 X-4.207 Y-18.589 E18.72383
G1 X-4.903 Y-18.862 E18.76113
G1 X-5.566 Y-19.209 E18.79846
G1 X-6.189 Y-19.624 E18.83581
G1 X-6.763 Y-20.103 E18.87311
G1 X-7.284 Y-20.64 E18.91044
G1 X-7.743 Y-21.23 E18.94773
G1 X-8.138 Y-21.866 E18.98508
G1 X-8.462 Y-22.54 E19.02239
G1 X-8.712 Y-23.245 E19.05971
G1 X-8.886 Y-23.973 E19.09705
G1 X-8.981 Y-24.715 E19.13437
G1 X-9 Y-25.232 E19.16018
G1 X-9 Y-26.232 E19.21007
G1 X-32.645 Y-26.232 E20.38973
G1 X-33.392 Y-26.272 E20.42705
G1 X-34.13 Y-26.391 E20.46434
G1 X-34.852 Y-26.589 E20.50169
G1 X-35.548 Y-26.862 E20.53899
G1 X-36.211 Y-27.209 E20.57633
G1 X-36.834 Y-27.624 E20.61367
G1 X-37.408 Y-28.103 E20.65097
G1 X-37.871 Y-28.575 E20.68396
G1 X-38.238 Y-28.987 E20.71149
G1 X-38.485 Y-29.186 E20.72731
G1 X-38.933 Y-29.372 E20.75151
G1 X-39.443 Y-29.418 E20.77706
G1 X-42.799 Y-29.418 E20.94449
G1 X-42.475 Y-29.002 E20.9708
G1 X-42.08 Y-28.366 E21.00815
G1 X-41.756 Y-27.692 E21.04546
G1 X-41.506 Y-26.987 E21.08278
G1 X-41.332 Y-26.259 E21.12012
G1 X-41.237 Y-25.517 E21.15744
G1 X-41.218 Y-25 E21.18325
G1 X-41.218 Y-22 E21.33292
G1 X-41.258 Y-21.253 E21.37024
G1 X-41.377 Y-20.515 E21.40754
G1 X-41.575 Y-19.793 E21.44489
G1 X-41.848 Y-19.097 E21.48219
G1 X-42.195 Y-18.434 E21.51952
G1 X-42.61 Y-17.811 E21.55687
G1 X-43.089 Y-17.237 E21.59416
G1 X-43.626 Y-16.716 E21.63149
G1 X-44.216 Y-16.257 E21.66879
G1 X-44.852 Y-15.862 E21.70614
G1 X-45.526 Y-15.538 E21.74345
G1 X-46.231 Y-15.288 E21.78077
G1 X-46.959 Y-15.114 E21.81811
G1 X-47.701 Y-15.019 E21.85543
G1 X-48.218 Y-15 E21.88124
G1 X-51.718 Y-15 E22.05586
G1 X-51.718 Y15 E23.55256
G1 X-51.649 Y15 E23.55601
G1 X-51.649 Y-1.017 E24.3551
G1 X-51.609 Y-1.764 E24.39242
G1 X-51.475 Y-2.639 E24.43658
G1 X-51.312 Y-3.369 E24.4739
G1 X-50.926 Y-4.418 E24.52966
G1 X-50.757 Y-4.784 E24.54978
G1 X-50.408 Y-5.445 E24.58707
G1 X-49.788 Y-6.32 E24.64057
G1 X-49.529 Y-6.632 E24.6608
G1 X-49.021 Y-7.181 E24.69812
G1 X-48.179 Y-7.88 E24.75271
G1 X-47.846 Y-8.115 E24.77305
G1 X-47.213 Y-8.513 E24.81035
G1 X-46.24 Y-8.961 E24.86379
G1 X-45.859 Y-9.102 E24.88406
G1 X-45.144 Y-9.324 E24.92141
G1 X-44.332 Y-9.479 E24.96265
G1 X-43.986 Y-9.524 E24.98006
G1 X-43.083 Y-9.582 E25.0252
G1 X-38.897 Y-9.582 E25.23404
G1 X-38.329 Y-9.633 E25.2625
G1 X-38.09 Y-9.699 E25.27487
G1 X-37.297 Y-10.079 E25.31874
G1 X-36.606 Y-10.366 E25.35607
G1 X-35.889 Y-10.578 E25.39337
G1 X-35.153 Y-10.712 E25.43069
G1 X-34.269 Y-10.768 E25.47488
G1 X26.072 Y-10.768 E28.48531
G1 X26.016 Y-10.826 E28.48933
G1 X25.557 Y-11.416 E28.52662
G1 X25.162 Y-12.052 E28.56398
G1 X24.838 Y-12.726 E28.60128
G1 X24.588 Y-13.431 E28.6386
G1 X24.414 Y-14.159 E28.67595
G1 X24.319 Y-14.901 E28.71327
G1 X24.3 Y-15.418 E28.73908
G1 X24.3 Y-18.232 E28.87947
G1 X-2 Y-18.232 E30.19158
G0 F3600 X-2 Y-18.632
G1 F1800 X-2.725 Y-18.672 E30.22781
G1 X-3.442 Y-18.791 E30.26407
G1 X-4.141 Y-18.989 E30.30031
G1 X-4.814 Y-19.262 E30.33655
G1 X-5.453 Y-19.607 E30.37278
G1 X-6.05 Y-20.021 E30.40902
G1 X-6.598 Y-20.497 E30.44523
G1 X-7.091 Y-21.031 E30.48149
G1 X-7.521 Y-21.616 E30.51772
G1 X-7.885 Y-22.245 E30.55397
G1 X-8.178 Y-22.91 E30.59023
G1 X-8.396 Y-23.603 E30.62647
G1 X-8.536 Y-24.315 E30.66267
G1 X-8.6 Y-25.232 E30.70853
G1 X-8.6 Y-26.632 E30.77838
G1 X-32.645 Y-26.632 E31.97799
G1 X-33.37 Y-26.672 E32.01422
G1 X-34.087 Y-26.791 E32.05048
G1 X-34.786 Y-26.989 E32.08672
G1 X-35.459 Y-27.262 E32.12295
G1 X-36.098 Y-27.607 E32.15918
G1 X-36.695 Y-28.021 E32.19543
G1 X-37.243 Y-28.497 E32.23164
G1 X-37.572 Y-28.841 E32.25539
G1 X-37.958 Y-29.274 E32.28433
G1 X-38.276 Y-29.528 E32.30464
G1 X-38.643 Y-29.705 E32.32496
G1 X-39.04 Y-29.796 E32.34528
G1 X-39.439 Y-29.818 E32.36522
G1 X-43.716 Y-29.818 E32.5786
G1 X-43.62 Y-29.735 E32.58493
G1 X-43.127 Y-29.201 E32.62119
G1 X-42.697 Y-28.616 E32.65741
G1 X-42.333 Y-27.987 E32.69367
G1 X-42.04 Y-27.322 E32.72992
G1 X-41.822 Y-26.629 E32.76617
G1 X-41.682 Y-25.917 E32.80237
G1 X-41.618 Y-25 E32.84823
G1 X-41.618 Y-22 E32.9979
G1 X-41.658 Y-21.275 E33.03413
G1 X-41.777 Y-20.558 E33.07039
G1 X-41.975 Y-19.859 E33.10663
G1 X-42.248 Y-19.186 E33.14287
G1 X-42.593 Y-18.547 E33.1791
G1 X-43.007 Y-17.95 E33.21534
G1 X-43.483 Y-17.402 E33.25155
G1 X-44.017 Y-16.909 E33.28781
G1 X-44.602 Y-16.479 E33.32404
G1 X-45.231 Y-16.115 E33.36029
G1 X-45.896 Y-15.822 E33.39655
G1 X-46.589 Y-15.604 E33.43279
G1 X-47.301 Y-15.464 E33.46899
G1 X-48.218 Y-15.4 E33.51485
G1 X-52.118 Y-15.4 E33.70943
G1 X-52.118 Y15.4 E35.24604
G1 X-51.249 Y15.4 E35.2894
G1 X-51.249 Y-1.017 E36.10845
G1 X-51.209 Y-1.742 E36.14467
G1 X-51.08 Y-2.573 E36.18663
G1 X-50.921 Y-3.281 E36.22283
G1 X-50.563 Y-4.25 E36.27437
G1 X-50.394 Y-4.616 E36.29448
G1 X-50.054 Y-5.258 E36.33072
G1 X-49.48 Y-6.065 E36.38013
G1 X-49.221 Y-6.377 E36.40036
G1 X-48.727 Y-6.909 E36.43658
G1 X-47.948 Y-7.553 E36.487
G1 X-47.615 Y-7.788 E36.50734
G1 X-47 Y-8.174 E36.54356
G1 X-46.101 Y-8.586 E36.5929
G1 X-45.72 Y-8.727 E36.61317
G1 X-45.026 Y-8.941 E36.6494
G1 X-44.28 Y-9.082 E36.68728
G1 X-43.934 Y-9.127 E36.70469
G1 X-43.083 Y-9.182 E36.74723
G1 X-38.883 Y-9.182 E36.95677
G1 X-38.253 Y-9.239 E36.98833
G1 X-37.954 Y-9.321 E37.0038
G1 X-37.124 Y-9.719 E37.04972
G1 X-36.453 Y-9.996 E37.08594
G1 X-35.755 Y-10.198 E37.12219
G1 X-35.04 Y-10.323 E37.1584
G1 X-34.269 Y-10.368 E37.19693
G1 X27.065 Y-10.368 E40.2569
G1 X26.702 Y-10.683 E40.28088
G1 X26.209 Y-11.217 E40.31714
G1 X25.779 Y-11.802 E40.35336
G1 X25.415 Y-12.431 E40.38961
G1 X25.122 Y-13.096 E40.42587
G1 X24.904 Y-13.789 E40.46211
G1 X24.764 Y-14.501 E40.49832
G1 X24.7 Y-15.418 E40.54418
G1 X24.7 Y-18.632 E40.70452
G1 X-2 Y-18.632 E42.03659
G0 F3600 X-2 Y-19.032
G1 F1800 X-2.703 Y-19.072 E42.07172
G1 X-3.397 Y-19.191 E42.10685
G1 X-4.072 Y-19.389 E42.14194
G1 X-4.721 Y-19.661 E42.17705
G1 X-5.335 Y-20.006 E42.21219
G1 X-5.906 Y-20.417 E42.24729
G1 X-6.427 Y-20.891 E42.28243
G1 X-6.891 Y-21.421 E42.31757
G1 X-7.291 Y-22 E42.35268
G1 X-7.623 Y-22.621 E42.38781
G1 X-7.883 Y-23.275 E42.42293
G1 X-8.067 Y-23.955 E42.45807
G1 X-8.173 Y-24.651 E42.4932
G1 X-8.2 Y-25.232 E42.52221
G1 X-8.2 Y-27.032 E42.61201
G1 X-32.645 Y-27.032 E43.83158
G1 X-33.348 Y-27.072 E43.86671
G1 X-34.042 Y-27.191 E43.90184
G1 X-34.717 Y-27.389 E43.93693
G1 X-35.366 Y-27.661 E43.97204
G1 X-35.98 Y-28.006 E44.00718
G1 X-36.551 Y-28.417 E44.04228
G1 X-37.274 Y-29.107 E44.09214
G1 X-37.679 Y-29.561 E44.12249
G1 X-38.063 Y-29.867 E44.14699
G1 X-38.513 Y-30.084 E44.17191
G1 X-38.995 Y-30.194 E44.19658
G1 X-39.416 Y-30.218 E44.21762
G1 X-43.749 Y-30.218 E44.43379
G1 X-44.775 Y-30.303 E44.48515
G1 X-45.124 Y-30.362 E44.50281
G1 X-44.883 Y-30.226 E44.51662
G1 X-44.312 Y-29.815 E44.55172
G1 X-43.791 Y-29.341 E44.58686
G1 X-43.327 Y-28.811 E44.622
G1 X-42.927 Y-28.232 E44.65711
G1 X-42.595 Y-27.611 E44.69224
G1 X-42.335 Y-26.957 E44.72735
G1 X-42.151 Y-26.277 E44.7625
G1 X-42.045 Y-25.581 E44.79762
G1 X-42.018 Y-25 E44.82664
G1 X-42.018 Y-22 E44.97631
G1 X-42.058 Y-21.297 E45.01144
G1 X-42.177 Y-20.603 E45.04657
G1 X-42.375 Y-19.928 E45.08167
G1 X-42.647 Y-19.279 E45.11677
G1 X-42.992 Y-18.665 E45.15191
G1 X-43.403 Y-18.094 E45.18701
G1 X-43.877 Y-17.573 E45.22215
G1 X-44.407 Y-17.109 E45.25729
G1 X-44.986 Y-16.709 E45.2924
G1 X-45.607 Y-16.377 E45.32753
G1 X-46.261 Y-16.117 E45.36265
G1 X-46.941 Y-15.933 E45.39779
G1 X-47.637 Y-15.827 E45.43292
G1 X-48.218 Y-15.8 E45.46193
G1 X-52.518 Y-15.8 E45.67646
G1 X-52.518 Y15.8 E47.25299
G1 X-50.849 Y15.8 E47.33626
G1 X-50.849 Y-1.017 E48.17526
G1 X-50.764 Y-2.041 E48.22652
G1 X-50.686 Y-2.507 E48.2501
G1 X-50.53 Y-3.193 E48.2852
G1 X-50.2 Y-4.082 E48.3325
G1 X-50.031 Y-4.448 E48.35262
G1 X-49.7 Y-5.069 E48.38773
G1 X-49.172 Y-5.809 E48.43308
G1 X-48.913 Y-6.121 E48.45331
G1 X-48.434 Y-6.636 E48.4884
G1 X-47.718 Y-7.227 E48.53472
G1 X-47.385 Y-7.462 E48.55505
G1 X-46.788 Y-7.834 E48.59014
G1 X-45.962 Y-8.211 E48.63544
G1 X-45.581 Y-8.352 E48.65571
G1 X-44.908 Y-8.558 E48.69082
G1 X-44.229 Y-8.685 E48.72529
G1 X-43.883 Y-8.73 E48.74269
G1 X-43.083 Y-8.782 E48.78269
G1 X-38.858 Y-8.782 E48.99348
G1 X-38.189 Y-8.842 E49.02699
G1 X-37.808 Y-8.947 E49.0467
G1 X-36.951 Y-9.358 E49.09412
G1 X-36.3 Y-9.626 E49.12925
G1 X-35.623 Y-9.818 E49.16435
G1 X-34.928 Y-9.933 E49.1995
G1 X-34.269 Y-9.968 E49.23242
G1 X28.364 Y-9.968 E52.3572
G1 X27.965 Y-10.192 E52.38002
G1 X27.394 Y-10.603 E52.41512
G1 X26.873 Y-11.077 E52.45026
G1 X26.409 Y-11.607 E52.48541
G1 X26.009 Y-12.186 E52.52052
G1 X25.677 Y-12.807 E52.55565
G1 X25.417 Y-13.461 E52.59076
G1 X25.233 Y-14.141 E52.62591
G1 X25.127 Y-14.837 E52.66103
G1 X25.1 Y-15.418 E52.69005
G1 X25.1 Y-19.032 E52.87035
G1 X-2 Y-19.032 E54.22237
G0 F3600 X-2 Y-19.432
G1 F1800 X-2.68 Y-19.472 E54.25636
G1 X-3.35 Y-19.591 E54.29031
G1 X-4.002 Y-19.788 E54.32429
G1 X-4.626 Y-20.06 E54.35825
G1 X-5.214 Y-20.404 E54.39224
G1 X-5.758 Y-20.814 E54.42622
G1 X-6.249 Y-21.285 E54.46017
G1 X-6.683 Y-21.81 E54.49415
G1 X-7.052 Y-22.382 E54.52811
G1 X-7.351 Y-22.994 E54.56209
G1 X-7.576 Y-23.636 E54.59603
G1 X-7.725 Y-24.301 E54.63003
G1 X-7.8 Y-25.232 E54.67663
G1 X-7.8 Y-27.432 E54.78639
G1 X-32.645 Y-27.432 E56.02591
G1 X-33.325 Y-27.472 E56.05989
G1 X-33.995 Y-27.591 E56.09384
G1 X-34.647 Y-27.788 E56.12782
G1 X-35.271 Y-28.06 E56.16178
G1 X-35.859 Y-28.404 E56.19577
G1 X-36.403 Y-28.814 E56.22976
G1 X-36.975 Y-29.373 E56.26966
G1 X-37.39 Y-29.838 E56.30075
G1 X-37.85 Y-30.207 E56.33017
G1 X-38.383 Y-30.462 E56.35965
G1 X-38.95 Y-30.592 E56.38867
G1 X-39.412 Y-30.618 E56.41176
G1 X-43.749 Y-30.618 E56.62813
G1 X-44.708 Y-30.698 E56.67614
G1 X-45.173 Y-30.776 E56.69967
G1 X-45.837 Y-30.928 E56.73365
G1 X-46.083 Y-31.02 E56.74675
G1 X-46.199 Y-30.963 E56.7532
G1 X-46.841 Y-30.738 E56.78714
G1 X-47.094 Y-30.681 E56.80008
G1 X-46.868 Y-30.641 E56.81153
G1 X-46.216 Y-30.444 E56.84551
G1 X-45.592 Y-30.172 E56.87947
G1 X-45.004 Y-29.828 E56.91346
G1 X-44.46 Y-29.418 E56.94744
G1 X-43.969 Y-28.947 E56.98139
G1 X-43.535 Y-28.422 E57.01537
G1 X-43.166 Y-27.85 E57.04933
G1 X-42.867 Y-27.238 E57.08331
G1 X-42.642 Y-26.596 E57.11725
G1 X-42.493 Y-25.931 E57.15125
G1 X-42.418 Y-25 E57.19785
G1 X-42.418 Y-22 E57.34752
G1 X-42.458 Y-21.32 E57.38151
G1 X-42.577 Y-20.65 E57.41546
G1 X-42.774 Y-19.998 E57.44944
G1 X-43.046 Y-19.374 E57.4834
G1 X-43.39 Y-18.786 E57.51738
G1 X-43.8 Y-18.242 E57.55137
G1 X-44.271 Y-17.751 E57.58531
G1 X-44.796 Y-17.317 E57.6193
G1 X-45.368 Y-16.948 E57.65326
G1 X-45.98 Y-16.649 E57.68724
G1 X-46.622 Y-16.424 E57.72118
G1 X-47.287 Y-16.275 E57.75518
G1 X-48.218 Y-16.2 E57.80178
G1 X-52.918 Y-16.2 E58.03626
G1 X-52.918 Y16.2 E59.6527
