;FLAVOR:Marlin
;TIME:18425
;Filament used: 26.6633m
;Layer height: 0.3
;MINX:-82.78
;MINY:-122.607
;MINZ:0.3
;MAXX:82.78
;MAXY:122.607
;MAXZ:3.9
;Generated with Cura_SteamEngine 4.7.1
M140 S50
M105
M190 S50
M104 S250
M105
M109 S250
M82 ;absolute extrusion mode
G28 ;Home
G1 Z15.0 F6000 ;Move the platform down 15mm
;Prime the extruder
G92 E0
G1 F200 E3
G92 E0
G92 E0
G92 E0
G1 F1500 E-6.5
;LAYER_COUNT:13
;LAYER:0
M107
G0 F3600 X77.421 Y-0.001 Z0.3
;TYPE:SKIRT
G1 F1500 E0
G1 F1800 X77.585 Y0.071 E0.00894
G1 X78.451 Y0.577 E0.05898
G1 X78.751 Y0.779 E0.07702
G1 X79.383 Y1.253 E0.11643
G1 X80.104 Y1.934 E0.16591
G1 X80.36 Y2.209 E0.18466
G1 X80.868 Y2.814 E0.22407
G1 X81.381 Y3.58 E0.27006
G1 X81.565 Y3.894 E0.28822
G1 X81.929 Y4.595 E0.32763
G1 X82.266 Y5.469 E0.37436
G1 X82.376 Y5.814 E0.39243
G1 X82.578 Y6.577 E0.4318
G1 X82.7 Y7.343 E0.4705
G1 X82.735 Y7.666 E0.48671
G1 X82.78 Y8.506 E0.52868
G1 X82.78 Y99.961 E5.09139
G1 X82.74 Y100.75 E5.1308
G1 X82.621 Y101.53 E5.17017
G1 X82.423 Y102.295 E5.20959
G1 X82.149 Y103.035 E5.24896
G1 X81.924 Y103.514 E5.27536
G1 X81.88 Y103.6 E5.28018
G1 X81.485 Y104.284 E5.31959
G1 X81.023 Y104.924 E5.35897
G1 X80.499 Y105.515 E5.39837
G1 X79.918 Y106.049 E5.43774
G1 X79.52 Y106.358 E5.46288
G1 X76.548 Y108.517 E5.64615
G1 X76.36 Y108.649 E5.65761
G1 X73.289 Y110.744 E5.84308
G1 X73.092 Y110.874 E5.85485
G1 X69.977 Y112.864 E6.03927
G1 X69.291 Y113.255 E6.07866
G1 X68.569 Y113.575 E6.11806
G1 X68.032 Y113.758 E6.14636
G1 X67.979 Y113.774 E6.14912
G1 X67.213 Y113.964 E6.1885
G1 X66.431 Y114.075 E6.2279
G1 X65.725 Y114.107 E6.26316
G1 X64.961 Y114.107 E6.30128
G1 X64.92 Y114.191 E6.30594
G1 X64.536 Y114.881 E6.34534
G1 X64.085 Y115.529 E6.38473
G1 X63.436 Y116.264 E6.43364
G1 X63.391 Y116.309 E6.43682
G1 X62.805 Y116.839 E6.47624
G1 X62.169 Y117.306 E6.5156
G1 X61.401 Y117.752 E6.55991
G1 X58.908 Y119.015 E6.69934
G1 X58.736 Y119.1 E6.70891
G1 X55.375 Y120.7 E6.89462
G1 X55.195 Y120.782 E6.90449
G1 X52.635 Y121.922 E7.0443
G1 X51.898 Y122.207 E7.08372
G1 X51.119 Y122.419 E7.124
G1 X51.073 Y122.429 E7.12635
G1 X50.294 Y122.557 E7.16574
G1 X49.416 Y122.607 E7.20961
G1 X37.558 Y122.607 E7.80121
G1 X36.769 Y122.567 E7.84062
G1 X35.989 Y122.448 E7.87999
G1 X35.224 Y122.25 E7.91941
G1 X34.484 Y121.976 E7.95878
G1 X33.775 Y121.628 E7.99818
G1 X33.104 Y121.21 E8.03762
G1 X32.48 Y120.727 E8.07699
G1 X32.043 Y120.322 E8.10672
G1 X31.926 Y120.205 E8.11497
G1 X31.396 Y119.619 E8.15439
G1 X30.929 Y118.983 E8.19376
G1 X30.528 Y118.303 E8.23314
G1 X30.198 Y117.585 E8.27256
G1 X29.943 Y116.838 E8.31194
G1 X29.764 Y116.069 E8.35134
G1 X29.664 Y115.285 E8.39077
G1 X29.662 Y115.243 E8.39286
G1 X25.213 Y115.243 E8.61483
G1 X25.201 Y115.479 E8.62661
G1 X25.082 Y116.259 E8.66598
G1 X24.884 Y117.024 E8.7054
G1 X24.61 Y117.764 E8.74477
G1 X24.262 Y118.473 E8.78417
G1 X23.844 Y119.144 E8.82362
G1 X23.361 Y119.768 E8.86298
G1 X22.956 Y120.205 E8.89271
G1 X22.839 Y120.322 E8.90096
G1 X22.253 Y120.852 E8.94038
G1 X21.617 Y121.319 E8.97975
G1 X20.937 Y121.72 E9.01913
G1 X20.219 Y122.05 E9.05856
G1 X19.472 Y122.305 E9.09794
G1 X18.703 Y122.484 E9.13733
G1 X17.919 Y122.584 E9.17676
G1 X17.324 Y122.607 E9.20646
G1 X-22.442 Y122.607 E11.1904
G1 X-23.231 Y122.567 E11.22981
G1 X-24.011 Y122.448 E11.26918
G1 X-24.776 Y122.25 E11.3086
G1 X-25.516 Y121.976 E11.34797
G1 X-26.225 Y121.628 E11.38737
G1 X-26.896 Y121.21 E11.42681
G1 X-27.52 Y120.727 E11.46618
G1 X-27.957 Y120.322 E11.49591
G1 X-28.074 Y120.205 E11.50416
G1 X-28.604 Y119.619 E11.54358
G1 X-29.071 Y118.983 E11.58295
G1 X-29.472 Y118.303 E11.62233
G1 X-29.802 Y117.585 E11.66175
G1 X-30.057 Y116.838 E11.70113
G1 X-30.236 Y116.069 E11.74053
G1 X-30.336 Y115.285 E11.77996
G1 X-30.338 Y115.239 E11.78225
G1 X-34.787 Y115.239 E12.00421
G1 X-34.799 Y115.479 E12.0162
G1 X-34.918 Y116.259 E12.05557
G1 X-35.116 Y117.024 E12.09499
G1 X-35.39 Y117.764 E12.13436
G1 X-35.738 Y118.473 E12.17376
G1 X-36.156 Y119.144 E12.2132
G1 X-36.639 Y119.768 E12.25257
G1 X-37.044 Y120.205 E12.2823
G1 X-37.161 Y120.322 E12.29055
G1 X-37.747 Y120.852 E12.32997
G1 X-38.383 Y121.319 E12.36934
G1 X-39.063 Y121.72 E12.40872
G1 X-39.781 Y122.05 E12.44815
G1 X-40.528 Y122.305 E12.48752
G1 X-41.297 Y122.484 E12.52692
G1 X-42.081 Y122.584 E12.56635
G1 X-42.676 Y122.607 E12.59605
G1 X-49.416 Y122.607 E12.93231
G1 X-50.205 Y122.567 E12.97173
G1 X-51.108 Y122.421 E13.01736
G1 X-51.153 Y122.411 E13.01966
G1 X-51.914 Y122.201 E13.05905
G1 X-52.635 Y121.922 E13.09762
G1 X-55.199 Y120.78 E13.23765
G1 X-55.377 Y120.698 E13.24743
G1 X-58.816 Y119.061 E13.43745
G1 X-58.994 Y118.974 E13.44733
G1 X-61.406 Y117.75 E13.58228
G1 X-62.091 Y117.357 E13.62167
G1 X-62.733 Y116.897 E13.66108
G1 X-63.391 Y116.309 E13.7051
G1 X-63.436 Y116.264 E13.70828
G1 X-63.966 Y115.678 E13.7477
G1 X-64.433 Y115.042 E13.78706
G1 X-64.92 Y114.191 E13.83598
G1 X-64.961 Y114.107 E13.84064
G1 X-65.725 Y114.107 E13.87876
G1 X-66.514 Y114.067 E13.91817
G1 X-67.294 Y113.948 E13.95754
G1 X-67.979 Y113.774 E13.9928
G1 X-68.032 Y113.758 E13.99556
G1 X-68.776 Y113.492 E14.03498
G1 X-69.488 Y113.152 E14.07434
G1 X-69.978 Y112.863 E14.10272
G1 X-73.095 Y110.871 E14.28728
G1 X-73.289 Y110.743 E14.29887
G1 X-76.36 Y108.649 E14.48431
G1 X-76.551 Y108.515 E14.49595
G1 X-79.521 Y106.357 E14.67911
G1 X-80.135 Y105.861 E14.71849
G1 X-80.697 Y105.306 E14.7579
G1 X-81.199 Y104.696 E14.79731
G1 X-81.637 Y104.039 E14.8367
G1 X-81.88 Y103.6 E14.86174
G1 X-81.924 Y103.514 E14.86656
G1 X-82.248 Y102.793 E14.90599
G1 X-82.497 Y102.044 E14.94537
G1 X-82.669 Y101.273 E14.98478
G1 X-82.762 Y100.489 E15.02417
G1 X-82.78 Y99.961 E15.05053
G1 X-82.78 Y8.507 E19.61319
G1 X-82.703 Y7.414 E19.66785
G1 X-82.643 Y6.99 E19.68921
G1 X-82.493 Y6.215 E19.7286
G1 X-82.205 Y5.296 E19.77664
G1 X-82.073 Y4.951 E19.79507
G1 X-81.754 Y4.228 E19.8345
G1 X-81.242 Y3.357 E19.88491
G1 X-81.037 Y3.055 E19.90312
G1 X-80.561 Y2.425 E19.94251
G1 X-79.898 Y1.727 E19.99054
G1 X-79.623 Y1.471 E20.00928
G1 X-79.018 Y0.963 E20.0487
G1 X-78.21 Y0.426 E20.0971
G1 X-77.895 Y0.244 E20.11525
G1 X-77.421 Y0.001 E20.14182
G1 X-77.585 Y-0.071 E20.15076
G1 X-78.456 Y-.58 E20.20109
G1 X-78.757 Y-.783 E20.2192
G1 X-79.389 Y-1.257 E20.25861
G1 X-80.106 Y-1.936 E20.30788
G1 X-80.361 Y-2.21 E20.32655
G1 X-80.869 Y-2.815 E20.36597
G1 X-81.386 Y-3.59 E20.41245
G1 X-81.57 Y-3.905 E20.43065
G1 X-81.933 Y-4.606 E20.47003
G1 X-82.266 Y-5.47 E20.51623
G1 X-82.376 Y-5.815 E20.53429
G1 X-82.578 Y-6.578 E20.57367
G1 X-82.699 Y-7.341 E20.61221
G1 X-82.734 Y-7.663 E20.62837
G1 X-82.78 Y-8.506 E20.67049
G1 X-82.78 Y-99.961 E25.2332
G1 X-82.74 Y-100.75 E25.27261
G1 X-82.621 Y-101.53 E25.31198
G1 X-82.423 Y-102.295 E25.3514
G1 X-82.149 Y-103.035 E25.39077
G1 X-81.924 Y-103.514 E25.41717
G1 X-81.88 Y-103.6 E25.42199
G1 X-81.485 Y-104.284 E25.4614
G1 X-81.023 Y-104.924 E25.50078
G1 X-80.499 Y-105.515 E25.54018
G1 X-79.918 Y-106.049 E25.57955
G1 X-79.52 Y-106.358 E25.60469
G1 X-76.548 Y-108.517 E25.78796
G1 X-76.36 Y-108.649 E25.79942
G1 X-73.289 Y-110.744 E25.98489
G1 X-73.092 Y-110.874 E25.99666
G1 X-69.977 Y-112.864 E26.18108
G1 X-69.291 Y-113.255 E26.22047
G1 X-68.569 Y-113.575 E26.25987
G1 X-68.032 Y-113.758 E26.28817
G1 X-67.979 Y-113.774 E26.29094
G1 X-67.213 Y-113.964 E26.33031
G1 X-66.431 Y-114.075 E26.36972
G1 X-65.725 Y-114.107 E26.40497
G1 X-64.962 Y-114.107 E26.44304
G1 X-64.924 Y-114.184 E26.44732
G1 X-64.541 Y-114.875 E26.48674
G1 X-64.089 Y-115.523 E26.52616
G1 X-63.436 Y-116.264 E26.57543
G1 X-63.391 Y-116.309 E26.57861
G1 X-62.805 Y-116.839 E26.61803
G1 X-62.169 Y-117.306 E26.65739
G1 X-61.401 Y-117.752 E26.7017
G1 X-58.908 Y-119.015 E26.84113
G1 X-58.736 Y-119.1 E26.8507
G1 X-55.375 Y-120.7 E27.03641
G1 X-55.195 Y-120.782 E27.04628
G1 X-52.635 Y-121.922 E27.18609
G1 X-51.898 Y-122.207 E27.22551
G1 X-51.119 Y-122.419 E27.26579
G1 X-51.073 Y-122.429 E27.26814
G1 X-50.294 Y-122.557 E27.30752
G1 X-49.416 Y-122.607 E27.3514
G1 X19.903 Y-122.607 E30.80974
G1 X20.692 Y-122.567 E30.84915
G1 X21.472 Y-122.448 E30.88851
G1 X22.237 Y-122.25 E30.92794
G1 X22.977 Y-121.976 E30.96731
G1 X23.686 Y-121.628 E31.00671
G1 X24.357 Y-121.21 E31.04615
G1 X24.981 Y-120.727 E31.08552
G1 X25.418 Y-120.322 E31.11524
G1 X25.535 Y-120.205 E31.1235
G1 X26.065 Y-119.619 E31.16292
G1 X26.532 Y-118.983 E31.20228
G1 X26.933 Y-118.303 E31.24167
G1 X27.263 Y-117.585 E31.28109
G1 X27.518 Y-116.838 E31.32047
G1 X27.697 Y-116.069 E31.35986
G1 X27.797 Y-115.285 E31.39929
G1 X27.8 Y-115.205 E31.40329
G1 X32.246 Y-115.205 E31.6251
G1 X32.26 Y-115.479 E31.63879
G1 X32.379 Y-116.259 E31.67815
G1 X32.577 Y-117.024 E31.71758
G1 X32.851 Y-117.764 E31.75694
G1 X33.199 Y-118.473 E31.79635
G1 X33.617 Y-119.144 E31.83579
G1 X34.1 Y-119.768 E31.87516
G1 X34.505 Y-120.205 E31.90488
G1 X34.622 Y-120.322 E31.91314
G1 X35.208 Y-120.852 E31.95256
G1 X35.844 Y-121.319 E31.99192
G1 X36.524 Y-121.72 E32.03131
G1 X37.242 Y-122.05 E32.07073
G1 X37.989 Y-122.305 E32.11011
G1 X38.758 Y-122.484 E32.1495
G1 X39.542 Y-122.584 E32.18893
G1 X40.137 Y-122.607 E32.21864
G1 X49.416 Y-122.607 E32.68157
G1 X50.205 Y-122.567 E32.72098
G1 X51.108 Y-122.421 E32.76662
G1 X51.153 Y-122.411 E32.76892
G1 X51.914 Y-122.201 E32.8083
G1 X52.635 Y-121.922 E32.84687
G1 X55.199 Y-120.78 E32.98691
G1 X55.377 Y-120.698 E32.99668
G1 X58.816 Y-119.061 E33.1867
G1 X58.994 Y-118.974 E33.19659
G1 X61.406 Y-117.75 E33.33153
G1 X62.091 Y-117.357 E33.37093
G1 X62.733 Y-116.897 E33.41033
G1 X63.391 Y-116.309 E33.45436
G1 X63.436 Y-116.264 E33.45753
G1 X63.966 Y-115.678 E33.49695
G1 X64.433 Y-115.042 E33.53632
G1 X64.924 Y-114.184 E33.58564
G1 X64.962 Y-114.107 E33.58992
G1 X65.725 Y-114.107 E33.62799
G1 X66.514 Y-114.067 E33.6674
G1 X67.294 Y-113.948 E33.70677
G1 X67.979 Y-113.774 E33.74203
G1 X68.032 Y-113.758 E33.74479
G1 X68.776 Y-113.492 E33.78421
G1 X69.488 Y-113.152 E33.82357
G1 X69.978 Y-112.863 E33.85195
G1 X73.095 Y-110.871 E34.0365
G1 X73.289 Y-110.744 E34.04807
G1 X76.359 Y-108.651 E34.23344
G1 X76.55 Y-108.516 E34.24511
G1 X79.521 Y-106.357 E34.42834
G1 X80.136 Y-105.861 E34.46776
G1 X80.697 Y-105.305 E34.50716
G1 X81.199 Y-104.696 E34.54654
G1 X81.637 Y-104.039 E34.58593
G1 X81.88 Y-103.6 E34.61097
G1 X81.924 Y-103.514 E34.61579
G1 X82.248 Y-102.793 E34.65522
G1 X82.497 Y-102.044 E34.6946
G1 X82.669 Y-101.273 E34.73401
G1 X82.762 Y-100.489 E34.7734
G1 X82.78 Y-99.961 E34.79976
G1 X82.78 Y-8.507 E39.36241
G1 X82.703 Y-7.414 E39.41708
G1 X82.643 Y-6.99 E39.43844
G1 X82.493 Y-6.215 E39.47783
G1 X82.205 Y-5.296 E39.52587
G1 X82.073 Y-4.951 E39.5443
G1 X81.754 Y-4.228 E39.58373
G1 X81.242 Y-3.357 E39.63414
G1 X81.037 Y-3.055 E39.65235
G1 X80.561 Y-2.425 E39.69174
G1 X79.898 Y-1.727 E39.73977
G1 X79.623 Y-1.471 E39.75851
G1 X79.018 Y-.963 E39.79792
G1 X78.21 Y-.426 E39.84633
G1 X77.895 Y-.244 E39.86448
G1 X77.421 Y-0.001 E39.89105
G0 F3600 X77.423 Y0.438
G1 F1800 X78.228 Y0.909 E39.93758
G1 X78.528 Y1.111 E39.95563
G1 X79.143 Y1.573 E39.994
G1 X79.811 Y2.207 E40.03995
G1 X80.067 Y2.482 E40.05869
G1 X80.561 Y3.071 E40.09705
G1 X81.036 Y3.783 E40.13975
G1 X81.22 Y4.097 E40.1579
G1 X81.573 Y4.78 E40.19626
G1 X81.885 Y5.59 E40.23957
G1 X81.995 Y5.935 E40.25763
G1 X82.191 Y6.679 E40.29602
G1 X82.302 Y7.386 E40.33172
G1 X82.337 Y7.709 E40.34793
G1 X82.38 Y8.506 E40.38775
G1 X82.38 Y99.961 E44.95046
G1 X82.34 Y100.729 E44.98883
G1 X82.221 Y101.489 E45.0272
G1 X82.023 Y102.232 E45.06557
G1 X81.749 Y102.951 E45.10395
G1 X81.524 Y103.418 E45.12982
G1 X81.138 Y104.083 E45.16818
G1 X80.686 Y104.705 E45.20654
G1 X80.171 Y105.277 E45.24494
G1 X79.6 Y105.792 E45.2833
G1 X79.285 Y106.034 E45.30312
G1 X76.313 Y108.193 E45.48639
G1 X76.134 Y108.319 E45.49731
G1 X73.063 Y110.414 E45.68277
G1 X72.877 Y110.537 E45.6939
G1 X69.762 Y112.527 E45.87831
G1 X69.093 Y112.907 E45.9167
G1 X68.388 Y113.215 E45.95508
G1 X67.864 Y113.391 E45.98266
G1 X67.117 Y113.575 E46.02104
G1 X66.355 Y113.68 E46.05942
G1 X65.725 Y113.707 E46.09088
G1 X64.712 Y113.707 E46.14141
G1 X64.561 Y114.015 E46.15853
G1 X64.186 Y114.686 E46.19688
G1 X63.744 Y115.316 E46.23527
G1 X63.154 Y115.982 E46.27966
G1 X63.109 Y116.027 E46.28284
G1 X62.537 Y116.541 E46.3212
G1 X61.915 Y116.994 E46.35959
G1 X61.22 Y117.395 E46.39962
G1 X58.727 Y118.658 E46.53905
G1 X58.564 Y118.739 E46.54813
G1 X55.203 Y120.339 E46.73384
G1 X55.032 Y120.417 E46.74322
G1 X52.472 Y121.557 E46.88303
G1 X51.754 Y121.833 E46.92141
G1 X51.034 Y122.028 E46.95862
G1 X50.988 Y122.038 E46.96097
G1 X50.229 Y122.162 E46.99934
G1 X49.416 Y122.207 E47.03996
G1 X37.558 Y122.207 E47.63156
G1 X36.79 Y122.167 E47.66993
G1 X36.03 Y122.048 E47.70831
G1 X35.287 Y121.85 E47.74667
G1 X34.568 Y121.576 E47.78506
G1 X33.882 Y121.229 E47.82341
G1 X33.235 Y120.813 E47.86179
G1 X32.635 Y120.332 E47.90015
G1 X32.208 Y119.923 E47.92965
G1 X31.694 Y119.351 E47.96802
G1 X31.241 Y118.729 E48.00641
G1 X30.855 Y118.064 E48.04477
G1 X30.54 Y117.362 E48.08315
G1 X30.3 Y116.631 E48.12154
G1 X30.137 Y115.88 E48.15988
G1 X30.053 Y115.115 E48.19827
G1 X30.045 Y114.843 E48.21185
G1 X24.833 Y114.843 E48.47188
G1 X24.801 Y115.458 E48.5026
G1 X24.682 Y116.218 E48.54098
G1 X24.484 Y116.961 E48.57934
G1 X24.21 Y117.68 E48.61773
G1 X23.863 Y118.366 E48.65608
G1 X23.447 Y119.013 E48.69446
G1 X22.966 Y119.613 E48.73283
G1 X22.557 Y120.04 E48.76232
G1 X21.985 Y120.554 E48.80069
G1 X21.363 Y121.007 E48.83908
G1 X20.698 Y121.393 E48.87744
G1 X19.996 Y121.708 E48.91583
G1 X19.265 Y121.948 E48.95421
G1 X18.514 Y122.111 E48.99255
G1 X17.749 Y122.195 E49.03095
G1 X17.324 Y122.207 E49.05216
G1 X-22.442 Y122.207 E51.03609
G1 X-23.21 Y122.167 E51.07446
G1 X-23.97 Y122.048 E51.11284
G1 X-24.713 Y121.85 E51.1512
G1 X-25.432 Y121.576 E51.18959
G1 X-26.118 Y121.229 E51.22794
G1 X-26.765 Y120.813 E51.26632
G1 X-27.365 Y120.332 E51.30468
G1 X-27.792 Y119.923 E51.33418
G1 X-28.306 Y119.351 E51.37255
G1 X-28.759 Y118.729 E51.41094
G1 X-29.145 Y118.064 E51.4493
G1 X-29.46 Y117.362 E51.48769
G1 X-29.7 Y116.631 E51.52607
G1 X-29.863 Y115.88 E51.56441
G1 X-29.947 Y115.115 E51.60281
G1 X-29.955 Y114.839 E51.61658
G1 X-35.167 Y114.839 E51.87661
G1 X-35.199 Y115.458 E51.90753
G1 X-35.318 Y116.218 E51.94591
G1 X-35.516 Y116.961 E51.98427
G1 X-35.79 Y117.68 E52.02266
G1 X-36.137 Y118.366 E52.06102
G1 X-36.553 Y119.013 E52.09939
G1 X-37.034 Y119.613 E52.13776
G1 X-37.443 Y120.04 E52.16726
G1 X-38.015 Y120.554 E52.20562
G1 X-38.637 Y121.007 E52.24401
G1 X-39.302 Y121.393 E52.28237
G1 X-40.004 Y121.708 E52.32076
G1 X-40.735 Y121.948 E52.35914
G1 X-41.486 Y122.111 E52.39748
G1 X-42.251 Y122.195 E52.43588
G1 X-42.676 Y122.207 E52.45709
G1 X-49.416 Y122.207 E52.79335
G1 X-50.184 Y122.167 E52.83172
G1 X-51.021 Y122.031 E52.87403
G1 X-51.066 Y122.021 E52.87633
G1 X-51.807 Y121.815 E52.9147
G1 X-52.472 Y121.557 E52.95028
G1 X-55.036 Y120.415 E53.09032
G1 X-55.206 Y120.337 E53.09965
G1 X-58.645 Y118.7 E53.28967
G1 X-58.813 Y118.617 E53.29901
G1 X-61.225 Y117.393 E53.43396
G1 X-61.892 Y117.01 E53.47233
G1 X-62.515 Y116.559 E53.5107
G1 X-63.109 Y116.027 E53.55048
G1 X-63.154 Y115.982 E53.55366
G1 X-63.668 Y115.41 E53.59202
G1 X-64.121 Y114.788 E53.63041
G1 X-64.561 Y114.015 E53.67479
G1 X-64.712 Y113.707 E53.6919
G1 X-65.725 Y113.707 E53.74244
G1 X-66.493 Y113.667 E53.78081
G1 X-67.253 Y113.548 E53.81919
G1 X-67.864 Y113.391 E53.85066
G1 X-67.917 Y113.375 E53.85342
G1 X-68.64 Y113.115 E53.89175
G1 X-69.333 Y112.781 E53.93013
G1 X-69.763 Y112.526 E53.95508
G1 X-72.88 Y110.534 E54.13963
G1 X-73.064 Y110.413 E54.15061
G1 X-76.135 Y108.319 E54.33605
G1 X-76.316 Y108.192 E54.34709
G1 X-79.286 Y106.034 E54.53024
G1 X-79.884 Y105.55 E54.56863
G1 X-80.428 Y105.006 E54.60701
G1 X-80.913 Y104.41 E54.64534
G1 X-81.334 Y103.766 E54.68373
G1 X-81.568 Y103.332 E54.70833
G1 X-81.882 Y102.63 E54.7467
G1 X-82.122 Y101.899 E54.78508
G1 X-82.284 Y101.147 E54.82346
G1 X-82.368 Y100.382 E54.86185
G1 X-82.38 Y99.961 E54.88287
G1 X-82.38 Y8.507 E59.44552
G1 X-82.307 Y7.47 E59.49739
G1 X-82.247 Y7.046 E59.51875
G1 X-82.1 Y6.291 E59.55713
G1 X-81.831 Y5.439 E59.6017
G1 X-81.699 Y5.094 E59.62013
G1 X-81.388 Y4.391 E59.65848
G1 X-80.911 Y3.582 E59.70534
