;FLAVOR:Marlin
;TIME:18024
;Filament used: 26.1448m
;Layer height: 0.3
;MINX:-114.607
;MINY:-74.78
;MINZ:0.3
;MAXX:114.607
;MAXY:74.78
;MAXZ:3.9
;Generated with Cura_SteamEngine 4.7.1
M140 S50
M105
M190 S50
M104 S255
M105
M109 S255
M82 ;absolute extrusion mode
G28 ;Home
G1 Z15.0 F6000 ;Move the platform down 15mm
;Prime the extruder
G92 E0
G1 F200 E3
G92 E0
G92 E0
G92 E0
G1 F1500 E-6.5
;LAYER_COUNT:13
;LAYER:0
M107
;MESH:centralHub_Ozone_2020_01_29.stl
G0 F3600 X-46.623 Y50.352 Z0.3
;TYPE:WALL-INNER
G1 F1500 E0
G1 F1800 X-46.623 Y50.892 E0.02694
G1 X-46.496 Y51.408 E0.05345
G1 X-46.249 Y51.879 E0.07999
G1 X-45.896 Y52.277 E0.10653
G1 X-45.459 Y52.578 E0.133
G1 X-44.961 Y52.767 E0.15957
G1 X-44.434 Y52.83 E0.18605
G1 X-43.908 Y52.767 E0.21248
G1 X-43.41 Y52.578 E0.23906
G1 X-42.972 Y52.277 E0.26557
G1 X-42.62 Y51.877 E0.29216
G1 X-42.373 Y51.408 E0.3186
G1 X-42.246 Y50.892 E0.34511
G1 X-42.246 Y50.36 E0.37165
G1 X-42.373 Y49.844 E0.39817
G1 X-42.62 Y49.375 E0.42461
G1 X-42.972 Y48.975 E0.45119
G1 X-43.41 Y48.674 E0.47771
G1 X-43.908 Y48.485 E0.50428
G1 X-44.434 Y48.422 E0.53071
G1 X-44.961 Y48.485 E0.55719
G1 X-45.459 Y48.674 E0.58377
G1 X-45.896 Y48.975 E0.61024
G1 X-46.249 Y49.374 E0.63682
G1 X-46.469 Y49.794 E0.66047
G1 X-46.623 Y50.352 E0.68935
G0 F3600 X-46.722 Y50.339
G0 X-57.67 Y48.865
G0 X-57.736 Y48.939
G1 F1800 X-58.174 Y48.636 E0.71592
G1 X-58.672 Y48.447 E0.7425
G1 X-59.2 Y48.382 E0.76904
G1 X-59.728 Y48.447 E0.79558
G1 X-60.225 Y48.636 E0.82211
G1 X-60.662 Y48.937 E0.84858
G1 X-61.015 Y49.337 E0.8752
G1 X-61.261 Y49.806 E0.90162
G1 X-61.388 Y50.322 E0.92813
G1 X-61.388 Y50.853 E0.95462
G1 X-61.261 Y51.369 E0.98113
G1 X-61.015 Y51.838 E1.00755
G1 X-60.662 Y52.238 E1.03417
G1 X-60.225 Y52.539 E1.06064
G1 X-59.727 Y52.728 E1.08722
G1 X-59.2 Y52.791 E1.1137
G1 X-58.673 Y52.728 E1.14018
G1 X-58.175 Y52.539 E1.16675
G1 X-57.738 Y52.238 E1.19322
G1 X-57.385 Y51.838 E1.21984
G1 X-57.139 Y51.369 E1.24626
G1 X-57.012 Y50.853 E1.27277
G1 X-57.012 Y50.322 E1.29927
G1 X-57.139 Y49.806 E1.32578
G1 X-57.377 Y49.351 E1.35139
G1 X-57.736 Y48.939 E1.37866
G0 F3600 X-57.67 Y48.865
G0 X-57.102 Y49.792
G0 X-56.973 Y50.623
G0 X-58.821 Y66.328
G0 X-58.747 Y66.394
G1 F1800 X-59.063 Y66.856 E1.40658
G1 X-59.262 Y67.377 E1.43441
G1 X-59.329 Y67.932 E1.4623
G1 X-59.262 Y68.488 E1.49024
G1 X-59.063 Y69.01 E1.51811
G1 X-58.747 Y69.47 E1.54595
G1 X-58.326 Y69.841 E1.57395
G1 X-57.832 Y70.1 E1.60177
G1 X-57.29 Y70.234 E1.62963
G1 X-56.731 Y70.234 E1.65752
G1 X-56.188 Y70.1 E1.68542
G1 X-55.693 Y69.841 E1.71329
G1 X-55.274 Y69.47 E1.74121
G1 X-54.957 Y69.01 E1.76908
G1 X-54.759 Y68.487 E1.79698
G1 X-54.692 Y67.932 E1.82487
G1 X-54.759 Y67.378 E1.85272
G1 X-54.957 Y66.856 E1.88057
G1 X-55.274 Y66.394 E1.90852
G1 X-55.693 Y66.023 E1.93644
G1 X-56.188 Y65.764 E1.96431
G1 X-56.731 Y65.63 E1.99222
G1 X-57.29 Y65.63 E2.02011
G1 X-57.832 Y65.764 E2.04796
G1 X-58.326 Y66.023 E2.07579
G1 X-58.747 Y66.394 E2.10378
G0 F3600 X-58.821 Y66.328
G0 X-74.651 Y67.355
G0 X-74.748 Y67.378
G1 F1800 X-74.947 Y66.855 E2.1317
G1 X-75.264 Y66.394 E2.15961
G1 X-75.683 Y66.023 E2.18753
G1 X-76.178 Y65.764 E2.21541
G1 X-76.72 Y65.63 E2.24326
G1 X-77.28 Y65.63 E2.2712
G1 X-77.822 Y65.764 E2.29905
G1 X-78.317 Y66.023 E2.32693
G1 X-78.736 Y66.394 E2.35485
G1 X-79.053 Y66.855 E2.38276
G1 X-79.252 Y67.377 E2.41063
G1 X-79.319 Y67.932 E2.43852
G1 X-79.252 Y68.488 E2.46646
G1 X-79.053 Y69.011 E2.49438
G1 X-78.736 Y69.47 E2.52221
G1 X-78.317 Y69.841 E2.55013
G1 X-77.822 Y70.1 E2.578
G1 X-77.28 Y70.234 E2.60585
G1 X-76.72 Y70.234 E2.63379
G1 X-76.178 Y70.1 E2.66165
G1 X-75.683 Y69.841 E2.68952
G1 X-75.264 Y69.47 E2.71744
G1 X-74.947 Y69.011 E2.74527
G1 X-74.748 Y68.487 E2.77323
G1 X-74.682 Y67.932 E2.80112
G1 X-74.748 Y67.378 E2.82895
G0 F3600 X-74.651 Y67.355
G0 X-76.722 Y50.339
G0 X-76.623 Y50.352
G1 F1800 X-76.623 Y50.892 E2.85589
G1 X-76.496 Y51.408 E2.88241
G1 X-76.249 Y51.879 E2.90894
G1 X-75.896 Y52.277 E2.93548
G1 X-75.459 Y52.578 E2.96195
G1 X-74.961 Y52.767 E2.98853
G1 X-74.434 Y52.83 E3.01501
G1 X-73.908 Y52.767 E3.04144
G1 X-73.41 Y52.578 E3.06801
G1 X-72.972 Y52.277 E3.09453
G1 X-72.62 Y51.877 E3.12111
G1 X-72.373 Y51.408 E3.14755
G1 X-72.246 Y50.892 E3.17407
G1 X-72.246 Y50.36 E3.20061
G1 X-72.373 Y49.844 E3.22712
G1 X-72.62 Y49.375 E3.25356
G1 X-72.972 Y48.975 E3.28015
G1 X-73.41 Y48.674 E3.30666
G1 X-73.908 Y48.485 E3.33324
G1 X-74.434 Y48.422 E3.35967
G1 X-74.961 Y48.485 E3.38614
G1 X-75.459 Y48.674 E3.41272
G1 X-75.896 Y48.975 E3.43919
G1 X-76.249 Y49.374 E3.46577
G1 X-76.469 Y49.794 E3.48943
G1 X-76.623 Y50.352 E3.5183
G0 F3600 X-76.722 Y50.339
G0 X-87.47 Y48.865
G0 X-87.536 Y48.939
G1 F1800 X-87.974 Y48.636 E3.54488
G1 X-88.472 Y48.447 E3.57145
G1 X-89 Y48.382 E3.59799
G1 X-89.528 Y48.447 E3.62453
G1 X-90.025 Y48.636 E3.65106
G1 X-90.462 Y48.937 E3.67753
G1 X-90.815 Y49.337 E3.70415
G1 X-91.061 Y49.806 E3.73057
G1 X-91.188 Y50.322 E3.75708
G1 X-91.188 Y50.853 E3.78357
G1 X-91.061 Y51.369 E3.81009
G1 X-90.815 Y51.838 E3.83651
G1 X-90.462 Y52.238 E3.86312
G1 X-90.025 Y52.539 E3.8896
G1 X-89.527 Y52.728 E3.91617
G1 X-89 Y52.791 E3.94265
G1 X-88.473 Y52.728 E3.96913
G1 X-87.975 Y52.539 E3.9957
G1 X-87.538 Y52.238 E4.02218
G1 X-87.185 Y51.838 E4.04879
G1 X-86.939 Y51.369 E4.07522
G1 X-86.812 Y50.853 E4.10173
G1 X-86.812 Y50.322 E4.12822
G1 X-86.939 Y49.806 E4.15473
G1 X-87.177 Y49.351 E4.18035
G1 X-87.536 Y48.939 E4.20761
G0 F3600 X-87.47 Y48.865
G0 X-86.902 Y49.792
G0 X-86.773 Y50.857
G0 X-87.153 Y51.86
G0 X-102.515 Y66.368
G0 X-103.099 Y67.355
G0 X-103.002 Y67.378
G1 F1800 X-103.068 Y67.932 E4.23545
G1 X-103.002 Y68.487 E4.26333
G1 X-102.803 Y69.011 E4.29129
G1 X-102.486 Y69.47 E4.31912
G1 X-102.067 Y69.841 E4.34705
G1 X-101.572 Y70.1 E4.37492
G1 X-101.03 Y70.234 E4.40277
G1 X-100.47 Y70.234 E4.43071
G1 X-99.928 Y70.1 E4.45857
G1 X-99.433 Y69.841 E4.48644
G1 X-99.014 Y69.47 E4.51436
G1 X-98.697 Y69.011 E4.54219
G1 X-98.498 Y68.488 E4.57011
G1 X-98.431 Y67.932 E4.59805
G1 X-98.498 Y67.377 E4.62594
G1 X-98.697 Y66.855 E4.65381
G1 X-99.014 Y66.394 E4.68172
G1 X-99.433 Y66.023 E4.70964
G1 X-99.928 Y65.764 E4.73751
G1 X-100.47 Y65.63 E4.76537
G1 X-101.03 Y65.63 E4.7933
G1 X-101.572 Y65.764 E4.82116
G1 X-102.067 Y66.023 E4.84903
G1 X-102.486 Y66.394 E4.87695
G1 X-102.803 Y66.855 E4.90486
G1 X-103.002 Y67.378 E4.93278
G0 F3600 X-103.099 Y67.355
G0 X-102.397 Y24.765
G0 X-102.298 Y24.778
G1 F1800 X-102.298 Y25.317 E4.95967
G1 X-102.171 Y25.832 E4.98614
G1 X-101.925 Y26.305 E5.01273
G1 X-101.571 Y26.702 E5.03927
G1 X-101.136 Y27.003 E5.06566
G1 X-100.638 Y27.192 E5.09224
G1 X-100.11 Y27.257 E5.11878
G1 X-99.582 Y27.192 E5.14532
G1 X-99.084 Y27.003 E5.17189
G1 X-98.649 Y26.702 E5.19828
G1 X-98.295 Y26.305 E5.22482
G1 X-98.049 Y25.832 E5.25142
G1 X-97.922 Y25.317 E5.27788
G1 X-97.922 Y24.786 E5.30437
G1 X-98.049 Y24.27 E5.33089
G1 X-98.295 Y23.801 E5.35731
G1 X-98.648 Y23.401 E5.38392
G1 X-99.085 Y23.1 E5.4104
G1 X-99.583 Y22.911 E5.43697
G1 X-100.11 Y22.848 E5.46345
G1 X-100.637 Y22.911 E5.48993
G1 X-101.135 Y23.1 E5.5165
G1 X-101.572 Y23.401 E5.54298
G1 X-101.925 Y23.8 E5.56956
G1 X-102.144 Y24.219 E5.59314
G1 X-102.298 Y24.778 E5.62207
G0 F3600 X-102.397 Y24.765
G0 X-110.29 Y0.563
G0 X-110.349 Y-.577
G0 X-110.252 Y-.554
G1 F1800 X-110.318 Y0.00 E5.64991
G1 X-110.252 Y0.554 E5.67774
G1 X-110.053 Y1.078 E5.7057
G1 X-109.736 Y1.538 E5.73358
G1 X-109.317 Y1.909 E5.7615
G1 X-108.822 Y2.168 E5.78937
G1 X-108.28 Y2.302 E5.81722
G1 X-107.72 Y2.302 E5.84516
G1 X-107.178 Y2.168 E5.87302
G1 X-106.683 Y1.909 E5.90089
G1 X-106.264 Y1.538 E5.92881
G1 X-105.947 Y1.078 E5.95668
G1 X-105.748 Y0.554 E5.98464
G1 X-105.681 Y0.00 E6.01248
G1 X-105.748 Y-.554 E6.04033
G1 X-105.947 Y-1.078 E6.06829
G1 X-106.264 Y-1.538 E6.09616
G1 X-106.683 Y-1.909 E6.12408
G1 X-107.178 Y-2.168 E6.15195
G1 X-107.72 Y-2.302 E6.17981
G1 X-108.28 Y-2.302 E6.20775
G1 X-108.822 Y-2.168 E6.2356
G1 X-109.317 Y-1.909 E6.26347
G1 X-109.736 Y-1.538 E6.29139
G1 X-110.053 Y-1.078 E6.31926
G1 X-110.252 Y-.554 E6.34723
G0 F3600 X-110.349 Y-.577
G0 X-106.811 Y-21.931
G0 X-102.392 Y-51.735
G0 X-102.293 Y-51.722
G1 F1800 X-102.293 Y-51.183 E6.37412
G1 X-102.166 Y-50.668 E6.40058
G1 X-101.92 Y-50.195 E6.42718
G1 X-101.566 Y-49.798 E6.45372
G1 X-101.131 Y-49.497 E6.48011
G1 X-100.633 Y-49.308 E6.50668
G1 X-100.105 Y-49.243 E6.53323
G1 X-99.577 Y-49.308 E6.55977
G1 X-99.079 Y-49.497 E6.58634
G1 X-98.644 Y-49.798 E6.61273
G1 X-98.29 Y-50.195 E6.63927
G1 X-98.044 Y-50.668 E6.66587
G1 X-97.917 Y-51.183 E6.69233
G1 X-97.917 Y-51.714 E6.71882
G1 X-98.044 Y-52.23 E6.74533
G1 X-98.29 Y-52.699 E6.77176
G1 X-98.643 Y-53.099 E6.79837
G1 X-99.08 Y-53.4 E6.82485
G1 X-99.578 Y-53.589 E6.85142
G1 X-100.105 Y-53.652 E6.8779
G1 X-100.632 Y-53.589 E6.90438
G1 X-101.13 Y-53.4 E6.93095
G1 X-101.567 Y-53.099 E6.95743
G1 X-101.92 Y-52.7 E6.984
G1 X-102.139 Y-52.281 E7.00759
G1 X-102.293 Y-51.722 E7.03652
G0 F3600 X-102.392 Y-51.735
G0 X-101.952 Y-52.722
G0 X-101.148 Y-53.435
G0 X-91.67 Y-54.67
G0 X-91.6 Y-54.6
G1 F1800 X-91.6 Y40.6 E11.78607
G1 X89.6 Y40.6 E20.82617
G1 X89.6 Y-54.6 E25.57572
G1 X-91.6 Y-54.6 E34.61582
G0 F3600 X-91.67 Y-54.67
G0 X-102.515 Y-66.368
G0 X-103.099 Y-67.355
G0 X-103.002 Y-67.378
G1 F1800 X-102.803 Y-66.855 E34.64374
G1 X-102.486 Y-66.394 E34.67165
G1 X-102.067 Y-66.023 E34.69957
G1 X-101.572 Y-65.764 E34.72745
G1 X-101.03 Y-65.63 E34.7553
G1 X-100.47 Y-65.63 E34.78324
G1 X-99.928 Y-65.764 E34.81109
G1 X-99.433 Y-66.023 E34.83897
G1 X-99.014 Y-66.394 E34.86689
G1 X-98.697 Y-66.855 E34.8948
G1 X-98.498 Y-67.377 E34.92267
G1 X-98.431 Y-67.932 E34.95056
G1 X-98.498 Y-68.488 E34.9785
G1 X-98.697 Y-69.011 E35.00642
G1 X-99.014 Y-69.47 E35.03425
G1 X-99.433 Y-69.841 E35.06217
G1 X-99.928 Y-70.1 E35.09004
G1 X-100.47 Y-70.234 E35.11789
G1 X-101.03 Y-70.234 E35.14583
G1 X-101.572 Y-70.1 E35.17369
G1 X-102.067 Y-69.841 E35.20156
G1 X-102.486 Y-69.47 E35.22948
G1 X-102.803 Y-69.011 E35.25731
G1 X-103.002 Y-68.487 E35.28527
G1 X-103.068 Y-67.932 E35.31316
G1 X-103.002 Y-67.378 E35.34099
G0 F3600 X-103.099 Y-67.355
G0 X-102.515 Y-66.368
G0 X-101.586 Y-65.727
G0 X-76.716 Y-65.591
G0 X-75.661 Y-65.991
G0 X-74.651 Y-67.355
G0 X-74.748 Y-67.378
G1 F1800 X-74.682 Y-67.932 E35.36883
G1 X-74.748 Y-68.487 E35.39671
G1 X-74.947 Y-69.011 E35.42468
G1 X-75.264 Y-69.47 E35.45251
G1 X-75.683 Y-69.841 E35.48043
G1 X-76.178 Y-70.1 E35.5083
G1 X-76.72 Y-70.234 E35.53615
G1 X-77.28 Y-70.234 E35.56409
G1 X-77.822 Y-70.1 E35.59195
G1 X-78.317 Y-69.841 E35.61982
G1 X-78.736 Y-69.47 E35.64774
G1 X-79.053 Y-69.011 E35.67557
G1 X-79.252 Y-68.488 E35.70349
G1 X-79.319 Y-67.932 E35.73143
G1 X-79.252 Y-67.377 E35.75932
G1 X-79.053 Y-66.855 E35.78719
G1 X-78.736 Y-66.394 E35.8151
G1 X-78.317 Y-66.023 E35.84302
G1 X-77.822 Y-65.764 E35.87089
G1 X-77.28 Y-65.63 E35.89875
G1 X-76.72 Y-65.63 E35.92669
G1 X-76.178 Y-65.764 E35.95454
G1 X-75.683 Y-66.023 E35.98241
G1 X-75.264 Y-66.394 E36.01033
G1 X-74.947 Y-66.855 E36.03824
G1 X-74.748 Y-67.378 E36.06616
G0 F3600 X-74.651 Y-67.355
G0 X-58.821 Y-66.328
G0 X-58.747 Y-66.394
G1 F1800 X-58.326 Y-66.023 E36.09416
G1 X-57.832 Y-65.764 E36.12199
G1 X-57.29 Y-65.63 E36.14984
G1 X-56.731 Y-65.63 E36.17773
G1 X-56.188 Y-65.764 E36.20563
G1 X-55.693 Y-66.023 E36.2335
G1 X-55.274 Y-66.394 E36.26142
G1 X-54.957 Y-66.856 E36.28938
G1 X-54.759 Y-67.378 E36.31723
G1 X-54.692 Y-67.932 E36.34507
G1 X-54.759 Y-68.487 E36.37296
G1 X-54.957 Y-69.01 E36.40086
G1 X-55.274 Y-69.47 E36.42873
G1 X-55.693 Y-69.841 E36.45665
G1 X-56.188 Y-70.1 E36.48453
G1 X-56.731 Y-70.234 E36.51243
G1 X-57.29 Y-70.234 E36.54032
G1 X-57.832 Y-70.1 E36.56817
G1 X-58.326 Y-69.841 E36.596
G1 X-58.747 Y-69.47 E36.624
G1 X-59.063 Y-69.01 E36.65184
G1 X-59.262 Y-68.488 E36.67971
G1 X-59.329 Y-67.932 E36.70765
G1 X-59.262 Y-67.377 E36.73554
G1 X-59.063 Y-66.856 E36.76336
G1 X-58.747 Y-66.394 E36.79129
G0 F3600 X-58.821 Y-66.328
G0 X-57.846 Y-65.727
G0 X-56.973 Y-65.591
G0 X-39.349 Y-67.355
G0 X-39.252 Y-67.378
G1 F1800 X-39.053 Y-66.855 E36.81921
G1 X-38.736 Y-66.394 E36.84712
G1 X-38.317 Y-66.023 E36.87504
G1 X-37.822 Y-65.764 E36.90291
G1 X-37.28 Y-65.63 E36.93077
G1 X-36.72 Y-65.63 E36.9587
G1 X-36.178 Y-65.764 E36.98656
G1 X-35.683 Y-66.023 E37.01443
G1 X-35.264 Y-66.394 E37.04235
G1 X-34.947 Y-66.855 E37.07026
G1 X-34.748 Y-67.377 E37.09813
G1 X-34.681 Y-67.932 E37.12602
G1 X-34.748 Y-68.488 E37.15396
G1 X-34.947 Y-69.011 E37.18188
G1 X-35.264 Y-69.47 E37.20971
G1 X-35.683 Y-69.841 E37.23763
G1 X-36.178 Y-70.1 E37.2655
G1 X-36.72 Y-70.234 E37.29336
G1 X-37.28 Y-70.234 E37.3213
G1 X-37.822 Y-70.1 E37.34915
G1 X-38.317 Y-69.841 E37.37702
G1 X-38.736 Y-69.47 E37.40494
G1 X-39.053 Y-69.011 E37.43277
G1 X-39.252 Y-68.487 E37.46074
G1 X-39.318 Y-67.932 E37.48862
G1 X-39.252 Y-67.378 E37.51646
G0 F3600 X-39.349 Y-67.355
G0 X-38.765 Y-66.368
G0 X-37.836 Y-65.727
G0 X37.284 Y-65.591
G0 X38.339 Y-65.991
G0 X39.349 Y-67.355
G0 X39.252 Y-67.378
G1 F1800 X39.318 Y-67.932 E37.54429
G1 X39.252 Y-68.487 E37.57218
G1 X39.053 Y-69.011 E37.60014
G1 X38.736 Y-69.47 E37.62797
G1 X38.317 Y-69.841 E37.65589
G1 X37.822 Y-70.1 E37.68376
G1 X37.28 Y-70.234 E37.71162
G1 X36.72 Y-70.234 E37.73956
G1 X36.178 Y-70.1 E37.76741
G1 X35.683 Y-69.841 E37.79528
G1 X35.264 Y-69.47 E37.8232
G1 X34.947 Y-69.011 E37.85103
G1 X34.748 Y-68.488 E37.87895
G1 X34.681 Y-67.932 E37.90689
G1 X34.748 Y-67.377 E37.93478
G1 X34.947 Y-66.855 E37.96265
G1 X35.264 Y-66.394 E37.99056
G1 X35.683 Y-66.023 E38.01849
G1 X36.178 Y-65.764 E38.04636
G1 X36.72 Y-65.63 E38.07421
G1 X37.28 Y-65.63 E38.10215
G1 X37.822 Y-65.764 E38.13
G1 X38.317 Y-66.023 E38.15788
G1 X38.736 Y-66.394 E38.1858
G1 X39.053 Y-66.855 E38.21371
G1 X39.252 Y-67.378 E38.24163
G0 F3600 X39.349 Y-67.355
G0 X56.727 Y-65.591
G0 X57.846 Y-65.727
G0 X58.821 Y-66.328
G0 X58.747 Y-66.394
G1 F1800 X59.063 Y-66.856 E38.26955
G1 X59.262 Y-67.377 E38.29738
G1 X59.329 Y-67.932 E38.32527
G1 X59.262 Y-68.488 E38.35321
G1 X59.063 Y-69.01 E38.38108
G1 X58.747 Y-69.47 E38.40892
G1 X58.326 Y-69.841 E38.43692
G1 X57.832 Y-70.1 E38.46474
G1 X57.29 Y-70.234 E38.4926
G1 X56.731 Y-70.234 E38.52049
G1 X56.188 Y-70.1 E38.54839
G1 X55.693 Y-69.841 E38.57626
G1 X55.274 Y-69.47 E38.60418
G1 X54.957 Y-69.01 E38.63205
G1 X54.759 Y-68.487 E38.65995
G1 X54.692 Y-67.932 E38.68784
G1 X54.759 Y-67.378 E38.71568
G1 X54.957 Y-66.856 E38.74354
G1 X55.274 Y-66.394 E38.77149
G1 X55.693 Y-66.023 E38.79941
G1 X56.188 Y-65.764 E38.82728
G1 X56.731 Y-65.63 E38.85519
G1 X57.29 Y-65.63 E38.88308
G1 X57.832 Y-65.764 E38.91093
G1 X58.326 Y-66.023 E38.93876
G1 X58.747 Y-66.394 E38.96675
G0 F3600 X58.821 Y-66.328
G0 X74.651 Y-67.355
G0 X74.748 Y-67.378
G1 F1800 X74.947 Y-66.855 E38.99467
G1 X75.264 Y-66.394 E39.02258
G1 X75.683 Y-66.023 E39.0505
G1 X76.178 Y-65.764 E39.07838
G1 X76.72 Y-65.63 E39.10623
G1 X77.28 Y-65.63 E39.13417
G1 X77.822 Y-65.764 E39.16202
G1 X78.317 Y-66.023 E39.1899
G1 X78.736 Y-66.394 E39.21782
G1 X79.053 Y-66.855 E39.24573
G1 X79.252 Y-67.377 E39.2736
G1 X79.319 Y-67.932 E39.30149
G1 X79.252 Y-68.488 E39.32943
G1 X79.053 Y-69.011 E39.35735
G1 X78.736 Y-69.47 E39.38518
G1 X78.317 Y-69.841 E39.4131
G1 X77.822 Y-70.1 E39.44097
G1 X77.28 Y-70.234 E39.46882
G1 X76.72 Y-70.234 E39.49676
G1 X76.178 Y-70.1 E39.52462
G1 X75.683 Y-69.841 E39.55249
G1 X75.264 Y-69.47 E39.58041
G1 X74.947 Y-69.011 E39.60824
G1 X74.748 Y-68.487 E39.6362
G1 X74.682 Y-67.932 E39.66409
G1 X74.748 Y-67.378 E39.69192
G0 F3600 X74.651 Y-67.355
G0 X75.235 Y-66.368
G0 X95.608 Y-51.735
G0 X95.707 Y-51.722
G1 F1800 X95.707 Y-51.183 E39.71881
G1 X95.834 Y-50.668 E39.74528
G1 X96.08 Y-50.195 E39.77188
G1 X96.434 Y-49.798 E39.79841
G1 X96.871 Y-49.497 E39.82489
G1 X97.367 Y-49.308 E39.85137
G1 X97.895 Y-49.243 E39.87791
G1 X98.423 Y-49.308 E39.90445
G1 X98.921 Y-49.497 E39.93102
G1 X99.356 Y-49.798 E39.95741
G1 X99.71 Y-50.195 E39.98395
G1 X99.956 Y-50.667 E40.01051
G1 X100.084 Y-51.183 E40.03703
G1 X100.084 Y-51.714 E40.06352
G1 X99.956 Y-52.231 E40.09009
G1 X99.71 Y-52.7 E40.11651
G1 X99.357 Y-53.099 E40.14309
G1 X98.92 Y-53.4 E40.16957
G1 X98.422 Y-53.589 E40.19614
