;FLAVOR:Marlin
;TIME:10621
;Filament used: 15.1421m
;Layer height: 0.3
;MINX:-122.607
;MINY:-82.78
;MINZ:0.3
;MAXX:122.607
;MAXY:82.78
;MAXZ:3.9
;Generated with Cura_SteamEngine 4.7.1
M140 S50
M105
M190 S50
M104 S250
M105
M109 S250
M82 ;absolute extrusion mode
G28 ;Home
G1 Z15.0 F6000 ;Move the platform down 15mm
;Prime the extruder
G92 E0
G1 F200 E3
G92 E0
G92 E0
G92 E0
G1 F1500 E-6.5
;LAYER_COUNT:13
;LAYER:0
M107
G0 F3600 X-31.107 Y29.22 Z0.3
;TYPE:SKIRT
G1 F1500 E0
G1 F1800 X-31.107 Y-74.863 E5.19272
G1 X-31.067 Y-75.652 E5.23214
G1 X-30.948 Y-76.432 E5.2715
G1 X-30.75 Y-77.197 E5.31092
G1 X-30.476 Y-77.937 E5.35029
G1 X-30.128 Y-78.646 E5.3897
G1 X-29.71 Y-79.317 E5.42914
G1 X-29.227 Y-79.941 E5.4685
G1 X-28.822 Y-80.378 E5.49823
G1 X-28.705 Y-80.495 E5.50648
G1 X-28.119 Y-81.025 E5.5459
G1 X-27.483 Y-81.492 E5.58527
G1 X-26.803 Y-81.893 E5.62465
G1 X-26.085 Y-82.223 E5.66408
G1 X-25.338 Y-82.478 E5.70346
G1 X-24.569 Y-82.657 E5.74285
G1 X-23.785 Y-82.757 E5.78228
G1 X-23.19 Y-82.78 E5.81199
G1 X-8.506 Y-82.78 E6.54457
G1 X-7.452 Y-82.708 E6.59728
G1 X-7.034 Y-82.651 E6.61833
G1 X-6.258 Y-82.505 E6.65772
G1 X-5.294 Y-82.205 E6.70809
G1 X-4.95 Y-82.073 E6.72647
G1 X-4.228 Y-81.753 E6.76587
G1 X-3.378 Y-81.255 E6.81502
G1 X-3.073 Y-81.049 E6.83338
G1 X-2.442 Y-80.574 E6.87279
G1 X-1.777 Y-79.95 E6.91828
G1 X-1.524 Y-79.683 E6.93663
G1 X-1.011 Y-79.083 E6.97602
G1 X-.452 Y-78.255 E7.02586
G1 X-.269 Y-77.942 E7.04395
G1 X0.00 Y-77.423 E7.07311
G1 X0.079 Y-77.602 E7.08288
G1 X0.554 Y-78.418 E7.12998
G1 X0.759 Y-78.725 E7.1484
G1 X1.23 Y-79.358 E7.18776
G1 X1.893 Y-80.066 E7.23615
G1 X2.159 Y-80.317 E7.2544
G1 X2.76 Y-80.829 E7.29379
G1 X3.554 Y-81.365 E7.34158
G1 X3.875 Y-81.554 E7.36017
G1 X4.575 Y-81.92 E7.39958
G1 X5.444 Y-82.258 E7.44609
G1 X5.789 Y-82.369 E7.46418
G1 X6.552 Y-82.573 E7.50358
G1 X7.332 Y-82.698 E7.54299
G1 X7.662 Y-82.734 E7.55955
G1 X8.508 Y-82.78 E7.60182
G1 X101.386 Y-82.78 E12.23552
G1 X102.175 Y-82.74 E12.27494
G1 X102.955 Y-82.621 E12.3143
G1 X103.72 Y-82.423 E12.35373
G1 X104.46 Y-82.149 E12.39309
G1 X104.939 Y-81.924 E12.4195
G1 X105.025 Y-81.88 E12.42432
G1 X105.709 Y-81.485 E12.46372
G1 X106.349 Y-81.023 E12.5031
G1 X106.94 Y-80.499 E12.54251
G1 X107.474 Y-79.918 E12.58188
G1 X107.792 Y-79.507 E12.6078
G1 X109.277 Y-77.454 E12.73421
G1 X109.379 Y-77.31 E12.74302
G1 X111.317 Y-74.499 E12.91336
G1 X111.417 Y-74.35 E12.92231
G1 X112.812 Y-72.223 E13.04921
G1 X113.211 Y-71.541 E13.08863
G1 X113.54 Y-70.823 E13.12804
G1 X113.754 Y-70.211 E13.16038
G1 X113.771 Y-70.155 E13.1633
G1 X113.962 Y-69.388 E13.20274
G1 X114.074 Y-68.607 E13.2421
G1 X114.107 Y-67.889 E13.27796
G1 X114.107 Y-65.12 E13.4161
G1 X114.154 Y-65.108 E13.41852
G1 X114.908 Y-64.875 E13.4579
G1 X115.635 Y-64.567 E13.49729
G1 X116.328 Y-64.187 E13.53672
G1 X117.038 Y-63.692 E13.5799
G1 X117.107 Y-63.638 E13.58427
G1 X117.704 Y-63.12 E13.6237
G1 X118.245 Y-62.545 E13.66309
G1 X118.725 Y-61.918 E13.70249
G1 X119.267 Y-61.002 E13.75559
G1 X120.028 Y-59.49 E13.84004
G1 X121.143 Y-57.195 E13.96733
G1 X121.867 Y-55.642 E14.05282
G1 X122.164 Y-54.91 E14.09223
G1 X122.433 Y-53.937 E14.14259
G1 X122.443 Y-53.889 E14.14504
G1 X122.565 Y-53.109 E14.18443
G1 X122.607 Y-52.298 E14.22494
G1 X122.607 Y52.338 E19.44525
G1 X122.567 Y53.127 E19.48467
G1 X122.436 Y53.961 E19.52679
G1 X122.426 Y54.008 E19.52918
G1 X122.223 Y54.771 E19.56857
G1 X121.867 Y55.681 E19.61732
G1 X121.15 Y57.219 E19.70198
G1 X120.046 Y59.493 E19.8281
G1 X119.293 Y60.992 E19.91179
G1 X118.903 Y61.679 E19.9512
G1 X118.446 Y62.323 E19.9906
G1 X117.926 Y62.917 E20.02998
G1 X117.087 Y63.667 E20.08613
G1 X117.017 Y63.721 E20.09054
G1 X116.368 Y64.171 E20.12994
G1 X115.677 Y64.553 E20.16933
G1 X114.951 Y64.863 E20.20872
G1 X114.157 Y65.109 E20.25019
G1 X114.107 Y65.122 E20.25276
G1 X114.107 Y67.929 E20.3928
G1 X114.067 Y68.718 E20.43222
G1 X113.948 Y69.498 E20.47158
G1 X113.786 Y70.145 E20.50486
G1 X113.77 Y70.199 E20.50767
G1 X113.507 Y70.944 E20.54708
G1 X113.171 Y71.658 E20.58645
G1 X112.813 Y72.261 E20.62144
G1 X111.417 Y74.389 E20.74841
G1 X111.319 Y74.536 E20.75723
G1 X109.4 Y77.322 E20.926
G1 X107.826 Y79.501 E21.06011
G1 X107.332 Y80.117 E21.0995
G1 X106.779 Y80.68 E21.13887
G1 X106.171 Y81.184 E21.17827
G1 X105.515 Y81.624 E21.21768
G1 X105.055 Y81.88 E21.24395
G1 X104.969 Y81.924 E21.24877
G1 X104.248 Y82.248 E21.2882
G1 X103.499 Y82.497 E21.32758
G1 X102.728 Y82.669 E21.36699
G1 X101.944 Y82.762 E21.40638
G1 X101.416 Y82.78 E21.43274
G1 X8.508 Y82.78 E26.06794
G1 X7.605 Y82.728 E26.11306
G1 X7.219 Y82.683 E26.13245
G1 X6.44 Y82.551 E26.17187
G1 X5.478 Y82.273 E26.22183
G1 X5.131 Y82.148 E26.24023
G1 X4.403 Y81.843 E26.27961
G1 X3.579 Y81.385 E26.32664
G1 X3.264 Y81.184 E26.34528
G1 X2.621 Y80.726 E26.38467
G1 X1.891 Y80.07 E26.43363
G1 X1.638 Y79.812 E26.45166
G1 X1.114 Y79.221 E26.49106
G1 X0.577 Y78.46 E26.53753
G1 X0.383 Y78.147 E26.5559
G1 X0.002 Y77.456 E26.59527
G1 X-0.002 Y77.446 E26.59581
G1 X-.447 Y78.253 E26.64178
G1 X-.644 Y78.562 E26.66007
G1 X-1.102 Y79.206 E26.69949
G1 X-1.749 Y79.927 E26.74782
G1 X-2.007 Y80.181 E26.76589
G1 X-2.597 Y80.706 E26.80529
G1 X-3.353 Y81.242 E26.85152
G1 X-3.669 Y81.439 E26.8701
G1 X-4.359 Y81.822 E26.90947
G1 X-5.253 Y82.194 E26.95778
G1 X-5.604 Y82.315 E26.9763
G1 X-6.363 Y82.534 E27.01572
G1 X-7.311 Y82.696 E27.0637
G1 X-7.673 Y82.735 E27.08186
G1 X-8.508 Y82.78 E27.12358
G1 X-101.03 Y82.78 E31.73952
G1 X-101.819 Y82.74 E31.77894
G1 X-102.599 Y82.621 E31.8183
G1 X-103.364 Y82.423 E31.85772
G1 X-104.104 Y82.149 E31.89709
G1 X-104.583 Y81.924 E31.9235
G1 X-104.669 Y81.88 E31.92831
G1 X-105.353 Y81.485 E31.96772
G1 X-105.993 Y81.023 E32.0071
G1 X-106.584 Y80.499 E32.04651
G1 X-107.118 Y79.918 E32.08588
G1 X-107.443 Y79.498 E32.11237
G1 X-109.046 Y77.275 E32.2491
G1 X-109.154 Y77.121 E32.25849
G1 X-111.225 Y74.098 E32.4413
G1 X-111.331 Y73.939 E32.45084
G1 X-112.832 Y71.628 E32.58832
G1 X-113.228 Y70.944 E32.62775
G1 X-113.553 Y70.225 E32.66712
G1 X-113.801 Y69.487 E32.70596
G1 X-113.817 Y69.43 E32.70891
G1 X-113.991 Y68.66 E32.7483
G1 X-114.087 Y67.876 E32.7877
G1 X-114.107 Y67.322 E32.81536
G1 X-114.107 Y65.076 E32.92741
G1 X-114.167 Y65.057 E32.93055
G1 X-114.908 Y64.784 E32.96995
G1 X-115.617 Y64.436 E33.00935
G1 X-116.287 Y64.019 E33.04872
G1 X-116.85 Y63.589 E33.08407
G1 X-116.912 Y63.537 E33.08811
G1 X-117.491 Y63 E33.1275
G1 X-118.012 Y62.407 E33.16688
G1 X-118.471 Y61.764 E33.2063
G1 X-118.871 Y61.06 E33.2467
G1 X-119.762 Y59.285 E33.34578
G1 X-119.82 Y59.167 E33.35234
G1 X-120.993 Y56.728 E33.48736
G1 X-121.054 Y56.598 E33.49453
G1 X-121.887 Y54.781 E33.59425
G1 X-122.18 Y54.047 E33.63368
G1 X-122.419 Y53.187 E33.67821
G1 X-122.429 Y53.141 E33.68056
G1 X-122.557 Y52.362 E33.71995
G1 X-122.607 Y51.484 E33.76382
G1 X-122.607 Y-51.444 E38.89892
G1 X-122.567 Y-52.233 E38.93833
G1 X-122.429 Y-53.101 E38.98218
G1 X-122.419 Y-53.147 E38.98453
G1 X-122.212 Y-53.909 E39.02392
G1 X-121.889 Y-54.736 E39.06822
G1 X-120.986 Y-56.707 E39.17638
G1 X-119.803 Y-59.164 E39.31243
G1 X-118.847 Y-61.067 E39.41868
G1 X-118.458 Y-61.754 E39.45807
G1 X-118 Y-62.398 E39.49749
G1 X-117.48 Y-62.992 E39.53688
G1 X-117.001 Y-63.447 E39.56984
G1 X-116.939 Y-63.501 E39.57394
G1 X-116.318 Y-63.989 E39.61334
G1 X-115.651 Y-64.411 E39.65272
G1 X-114.944 Y-64.764 E39.69215
G1 X-114.161 Y-65.058 E39.73387
G1 X-113.917 Y-65.135 E39.74664
G1 X-113.671 Y-65.723 E39.77844
G1 X-113.294 Y-66.417 E39.81784
G1 X-112.848 Y-67.069 E39.85725
G1 X-112.339 Y-67.673 E39.89666
G1 X-111.772 Y-68.222 E39.93603
G1 X-111.152 Y-68.711 E39.97543
G1 X-110.486 Y-69.135 E40.01482
G1 X-109.78 Y-69.489 E40.05422
G1 X-109.042 Y-69.77 E40.09362
G1 X-108.279 Y-69.975 E40.13303
G1 X-107.5 Y-70.102 E40.17241
G1 X-106.711 Y-70.15 E40.21185
G1 X-105.922 Y-70.117 E40.25124
G1 X-105.292 Y-70.033 E40.28295
G1 X-104.961 Y-69.975 E40.29972
G1 X-104.191 Y-69.799 E40.33912
G1 X-103.443 Y-69.547 E40.3785
G1 X-102.724 Y-69.22 E40.41791
G1 X-102.042 Y-68.822 E40.4573
G1 X-101.403 Y-68.358 E40.4967
G1 X-100.815 Y-67.831 E40.5361
G1 X-100.283 Y-67.247 E40.57551
G1 X-99.813 Y-66.612 E40.61492
G1 X-99.409 Y-65.934 E40.6543
G1 X-99.076 Y-65.218 E40.69369
G1 X-98.818 Y-64.472 E40.73307
G1 X-98.636 Y-63.703 E40.7725
G1 X-98.532 Y-62.92 E40.81191
G1 X-98.507 Y-62.292 E40.84326
G1 X-98.507 Y-38.56 E42.02726
G1 X-98.547 Y-37.771 E42.06667
G1 X-98.588 Y-37.505 E42.0801
G1 X-98.53 Y-37.059 E42.10254
G1 X-98.507 Y-36.455 E42.13269
G1 X-98.507 Y-1.06 E43.89856
G1 X-98.547 Y-.271 E43.93797
G1 X-98.588 Y-0.005 E43.9514
G1 X-98.53 Y0.441 E43.97384
G1 X-98.507 Y1.045 E44.00399
G1 X-98.507 Y29.22 E45.40965
G1 X-89.924 Y29.22 E45.83786
G1 X-89.135 Y29.26 E45.87727
G1 X-88.355 Y29.379 E45.91663
G1 X-87.59 Y29.577 E45.95606
G1 X-86.85 Y29.851 E45.99543
G1 X-86.141 Y30.199 E46.03483
G1 X-85.47 Y30.617 E46.07427
G1 X-84.846 Y31.1 E46.11364
G1 X-84.409 Y31.505 E46.14336
G1 X-84.292 Y31.622 E46.15162
G1 X-83.762 Y32.208 E46.19104
G1 X-83.295 Y32.844 E46.2304
G1 X-82.894 Y33.524 E46.26979
G1 X-82.564 Y34.242 E46.30921
G1 X-82.309 Y34.989 E46.34859
G1 X-82.13 Y35.758 E46.38798
G1 X-82.03 Y36.542 E46.42741
G1 X-82.007 Y37.137 E46.45712
G1 X-82.007 Y62.22 E47.70852
G1 X-47.607 Y62.22 E49.42474
G1 X-47.607 Y37.137 E50.67613
G1 X-47.567 Y36.348 E50.71555
G1 X-47.448 Y35.568 E50.75491
G1 X-47.25 Y34.803 E50.79434
G1 X-46.976 Y34.063 E50.83371
G1 X-46.628 Y33.354 E50.87311
G1 X-46.21 Y32.683 E50.91255
G1 X-45.727 Y32.059 E50.95192
G1 X-45.322 Y31.622 E50.98164
G1 X-45.205 Y31.505 E50.9899
G1 X-44.619 Y30.975 E51.02932
G1 X-43.983 Y30.508 E51.06868
G1 X-43.303 Y30.107 E51.10807
G1 X-42.585 Y29.777 E51.14749
G1 X-41.838 Y29.522 E51.18687
G1 X-41.069 Y29.343 E51.22626
G1 X-40.285 Y29.243 E51.26569
G1 X-39.69 Y29.22 E51.2954
G1 X-31.107 Y29.22 E51.72361
G0 F3600 X-30.707 Y29.62
G1 F1800 X-30.707 Y-74.863 E56.93628
G1 X-30.667 Y-75.631 E56.97465
G1 X-30.548 Y-76.391 E57.01303
G1 X-30.35 Y-77.134 E57.05139
G1 X-30.076 Y-77.853 E57.08978
G1 X-29.729 Y-78.539 E57.12813
G1 X-29.313 Y-79.186 E57.16651
G1 X-28.832 Y-79.786 E57.20488
G1 X-28.423 Y-80.213 E57.23437
G1 X-27.851 Y-80.727 E57.27274
G1 X-27.229 Y-81.18 E57.31113
G1 X-26.564 Y-81.566 E57.34949
G1 X-25.862 Y-81.881 E57.38788
G1 X-25.131 Y-82.121 E57.42626
G1 X-24.38 Y-82.284 E57.4646
G1 X-23.615 Y-82.368 E57.503
G1 X-23.19 Y-82.38 E57.52421
G1 X-8.506 Y-82.38 E58.2568
G1 X-7.506 Y-82.312 E58.3068
G1 X-7.088 Y-82.255 E58.32785
G1 X-6.332 Y-82.112 E58.36624
G1 X-5.437 Y-81.832 E58.41302
G1 X-5.093 Y-81.7 E58.4314
G1 X-4.39 Y-81.387 E58.4698
G1 X-3.602 Y-80.923 E58.51542
G1 X-3.297 Y-80.717 E58.53378
G1 X-2.683 Y-80.254 E58.57215
G1 X-2.067 Y-79.675 E58.61432
G1 X-1.814 Y-79.408 E58.63268
G1 X-1.315 Y-78.823 E58.67104
G1 X-.798 Y-78.053 E58.71731
G1 X-.615 Y-77.74 E58.7354
G1 X-.262 Y-77.057 E58.77375
G1 X-0.012 Y-76.43 E58.80743
G1 X0.00 Y-76.394 E58.80932
G1 X0.132 Y-76.737 E58.82766
G1 X0.445 Y-77.44 E58.86605
G1 X0.887 Y-78.195 E58.9097
G1 X1.092 Y-78.502 E58.92811
G1 X1.552 Y-79.119 E58.96651
G1 X2.167 Y-79.775 E59.01137
G1 X2.433 Y-80.026 E59.02962
G1 X3.019 Y-80.524 E59.06798
G1 X3.757 Y-81.021 E59.11237
G1 X4.078 Y-81.21 E59.13096
G1 X4.761 Y-81.565 E59.16936
G1 X5.567 Y-81.877 E59.21248
G1 X5.912 Y-81.988 E59.23056
G1 X6.655 Y-82.186 E59.26892
G1 X7.375 Y-82.3 E59.30529
G1 X7.705 Y-82.336 E59.32185
G1 X8.508 Y-82.38 E59.36198
G1 X101.386 Y-82.38 E63.99568
G1 X102.154 Y-82.34 E64.03405
G1 X102.914 Y-82.221 E64.07242
G1 X103.657 Y-82.023 E64.11079
G1 X104.376 Y-81.749 E64.14917
G1 X104.843 Y-81.524 E64.17504
G1 X105.508 Y-81.138 E64.2134
G1 X106.13 Y-80.686 E64.25176
G1 X106.702 Y-80.171 E64.29016
G1 X107.217 Y-79.6 E64.32852
G1 X107.468 Y-79.273 E64.34908
G1 X108.953 Y-77.22 E64.4755
G1 X109.049 Y-77.083 E64.48384
G1 X110.987 Y-74.272 E64.65418
G1 X111.083 Y-74.13 E64.66273
G1 X112.478 Y-72.003 E64.78964
G1 X112.866 Y-71.339 E64.82801
G1 X113.182 Y-70.638 E64.86637
G1 X113.371 Y-70.095 E64.89505
G1 X113.388 Y-70.039 E64.89797
G1 X113.573 Y-69.292 E64.93637
G1 X113.679 Y-68.53 E64.97475
G1 X113.707 Y-67.889 E65.00676
G1 X113.707 Y-64.81 E65.16037
G1 X114.055 Y-64.721 E65.17829
G1 X114.79 Y-64.493 E65.21668
G1 X115.497 Y-64.189 E65.25508
G1 X116.168 Y-63.815 E65.2934
G1 X116.792 Y-63.377 E65.33144
G1 X116.861 Y-63.323 E65.33581
G1 X117.441 Y-62.818 E65.37418
G1 X117.966 Y-62.255 E65.41258
G1 X118.429 Y-61.641 E65.45095
G1 X118.91 Y-60.822 E65.49833
G1 X119.718 Y-59.215 E65.58807
G1 X120.78 Y-57.026 E65.70946
G1 X121.504 Y-55.473 E65.79494
G1 X121.792 Y-54.76 E65.83331
G1 X122.041 Y-53.855 E65.88013
G1 X122.051 Y-53.807 E65.88258
G1 X122.169 Y-53.047 E65.92095
G1 X122.207 Y-52.298 E65.95837
G1 X122.207 Y52.338 E71.17868
G1 X122.167 Y53.106 E71.21705
G1 X122.045 Y53.878 E71.25604
G1 X122.035 Y53.925 E71.25844
G1 X121.836 Y54.668 E71.29681
G1 X121.504 Y55.512 E71.34206
G1 X120.738 Y57.154 E71.43245
G1 X119.689 Y59.314 E71.55225
G1 X118.936 Y60.813 E71.63594
G1 X118.555 Y61.481 E71.67431
G1 X118.107 Y62.106 E71.71267
G1 X117.597 Y62.682 E71.75106
G1 X116.843 Y63.35 E71.80131
G1 X116.773 Y63.404 E71.80572
G1 X116.14 Y63.842 E71.84413
G1 X115.466 Y64.211 E71.88246
G1 X114.756 Y64.509 E71.92088
G1 X114.06 Y64.721 E71.95718
G1 X113.707 Y64.81 E71.97534
G1 X113.707 Y67.929 E72.13095
G1 X113.667 Y68.697 E72.16932
G1 X113.548 Y69.457 E72.20769
G1 X113.402 Y70.031 E72.23724
G1 X113.386 Y70.085 E72.24005
G1 X113.13 Y70.81 E72.27841
G1 X112.799 Y71.505 E72.31682
G1 X112.478 Y72.042 E72.34803
G1 X111.082 Y74.17 E72.475
G1 X110.989 Y74.309 E72.48335
G1 X109.07 Y77.095 E72.65212
G1 X107.502 Y79.267 E72.78577
G1 X107.02 Y79.867 E72.82417
G1 X106.479 Y80.413 E72.86251
G1 X105.883 Y80.9 E72.90091
G1 X105.241 Y81.322 E72.93924
G1 X104.787 Y81.568 E72.965
G1 X104.085 Y81.882 E73.00337
G1 X103.354 Y82.122 E73.04176
G1 X102.602 Y82.284 E73.08013
G1 X101.837 Y82.368 E73.11853
G1 X101.416 Y82.38 E73.13954
G1 X8.508 Y82.38 E77.77474
G1 X7.651 Y82.33 E77.81757
G1 X7.265 Y82.285 E77.83696
G1 X6.507 Y82.157 E77.87531
G1 X5.614 Y81.897 E77.92171
G1 X5.267 Y81.772 E77.94011
G1 X4.558 Y81.474 E77.97848
G1 X3.794 Y81.048 E78.02212
G1 X3.479 Y80.847 E78.04076
G1 X2.853 Y80.4 E78.07914
G1 X2.176 Y79.79 E78.1246
G1 X1.923 Y79.532 E78.14263
G1 X1.414 Y78.956 E78.18098
G1 X0.917 Y78.249 E78.2241
G1 X0.723 Y77.936 E78.24247
G1 X0.352 Y77.263 E78.28081
G1 X0.009 Y76.426 E78.32594
G1 X-0.042 Y76.512 E78.33093
G1 X-.334 Y77.224 E78.36932
G1 X-.784 Y78.038 E78.41572
G1 X-.981 Y78.347 E78.434
G1 X-1.428 Y78.973 E78.47238
G1 X-2.029 Y79.642 E78.51725
G1 X-2.287 Y79.896 E78.53531
G1 X-2.863 Y80.407 E78.57373
G1 X-3.564 Y80.903 E78.61657
G1 X-3.88 Y81.1 E78.63515
G1 X-4.553 Y81.472 E78.67351
G1 X-5.383 Y81.816 E78.71833
G1 X-5.734 Y81.937 E78.73686
G1 X-6.473 Y82.15 E78.77523
G1 X-7.353 Y82.298 E78.81975
G1 X-7.715 Y82.337 E78.83791
G1 X-8.508 Y82.38 E78.87753
G1 X-101.03 Y82.38 E83.49347
G1 X-101.798 Y82.34 E83.53184
G1 X-102.558 Y82.221 E83.57022
G1 X-103.301 Y82.023 E83.60858
G1 X-104.02 Y81.749 E83.64697
G1 X-104.487 Y81.524 E83.67283
G1 X-105.152 Y81.138 E83.71119
G1 X-105.774 Y80.686 E83.74955
G1 X-106.346 Y80.171 E83.78795
G1 X-106.861 Y79.6 E83.82631
G1 X-107.118 Y79.264 E83.84742
G1 X-108.721 Y77.041 E83.98415
G1 X-108.824 Y76.895 E83.99307
G1 X-110.895 Y73.872 E84.17588
G1 X-110.996 Y73.721 E84.18495
G1 X-112.497 Y71.41 E84.32243
G1 X-112.882 Y70.744 E84.36081
G1 X-113.195 Y70.042 E84.39915
G1 X-113.416 Y69.379 E84.43402
G1 X-113.432 Y69.322 E84.43697
G1 X-113.601 Y68.572 E84.47533
G1 X-113.691 Y67.808 E84.51371
G1 X-113.707 Y67.322 E84.53797
G1 X-113.707 Y64.781 E84.66474
G1 X-114.047 Y64.675 E84.68251
G1 X-114.769 Y64.408 E84.72091
G1 X-115.458 Y64.067 E84.75926
G1 X-116.108 Y63.656 E84.79763
G1 X-116.593 Y63.283 E84.82816
G1 X-116.655 Y63.231 E84.83219
G1 X-117.218 Y62.707 E84.87057
G1 X-117.724 Y62.127 E84.90897
G1 X-118.166 Y61.498 E84.94732
G1 X-118.514 Y60.881 E84.98266
G1 X-119.405 Y59.106 E85.08175
G1 X-120.633 Y56.554 E85.22304
G1 X-120.691 Y56.431 E85.22982
G1 X-121.524 Y54.614 E85.32955
G1 X-121.808 Y53.899 E85.36793
G1 X-122.028 Y53.102 E85.40918
