;FLAVOR:Marlin
;TIME:9165
;Filament used: 12.3308m
;Layer height: 0.3
;MINX:-108.772
;MINY:-112.091
;MINZ:0.3
;MAXX:69
;MAXY:89.136
;MAXZ:72
;Generated with Cura_SteamEngine 4.7.1
M140 S50
M105
M190 S50
M104 S255
M105
M109 S255
M82 ;absolute extrusion mode
G28 ;Home
G1 Z15.0 F6000 ;Move the platform down 15mm
;Prime the extruder
G92 E0
G1 F200 E3
G92 E0
G92 E0
G92 E0
G1 F1500 E-6.5
;LAYER_COUNT:240
;LAYER:0
M107
G0 F3600 X0.566 Y-2.848 Z0.3
;TYPE:SKIRT
G1 F1500 E0
G1 F1800 X-.174 Y-3.122 E0.03937
G1 X-.883 Y-3.47 E0.07877
G1 X-1.554 Y-3.888 E0.11821
G1 X-2.178 Y-4.371 E0.15758
G1 X-2.751 Y-4.914 E0.19696
G1 X-3.266 Y-5.513 E0.23638
G1 X-3.717 Y-6.161 E0.27576
G1 X-4.101 Y-6.852 E0.3152
G1 X-4.413 Y-7.577 E0.35458
G1 X-4.65 Y-8.33 E0.39396
G1 X-4.809 Y-9.104 E0.43339
G1 X-4.89 Y-9.889 E0.47276
G1 X-4.9 Y-10.291 E0.49282
G1 X-4.9 Y-17.691 E0.86201
G1 X-23.1 Y-17.691 E1.77001
G1 X-23.1 Y-16.491 E1.82988
G1 X-23.14 Y-15.702 E1.86929
G1 X-23.259 Y-14.922 E1.90866
G1 X-23.457 Y-14.157 E1.94808
G1 X-23.731 Y-13.417 E1.98745
G1 X-24.079 Y-12.708 E2.02685
G1 X-24.497 Y-12.037 E2.06629
G1 X-24.98 Y-11.413 E2.10566
G1 X-25.523 Y-10.84 E2.14504
G1 X-26.122 Y-10.325 E2.18445
G1 X-26.77 Y-9.874 E2.22384
G1 X-27.461 Y-9.49 E2.26328
G1 X-28.186 Y-9.178 E2.30266
G1 X-28.939 Y-8.941 E2.34204
G1 X-29.713 Y-8.782 E2.38147
G1 X-30.498 Y-8.701 E2.42084
G1 X-30.9 Y-8.691 E2.4409
G1 X-34.9 Y-8.691 E2.64046
G1 X-35.689 Y-8.731 E2.67987
G1 X-36.469 Y-8.85 E2.71924
G1 X-37.234 Y-9.048 E2.75866
G1 X-37.974 Y-9.322 E2.79803
G1 X-38.172 Y-9.419 E2.80903
G1 X-38.172 Y1.73 E3.36526
G1 X-37.898 Y1.831 E3.37983
G1 X-37.189 Y2.179 E3.41923
G1 X-36.518 Y2.597 E3.45867
G1 X-35.894 Y3.08 E3.49804
G1 X-35.321 Y3.623 E3.53742
G1 X-34.806 Y4.222 E3.57683
G1 X-34.355 Y4.87 E3.61622
G1 X-33.971 Y5.561 E3.65566
G1 X-33.659 Y6.286 E3.69504
G1 X-33.422 Y7.039 E3.73442
G1 X-33.263 Y7.813 E3.77384
G1 X-33.182 Y8.598 E3.81321
G1 X-33.172 Y9 E3.83328
G1 X-33.172 Y19 E4.33218
G1 X-33.212 Y19.789 E4.37159
G1 X-33.331 Y20.569 E4.41096
G1 X-33.529 Y21.334 E4.45038
G1 X-33.803 Y22.074 E4.48975
G1 X-34.151 Y22.783 E4.52915
G1 X-34.569 Y23.454 E4.56859
G1 X-35.052 Y24.078 E4.60796
G1 X-35.595 Y24.651 E4.64735
G1 X-36.194 Y25.166 E4.68676
G1 X-36.842 Y25.617 E4.72614
G1 X-37.533 Y26.001 E4.76558
G1 X-38.172 Y26.276 E4.80029
G1 X-38.172 Y44 E5.68454
G1 X-38.212 Y44.789 E5.72396
G1 X-38.331 Y45.569 E5.76332
G1 X-38.529 Y46.334 E5.80275
G1 X-38.803 Y47.074 E5.84212
G1 X-39.151 Y47.783 E5.88152
G1 X-39.569 Y48.454 E5.92096
G1 X-40.052 Y49.078 E5.96033
G1 X-40.595 Y49.651 E5.99971
G1 X-41.194 Y50.166 E6.03912
G1 X-41.842 Y50.617 E6.07851
G1 X-42.533 Y51.001 E6.11795
G1 X-43.258 Y51.313 E6.15733
G1 X-44.011 Y51.55 E6.19671
G1 X-44.785 Y51.709 E6.23613
G1 X-45.57 Y51.79 E6.2755
G1 X-45.972 Y51.8 E6.29557
G1 X-55.972 Y51.8 E6.79447
G1 X-56.761 Y51.76 E6.83388
G1 X-57.541 Y51.641 E6.87325
G1 X-58.306 Y51.443 E6.91267
G1 X-59.046 Y51.169 E6.95204
G1 X-59.755 Y50.821 E6.99144
G1 X-60.426 Y50.403 E7.03088
G1 X-61.05 Y49.92 E7.07025
G1 X-61.623 Y49.377 E7.10964
G1 X-62.138 Y48.778 E7.14905
G1 X-62.589 Y48.13 E7.18843
G1 X-62.973 Y47.439 E7.22787
G1 X-63.285 Y46.714 E7.26725
G1 X-63.522 Y45.961 E7.30664
G1 X-63.681 Y45.187 E7.34606
G1 X-63.762 Y44.402 E7.38543
G1 X-63.772 Y44 E7.40549
G1 X-63.772 Y26.8 E8.2636
G1 X-100.972 Y26.8 E10.11952
G1 X-101.761 Y26.76 E10.15893
G1 X-102.541 Y26.641 E10.1983
G1 X-103.306 Y26.443 E10.23772
G1 X-104.046 Y26.169 E10.27709
G1 X-104.755 Y25.821 E10.31649
G1 X-105.426 Y25.403 E10.35593
G1 X-106.05 Y24.92 E10.3953
G1 X-106.623 Y24.377 E10.43468
G1 X-107.138 Y23.778 E10.4741
G1 X-107.589 Y23.13 E10.51348
G1 X-107.973 Y22.439 E10.55292
G1 X-108.285 Y21.714 E10.5923
G1 X-108.522 Y20.961 E10.63168
G1 X-108.681 Y20.187 E10.67111
G1 X-108.762 Y19.402 E10.71048
G1 X-108.772 Y19 E10.73054
G1 X-108.772 Y9 E11.22944
G1 X-108.732 Y8.211 E11.26886
G1 X-108.613 Y7.431 E11.30822
G1 X-108.415 Y6.666 E11.34764
G1 X-108.141 Y5.926 E11.38701
G1 X-107.793 Y5.217 E11.42642
G1 X-107.375 Y4.546 E11.46586
G1 X-106.892 Y3.922 E11.50522
G1 X-106.349 Y3.349 E11.54461
G1 X-105.75 Y2.834 E11.58402
G1 X-105.102 Y2.383 E11.62341
G1 X-104.411 Y1.999 E11.66285
G1 X-103.686 Y1.687 E11.70222
G1 X-102.933 Y1.45 E11.74161
G1 X-102.159 Y1.291 E11.78103
G1 X-101.374 Y1.21 E11.8204
G1 X-100.972 Y1.2 E11.84046
G1 X-63.772 Y1.2 E13.69638
G1 X-63.772 Y-16 E14.55449
G1 X-63.732 Y-16.789 E14.5939
G1 X-63.613 Y-17.569 E14.63327
G1 X-63.415 Y-18.334 E14.67269
G1 X-63.141 Y-19.074 E14.71206
G1 X-62.793 Y-19.783 E14.75146
G1 X-62.375 Y-20.454 E14.79091
G1 X-61.892 Y-21.078 E14.83027
G1 X-61.349 Y-21.651 E14.86966
G1 X-60.75 Y-22.166 E14.90907
G1 X-60.102 Y-22.617 E14.94846
G1 X-59.411 Y-23.001 E14.9879
G1 X-58.686 Y-23.313 E15.02727
G1 X-57.933 Y-23.55 E15.06666
G1 X-57.159 Y-23.709 E15.10608
G1 X-56.374 Y-23.79 E15.14545
G1 X-55.972 Y-23.8 E15.16551
G1 X-45.972 Y-23.8 E15.66442
G1 X-45.183 Y-23.76 E15.70383
G1 X-44.403 Y-23.641 E15.74319
G1 X-43.638 Y-23.443 E15.78262
G1 X-42.898 Y-23.169 E15.82199
G1 X-42.7 Y-23.072 E15.83299
G1 X-42.7 Y-29.491 E16.15323
G1 X-42.66 Y-30.28 E16.19264
G1 X-42.541 Y-31.06 E16.23201
G1 X-42.343 Y-31.825 E16.27143
G1 X-42.069 Y-32.565 E16.3108
G1 X-41.721 Y-33.274 E16.3502
G1 X-41.303 Y-33.945 E16.38965
G1 X-40.82 Y-34.569 E16.42901
G1 X-40.277 Y-35.142 E16.4684
G1 X-39.678 Y-35.657 E16.50781
G1 X-39.03 Y-36.108 E16.5472
G1 X-38.339 Y-36.492 E16.58664
G1 X-37.614 Y-36.804 E16.62601
G1 X-36.861 Y-37.041 E16.6654
G1 X-36.087 Y-37.2 E16.70482
G1 X-35.302 Y-37.281 E16.74419
G1 X-34.9 Y-37.291 E16.76425
G1 X-32.8 Y-37.291 E16.86902
G1 X-32.8 Y-83.591 E19.17894
G1 X-32.76 Y-84.38 E19.21835
G1 X-32.641 Y-85.16 E19.25772
G1 X-32.443 Y-85.925 E19.29714
G1 X-32.169 Y-86.665 E19.33651
G1 X-31.821 Y-87.374 E19.37591
G1 X-31.403 Y-88.045 E19.41535
G1 X-30.92 Y-88.669 E19.45472
G1 X-30.377 Y-89.242 E19.4941
G1 X-29.778 Y-89.757 E19.53352
G1 X-29.13 Y-90.208 E19.5729
G1 X-28.439 Y-90.592 E19.61234
G1 X-27.714 Y-90.904 E19.65172
G1 X-26.961 Y-91.141 E19.69111
G1 X-26.187 Y-91.3 E19.73053
G1 X-25.402 Y-91.381 E19.7699
G1 X-25 Y-91.391 E19.78996
G1 X-4.9 Y-91.391 E20.79275
G1 X-4.9 Y-104.291 E21.43634
G1 X-4.86 Y-105.08 E21.47575
G1 X-4.741 Y-105.86 E21.51512
G1 X-4.543 Y-106.625 E21.55454
G1 X-4.269 Y-107.365 E21.59391
G1 X-3.921 Y-108.074 E21.63331
G1 X-3.503 Y-108.745 E21.67275
G1 X-3.02 Y-109.369 E21.71212
G1 X-2.477 Y-109.942 E21.7515
G1 X-1.878 Y-110.457 E21.79091
G1 X-1.23 Y-110.908 E21.8303
G1 X-.539 Y-111.292 E21.86974
G1 X0.186 Y-111.604 E21.90912
G1 X0.939 Y-111.841 E21.9485
G1 X1.713 Y-112 E21.98793
G1 X2.498 Y-112.081 E22.0273
G1 X2.9 Y-112.091 E22.04736
G1 X6.9 Y-112.091 E22.24692
G1 X7.689 Y-112.051 E22.28633
G1 X8.469 Y-111.932 E22.3257
G1 X9.234 Y-111.734 E22.36512
G1 X9.974 Y-111.46 E22.40449
G1 X10.683 Y-111.112 E22.44389
G1 X11.354 Y-110.694 E22.48333
G1 X11.978 Y-110.211 E22.5227
G1 X12.551 Y-109.668 E22.56209
G1 X13.066 Y-109.069 E22.6015
G1 X13.517 Y-108.421 E22.64089
G1 X13.901 Y-107.73 E22.68033
G1 X14.213 Y-107.005 E22.7197
G1 X14.45 Y-106.252 E22.75909
G1 X14.609 Y-105.478 E22.79851
G1 X14.69 Y-104.693 E22.83788
G1 X14.7 Y-104.291 E22.85794
G1 X14.7 Y-20.139 E27.0563
G1 X14.939 Y-20.214 E27.0688
G1 X15.713 Y-20.373 E27.10822
G1 X16.498 Y-20.454 E27.14759
G1 X16.9 Y-20.464 E27.16765
G1 X20.9 Y-20.464 E27.36722
G1 X21.689 Y-20.424 E27.40663
G1 X22.469 Y-20.305 E27.44599
G1 X23.234 Y-20.107 E27.48542
G1 X23.974 Y-19.833 E27.52479
G1 X24.683 Y-19.485 E27.56419
G1 X25.354 Y-19.067 E27.60363
G1 X25.978 Y-18.584 E27.643
G1 X26.551 Y-18.041 E27.68238
G1 X27.066 Y-17.442 E27.72179
G1 X27.517 Y-16.794 E27.76118
G1 X27.901 Y-16.103 E27.80062
G1 X28.213 Y-15.378 E27.84
G1 X28.45 Y-14.625 E27.87938
G1 X28.609 Y-13.851 E27.9188
G1 X28.69 Y-13.066 E27.95818
G1 X28.7 Y-12.664 E27.97824
G1 X28.7 Y57.155 E31.46152
G1 X28.88 Y56.922 E31.47621
G1 X29.423 Y56.349 E31.51559
G1 X30.022 Y55.834 E31.55501
G1 X30.67 Y55.383 E31.59439
G1 X31.361 Y54.999 E31.63383
G1 X32.086 Y54.687 E31.67321
G1 X32.839 Y54.45 E31.7126
G1 X33.613 Y54.291 E31.75202
G1 X34.398 Y54.21 E31.79139
G1 X34.8 Y54.2 E31.81145
G1 X49.4 Y54.2 E32.53985
G1 X49.4 Y-50.2 E37.74838
G1 X34.8 Y-50.2 E38.47678
G1 X34.011 Y-50.24 E38.5162
G1 X33.231 Y-50.359 E38.55556
G1 X32.466 Y-50.557 E38.59498
G1 X31.726 Y-50.831 E38.63435
G1 X31.017 Y-51.179 E38.67376
G1 X30.346 Y-51.597 E38.7132
G1 X29.722 Y-52.08 E38.75256
G1 X29.149 Y-52.623 E38.79195
G1 X28.634 Y-53.222 E38.83136
G1 X28.183 Y-53.87 E38.87075
G1 X27.799 Y-54.561 E38.91019
G1 X27.487 Y-55.286 E38.94956
G1 X27.25 Y-56.039 E38.98895
G1 X27.091 Y-56.813 E39.02837
G1 X27.01 Y-57.598 E39.06774
G1 X27 Y-58 E39.0878
G1 X27 Y-71 E39.73638
G1 X27.04 Y-71.789 E39.77579
G1 X27.159 Y-72.569 E39.81515
G1 X27.357 Y-73.334 E39.85458
G1 X27.631 Y-74.074 E39.89395
G1 X27.979 Y-74.783 E39.93335
G1 X28.397 Y-75.454 E39.97279
G1 X28.88 Y-76.078 E40.01216
G1 X29.423 Y-76.651 E40.05154
G1 X30.022 Y-77.166 E40.09095
G1 X30.67 Y-77.617 E40.13034
G1 X31.361 Y-78.001 E40.16978
G1 X32.086 Y-78.313 E40.20916
G1 X32.839 Y-78.55 E40.24854
G1 X33.613 Y-78.709 E40.28796
G1 X34.398 Y-78.79 E40.32734
G1 X34.8 Y-78.8 E40.3474
G1 X38.8 Y-78.8 E40.54696
G1 X39.589 Y-78.76 E40.58637
G1 X40.369 Y-78.641 E40.62574
G1 X41.134 Y-78.443 E40.66516
G1 X41.874 Y-78.169 E40.70453
G1 X42.583 Y-77.821 E40.74393
G1 X43.254 Y-77.403 E40.78337
G1 X43.878 Y-76.92 E40.82274
G1 X44.451 Y-76.377 E40.86213
G1 X44.966 Y-75.778 E40.90154
G1 X45.417 Y-75.13 E40.94092
G1 X45.801 Y-74.439 E40.98036
G1 X46.113 Y-73.714 E41.01974
G1 X46.35 Y-72.961 E41.05913
G1 X46.509 Y-72.187 E41.09855
G1 X46.59 Y-71.402 E41.13792
G1 X46.6 Y-71 E41.15798
G1 X46.6 Y-69.8 E41.21785
G1 X61.2 Y-69.8 E41.94625
G1 X61.989 Y-69.76 E41.98566
G1 X62.769 Y-69.641 E42.02502
G1 X63.534 Y-69.443 E42.06445
G1 X64.274 Y-69.169 E42.10382
G1 X64.983 Y-68.821 E42.14322
G1 X65.654 Y-68.403 E42.18266
G1 X66.278 Y-67.92 E42.22203
G1 X66.851 Y-67.377 E42.26141
G1 X67.366 Y-66.778 E42.30082
G1 X67.817 Y-66.13 E42.34021
G1 X68.201 Y-65.439 E42.37965
G1 X68.513 Y-64.714 E42.41903
G1 X68.75 Y-63.961 E42.45841
G1 X68.909 Y-63.187 E42.49783
G1 X68.99 Y-62.402 E42.53721
G1 X69 Y-62 E42.55727
G1 X69 Y-38 E43.75463
G1 X68.96 Y-37.211 E43.79405
G1 X68.841 Y-36.431 E43.83341
G1 X68.643 Y-35.666 E43.87284
G1 X68.369 Y-34.926 E43.9122
G1 X68.021 Y-34.217 E43.95161
G1 X68 Y-34.183 E43.9536
G1 X68 Y-26.801 E44.32189
G1 X68.201 Y-26.439 E44.34255
G1 X68.513 Y-25.714 E44.38193
G1 X68.75 Y-24.961 E44.42131
G1 X68.909 Y-24.187 E44.46073
G1 X68.99 Y-23.402 E44.5001
G1 X69 Y-23 E44.52016
G1 X69 Y66 E48.96039
G1 X68.96 Y66.789 E48.99981
G1 X68.841 Y67.569 E49.03917
G1 X68.643 Y68.334 E49.07859
G1 X68.369 Y69.074 E49.11796
G1 X68.021 Y69.783 E49.15737
G1 X67.603 Y70.454 E49.19681
G1 X67.12 Y71.078 E49.23617
G1 X66.577 Y71.651 E49.27556
G1 X65.978 Y72.166 E49.31497
G1 X65.33 Y72.617 E49.35436
G1 X64.639 Y73.001 E49.3938
G1 X63.914 Y73.313 E49.43318
G1 X63.161 Y73.55 E49.47256
G1 X62.387 Y73.709 E49.51198
G1 X61.602 Y73.79 E49.55135
G1 X61.2 Y73.8 E49.57141
G1 X46.6 Y73.8 E50.29981
G1 X46.6 Y75 E50.35968
G1 X46.56 Y75.789 E50.39909
G1 X46.441 Y76.569 E50.43846
G1 X46.243 Y77.334 E50.47788
G1 X45.969 Y78.074 E50.51725
G1 X45.621 Y78.783 E50.55665
G1 X45.203 Y79.454 E50.59609
G1 X44.72 Y80.078 E50.63546
G1 X44.177 Y80.651 E50.67485
G1 X43.578 Y81.166 E50.71426
G1 X42.93 Y81.617 E50.75365
G1 X42.239 Y82.001 E50.79308
G1 X41.514 Y82.313 E50.83246
G1 X40.761 Y82.55 E50.87185
G1 X39.987 Y82.709 E50.91127
G1 X39.202 Y82.79 E50.95064
G1 X38.8 Y82.8 E50.9707
G1 X34.8 Y82.8 E51.17026
G1 X34.011 Y82.76 E51.20968
G1 X33.231 Y82.641 E51.24904
G1 X32.466 Y82.443 E51.28846
G1 X31.726 Y82.169 E51.32783
G1 X31.017 Y81.821 E51.36724
G1 X30.346 Y81.403 E51.40668
G1 X29.722 Y80.92 E51.44604
G1 X29.149 Y80.377 E51.48543
G1 X28.7 Y79.855 E51.51978
G1 X28.7 Y81.336 E51.59367
G1 X28.66 Y82.125 E51.63308
G1 X28.541 Y82.905 E51.67245
G1 X28.343 Y83.67 E51.71187
G1 X28.069 Y84.41 E51.75124
G1 X27.721 Y85.119 E51.79064
G1 X27.303 Y85.79 E51.83008
G1 X26.82 Y86.414 E51.86945
G1 X26.277 Y86.987 E51.90883
G1 X25.678 Y87.502 E51.94824
G1 X25.03 Y87.953 E51.98763
G1 X24.339 Y88.337 E52.02707
G1 X23.614 Y88.649 E52.06645
G1 X22.861 Y88.886 E52.10583
G1 X22.087 Y89.045 E52.14526
G1 X21.302 Y89.126 E52.18463
G1 X20.9 Y89.136 E52.20469
G1 X16.9 Y89.136 E52.40425
G1 X16.111 Y89.096 E52.44366
G1 X15.331 Y88.977 E52.48303
G1 X14.566 Y88.779 E52.52245
G1 X13.826 Y88.505 E52.56182
G1 X13.117 Y88.157 E52.60122
G1 X12.446 Y87.739 E52.64066
G1 X11.822 Y87.256 E52.68003
G1 X11.249 Y86.713 E52.71942
G1 X10.734 Y86.114 E52.75883
G1 X10.283 Y85.466 E52.79822
G1 X9.899 Y84.775 E52.83766
G1 X9.587 Y84.05 E52.87703
G1 X9.35 Y83.297 E52.91642
G1 X9.191 Y82.523 E52.95584
G1 X9.11 Y81.738 E52.99521
G1 X9.1 Y81.336 E53.01527
G1 X9.1 Y73.936 E53.38446
G1 X-9.1 Y73.936 E54.29246
G1 X-9.1 Y75.136 E54.35233
G1 X-9.14 Y75.925 E54.39174
G1 X-9.259 Y76.705 E54.43111
G1 X-9.457 Y77.47 E54.47053
G1 X-9.731 Y78.21 E54.5099
G1 X-10.079 Y78.919 E54.5493
G1 X-10.497 Y79.59 E54.58874
G1 X-10.98 Y80.214 E54.62811
G1 X-11.523 Y80.787 E54.6675
G1 X-12.122 Y81.302 E54.70691
G1 X-12.77 Y81.753 E54.7463
G1 X-13.461 Y82.137 E54.78574
G1 X-14.186 Y82.449 E54.82511
G1 X-14.939 Y82.686 E54.8645
G1 X-15.713 Y82.845 E54.90392
G1 X-16.498 Y82.926 E54.94329
G1 X-16.9 Y82.936 E54.96335
G1 X-20.9 Y82.936 E55.16291
G1 X-21.689 Y82.896 E55.20233
G1 X-22.469 Y82.777 E55.24169
G1 X-23.234 Y82.579 E55.28111
G1 X-23.974 Y82.305 E55.32048
G1 X-24.683 Y81.957 E55.35989
G1 X-25.354 Y81.539 E55.39933
G1 X-25.978 Y81.056 E55.43869
G1 X-26.551 Y80.513 E55.47808
G1 X-27.066 Y79.914 E55.51749
G1 X-27.517 Y79.266 E55.55688
G1 X-27.901 Y78.575 E55.59632
G1 X-28.213 Y77.85 E55.6357
G1 X-28.45 Y77.097 E55.67508
G1 X-28.609 Y76.323 E55.7145
G1 X-28.69 Y75.538 E55.75387
G1 X-28.7 Y75.136 E55.77393
G1 X-28.7 Y62.136 E56.42251
G1 X-28.66 Y61.347 E56.46192
G1 X-28.541 Y60.567 E56.50129
G1 X-28.343 Y59.802 E56.54071
G1 X-28.069 Y59.062 E56.58008
G1 X-27.721 Y58.353 E56.61948
G1 X-27.303 Y57.682 E56.65892
G1 X-26.82 Y57.058 E56.69829
G1 X-26.277 Y56.485 E56.73767
G1 X-25.678 Y55.97 E56.77708
G1 X-25.03 Y55.519 E56.81647
G1 X-24.339 Y55.135 E56.85591
G1 X-23.614 Y54.823 E56.89529
G1 X-22.861 Y54.586 E56.93467
G1 X-22.087 Y54.427 E56.9741
G1 X-21.302 Y54.346 E57.01347
G1 X-20.9 Y54.336 E57.03353
G1 X-18.8 Y54.336 E57.1383
G1 X-18.8 Y8.036 E59.44822
G1 X-18.76 Y7.247 E59.48763
G1 X-18.641 Y6.467 E59.52699
G1 X-18.443 Y5.702 E59.56642
G1 X-18.169 Y4.962 E59.60579
G1 X-17.821 Y4.253 E59.64519
G1 X-17.403 Y3.582 E59.68463
G1 X-16.92 Y2.958 E59.724
G1 X-16.377 Y2.385 E59.76338
G1 X-15.778 Y1.87 E59.80279
G1 X-15.13 Y1.419 E59.84218
G1 X-14.439 Y1.035 E59.88162
G1 X-13.714 Y0.723 E59.921
G1 X-12.961 Y0.486 E59.96038
G1 X-12.187 Y0.327 E59.9998
G1 X-11.402 Y0.246 E60.03918
G1 X-11 Y0.236 E60.05924
G1 X9.1 Y0.236 E61.06203
G1 X9.1 Y-2.816 E61.2143
G1 X8.861 Y-2.741 E61.22679
G1 X8.087 Y-2.582 E61.26621
G1 X7.302 Y-2.501 E61.30559
G1 X6.9 Y-2.491 E61.32565
G1 X2.9 Y-2.491 E61.52521
G1 X2.111 Y-2.531 E61.56462
G1 X1.331 Y-2.65 E61.60399
G1 X0.566 Y-2.848 E61.64341
G0 F3600 X0.629 Y-3.248
G1 F1800 X-0.09 Y-3.522 E61.6818
G1 X-.776 Y-3.869 E61.72015
G1 X-1.423 Y-4.285 E61.75853
G1 X-2.023 Y-4.766 E61.79689
G1 X-2.57 Y-5.307 E61.83528
G1 X-3.058 Y-5.902 E61.87367
G1 X-3.481 Y-6.544 E61.91202
G1 X-3.836 Y-7.227 E61.95043
G1 X-4.117 Y-7.942 E61.98875
G1 X-4.323 Y-8.684 E62.02717
G1 X-4.451 Y-9.442 E62.06553
G1 X-4.5 Y-10.291 E62.10795
G1 X-4.5 Y-18.091 E62.4971
G1 X-23.5 Y-18.091 E63.44501
G1 X-23.5 Y-16.491 E63.52483
G1 X-23.54 Y-15.723 E63.5632
G1 X-23.659 Y-14.963 E63.60158
G1 X-23.857 Y-14.22 E63.63994
G1 X-24.131 Y-13.501 E63.67833
G1 X-24.478 Y-12.815 E63.71668
G1 X-24.894 Y-12.168 E63.75506
G1 X-25.375 Y-11.568 E63.79343
G1 X-25.916 Y-11.021 E63.83181
G1 X-26.511 Y-10.533 E63.8702
G1 X-27.153 Y-10.11 E63.90856
G1 X-27.836 Y-9.755 E63.94696
G1 X-28.551 Y-9.474 E63.98529
G1 X-29.293 Y-9.268 E64.02371
G1 X-30.051 Y-9.14 E64.06206
G1 X-30.9 Y-9.091 E64.10449
G1 X-34.9 Y-9.091 E64.30405
