;FLAVOR:Marlin
;TIME:9093
;Filament used: 13.0556m
;Layer height: 0.3
;MINX:-48.8
;MINY:-77.3
;MINZ:0.3
;MAXX:48.8
;MAXY:77.3
;MAXZ:6
;Generated with Cura_SteamEngine 4.7.1
M140 S50
M105
M190 S50
M104 S250
M105
M109 S250
M82 ;absolute extrusion mode
G28 ;Home
G1 Z15.0 F6000 ;Move the platform down 15mm
;Prime the extruder
G92 E0
G1 F200 E3
G92 E0
G92 E0
G92 E0
G1 F1500 E-6.5
;LAYER_COUNT:20
;LAYER:0
M107
G0 F3600 X33.8 Y23.3 Z0.3
;TYPE:SKIRT
G1 F1500 E0
G1 F1800 X33.8 Y25.383 E0.10392
G1 X33.76 Y26.172 E0.14334
G1 X33.641 Y26.952 E0.1827
G1 X33.443 Y27.717 E0.22212
G1 X33.169 Y28.457 E0.26149
G1 X32.821 Y29.166 E0.3009
G1 X32.403 Y29.837 E0.34034
G1 X31.92 Y30.461 E0.3797
G1 X31.515 Y30.898 E0.40943
G1 X31.398 Y31.015 E0.41768
G1 X30.812 Y31.545 E0.4571
G1 X30.176 Y32.012 E0.49647
G1 X29.496 Y32.413 E0.53585
G1 X28.8 Y32.733 E0.57407
G1 X28.8 Y50.383 E1.45463
G1 X28.76 Y51.172 E1.49405
G1 X28.641 Y51.952 E1.53341
G1 X28.443 Y52.717 E1.57284
G1 X28.169 Y53.457 E1.6122
G1 X27.821 Y54.166 E1.65161
G1 X27.403 Y54.837 E1.69105
G1 X26.92 Y55.461 E1.73042
G1 X26.515 Y55.898 E1.76014
G1 X26.398 Y56.015 E1.7684
G1 X25.812 Y56.545 E1.80782
G1 X25.176 Y57.012 E1.84718
G1 X24.496 Y57.413 E1.88657
G1 X23.778 Y57.743 E1.92599
G1 X23.031 Y57.998 E1.96537
G1 X22.262 Y58.177 E2.00476
G1 X21.478 Y58.277 E2.04419
G1 X20.883 Y58.3 E2.0739
G1 X14.8 Y58.3 E2.37738
G1 X14.8 Y69.383 E2.93031
G1 X14.76 Y70.172 E2.96973
G1 X14.641 Y70.952 E3.00909
G1 X14.443 Y71.717 E3.04852
G1 X14.169 Y72.457 E3.08788
G1 X13.821 Y73.166 E3.12729
G1 X13.403 Y73.837 E3.16673
G1 X12.92 Y74.461 E3.2061
G1 X12.515 Y74.898 E3.23582
G1 X12.398 Y75.015 E3.24408
G1 X11.812 Y75.545 E3.28349
G1 X11.176 Y76.012 E3.32286
G1 X10.496 Y76.413 E3.36225
G1 X9.778 Y76.743 E3.40167
G1 X9.031 Y76.998 E3.44105
G1 X8.262 Y77.177 E3.48044
G1 X7.478 Y77.277 E3.51987
G1 X6.883 Y77.3 E3.54958
G1 X-6.883 Y77.3 E4.23637
G1 X-7.672 Y77.26 E4.27578
G1 X-8.452 Y77.141 E4.31514
G1 X-9.217 Y76.943 E4.35457
G1 X-9.957 Y76.669 E4.39394
G1 X-10.666 Y76.321 E4.43334
G1 X-11.337 Y75.903 E4.47278
G1 X-11.961 Y75.42 E4.51215
G1 X-12.398 Y75.015 E4.54187
G1 X-12.515 Y74.898 E4.55013
G1 X-13.045 Y74.312 E4.58955
G1 X-13.512 Y73.676 E4.62891
G1 X-13.913 Y72.996 E4.6683
G1 X-14.243 Y72.278 E4.70772
G1 X-14.498 Y71.531 E4.7471
G1 X-14.677 Y70.762 E4.78649
G1 X-14.777 Y69.978 E4.82592
G1 X-14.8 Y69.383 E4.85563
G1 X-14.8 Y58.3 E5.40856
G1 X-20.883 Y58.3 E5.71204
G1 X-21.672 Y58.26 E5.75146
G1 X-22.452 Y58.141 E5.79082
G1 X-23.217 Y57.943 E5.83025
G1 X-23.957 Y57.669 E5.86962
G1 X-24.666 Y57.321 E5.90902
G1 X-25.337 Y56.903 E5.94846
G1 X-25.961 Y56.42 E5.98783
G1 X-26.398 Y56.015 E6.01755
G1 X-26.515 Y55.898 E6.02581
G1 X-27.045 Y55.312 E6.06523
G1 X-27.512 Y54.676 E6.10459
G1 X-27.913 Y53.996 E6.14398
G1 X-28.243 Y53.278 E6.1834
G1 X-28.498 Y52.531 E6.22278
G1 X-28.677 Y51.762 E6.26217
G1 X-28.777 Y50.978 E6.3016
G1 X-28.8 Y50.383 E6.33131
G1 X-28.8 Y32.727 E7.21217
G1 X-28.957 Y32.669 E7.22052
G1 X-29.666 Y32.321 E7.25992
G1 X-30.337 Y31.903 E7.29936
G1 X-30.961 Y31.42 E7.33873
G1 X-31.398 Y31.015 E7.36846
G1 X-31.515 Y30.898 E7.37671
G1 X-32.045 Y30.312 E7.41613
G1 X-32.512 Y29.676 E7.4555
G1 X-32.913 Y28.996 E7.49488
G1 X-33.243 Y28.278 E7.53431
G1 X-33.498 Y27.531 E7.57369
G1 X-33.677 Y26.762 E7.61308
G1 X-33.777 Y25.978 E7.65251
G1 X-33.8 Y25.383 E7.68221
G1 X-33.8 Y23.3 E7.78614
G1 X-40.883 Y23.3 E8.13951
G1 X-41.672 Y23.26 E8.17892
G1 X-42.452 Y23.141 E8.21829
G1 X-43.217 Y22.943 E8.25771
G1 X-43.957 Y22.669 E8.29708
G1 X-44.666 Y22.321 E8.33648
G1 X-45.337 Y21.903 E8.37592
G1 X-45.961 Y21.42 E8.41529
G1 X-46.398 Y21.015 E8.44502
G1 X-46.515 Y20.898 E8.45327
G1 X-47.045 Y20.312 E8.49269
G1 X-47.512 Y19.676 E8.53206
G1 X-47.913 Y18.996 E8.57144
G1 X-48.243 Y18.278 E8.61086
G1 X-48.498 Y17.531 E8.65024
G1 X-48.677 Y16.762 E8.68963
G1 X-48.777 Y15.978 E8.72907
G1 X-48.8 Y15.383 E8.75877
G1 X-48.8 Y5.617 E9.246
G1 X-48.76 Y4.828 E9.28541
G1 X-48.641 Y4.048 E9.32478
G1 X-48.443 Y3.283 E9.3642
G1 X-48.169 Y2.543 E9.40357
G1 X-47.821 Y1.834 E9.44297
G1 X-47.403 Y1.163 E9.48241
G1 X-46.92 Y0.539 E9.52178
G1 X-46.515 Y0.102 E9.55151
G1 X-46.398 Y-0.015 E9.55976
G1 X-45.812 Y-.545 E9.59918
G1 X-45.176 Y-1.012 E9.63855
G1 X-44.496 Y-1.413 E9.67793
G1 X-43.778 Y-1.743 E9.71736
G1 X-43.031 Y-1.998 E9.75674
G1 X-42.262 Y-2.177 E9.79613
G1 X-41.8 Y-2.236 E9.81936
G1 X-41.8 Y-54.76 E12.4398
G1 X-42.452 Y-54.859 E12.4727
G1 X-43.217 Y-55.057 E12.51212
G1 X-43.957 Y-55.331 E12.55149
G1 X-44.666 Y-55.679 E12.59089
G1 X-45.337 Y-56.097 E12.63033
G1 X-45.961 Y-56.58 E12.6697
G1 X-46.398 Y-56.985 E12.69943
G1 X-46.515 Y-57.102 E12.70768
G1 X-47.045 Y-57.688 E12.7471
G1 X-47.512 Y-58.324 E12.78647
G1 X-47.913 Y-59.004 E12.82585
G1 X-48.243 Y-59.722 E12.86527
G1 X-48.498 Y-60.469 E12.90465
G1 X-48.677 Y-61.238 E12.94405
G1 X-48.777 Y-62.022 E12.98348
G1 X-48.8 Y-62.617 E13.01318
G1 X-48.8 Y-69.383 E13.35074
G1 X-48.76 Y-70.172 E13.39015
G1 X-48.641 Y-70.952 E13.42952
G1 X-48.443 Y-71.717 E13.46894
G1 X-48.169 Y-72.457 E13.50831
G1 X-47.821 Y-73.166 E13.54771
G1 X-47.403 Y-73.837 E13.58715
G1 X-46.92 Y-74.461 E13.62652
G1 X-46.515 Y-74.898 E13.65625
G1 X-46.398 Y-75.015 E13.6645
G1 X-45.812 Y-75.545 E13.70392
G1 X-45.176 Y-76.012 E13.74329
G1 X-44.496 Y-76.413 E13.78267
G1 X-43.778 Y-76.743 E13.8221
G1 X-43.031 Y-76.998 E13.86148
G1 X-42.262 Y-77.177 E13.90087
G1 X-41.478 Y-77.277 E13.9403
G1 X-40.883 Y-77.3 E13.97
G1 X40.883 Y-77.3 E18.04933
G1 X41.672 Y-77.26 E18.08874
G1 X42.452 Y-77.141 E18.1281
G1 X43.217 Y-76.943 E18.16753
G1 X43.957 Y-76.669 E18.2069
G1 X44.666 Y-76.321 E18.2463
G1 X45.337 Y-75.903 E18.28574
G1 X45.961 Y-75.42 E18.32511
G1 X46.398 Y-75.015 E18.35483
G1 X46.515 Y-74.898 E18.36309
G1 X47.045 Y-74.312 E18.40251
G1 X47.512 Y-73.676 E18.44187
G1 X47.913 Y-72.996 E18.48126
G1 X48.243 Y-72.278 E18.52068
G1 X48.498 Y-71.531 E18.56006
G1 X48.677 Y-70.762 E18.59945
G1 X48.777 Y-69.978 E18.63888
G1 X48.8 Y-69.383 E18.66859
G1 X48.8 Y-62.617 E19.00615
G1 X48.76 Y-61.828 E19.04556
G1 X48.641 Y-61.048 E19.08493
G1 X48.443 Y-60.283 E19.12435
G1 X48.169 Y-59.543 E19.16372
G1 X47.821 Y-58.834 E19.20312
G1 X47.403 Y-58.163 E19.24256
G1 X46.92 Y-57.539 E19.28193
G1 X46.515 Y-57.102 E19.31166
G1 X46.398 Y-56.985 E19.31991
G1 X45.812 Y-56.455 E19.35933
G1 X45.176 Y-55.988 E19.39869
G1 X44.496 Y-55.587 E19.43808
G1 X43.778 Y-55.257 E19.4775
G1 X43.031 Y-55.002 E19.51688
G1 X42.262 Y-54.823 E19.55627
G1 X41.8 Y-54.764 E19.57951
G1 X41.8 Y-2.24 E22.19994
G1 X42.452 Y-2.141 E22.23284
G1 X43.217 Y-1.943 E22.27227
G1 X43.957 Y-1.669 E22.31164
G1 X44.666 Y-1.321 E22.35104
G1 X45.337 Y-.903 E22.39048
G1 X45.961 Y-.42 E22.42985
G1 X46.398 Y-0.015 E22.45957
G1 X46.515 Y0.102 E22.46783
G1 X47.045 Y0.688 E22.50725
G1 X47.512 Y1.324 E22.54661
G1 X47.913 Y2.004 E22.586
G1 X48.243 Y2.722 E22.62542
G1 X48.498 Y3.469 E22.6648
G1 X48.677 Y4.238 E22.70419
G1 X48.777 Y5.022 E22.74362
G1 X48.8 Y5.617 E22.77333
G1 X48.8 Y15.383 E23.26056
G1 X48.76 Y16.172 E23.29997
G1 X48.641 Y16.952 E23.33934
G1 X48.443 Y17.717 E23.37876
G1 X48.169 Y18.457 E23.41813
G1 X47.821 Y19.166 E23.45753
G1 X47.403 Y19.837 E23.49697
G1 X46.92 Y20.461 E23.53634
G1 X46.515 Y20.898 E23.56607
G1 X46.398 Y21.015 E23.57432
G1 X45.812 Y21.545 E23.61374
G1 X45.176 Y22.012 E23.65311
G1 X44.496 Y22.413 E23.69249
G1 X43.778 Y22.743 E23.73191
G1 X43.031 Y22.998 E23.77129
G1 X42.262 Y23.177 E23.81068
G1 X41.478 Y23.277 E23.85012
G1 X40.883 Y23.3 E23.87982
G1 X33.8 Y23.3 E24.23319
G0 F3600 X33.4 Y22.9
G1 F1800 X33.4 Y25.383 E24.35707
G1 X33.36 Y26.151 E24.39544
G1 X33.241 Y26.911 E24.43382
G1 X33.043 Y27.654 E24.47218
G1 X32.769 Y28.373 E24.51057
G1 X32.422 Y29.059 E24.54892
G1 X32.006 Y29.706 E24.5873
G1 X31.525 Y30.306 E24.62566
G1 X31.116 Y30.733 E24.65516
G1 X30.544 Y31.247 E24.69353
G1 X29.922 Y31.7 E24.73192
G1 X29.257 Y32.086 E24.77028
G1 X28.555 Y32.401 E24.80867
G1 X28.4 Y32.452 E24.81681
G1 X28.4 Y50.383 E25.71139
G1 X28.36 Y51.151 E25.74976
G1 X28.241 Y51.911 E25.78813
G1 X28.043 Y52.654 E25.8265
G1 X27.769 Y53.373 E25.86488
G1 X27.422 Y54.059 E25.90324
G1 X27.006 Y54.706 E25.94161
G1 X26.525 Y55.306 E25.97998
G1 X26.116 Y55.733 E26.00948
G1 X25.544 Y56.247 E26.04784
G1 X24.922 Y56.7 E26.08623
G1 X24.257 Y57.086 E26.12459
G1 X23.555 Y57.401 E26.16298
G1 X22.824 Y57.641 E26.20137
G1 X22.073 Y57.804 E26.23971
G1 X21.308 Y57.888 E26.2781
G1 X20.883 Y57.9 E26.29931
G1 X14.4 Y57.9 E26.62275
G1 X14.4 Y69.383 E27.19564
G1 X14.36 Y70.151 E27.23401
G1 X14.241 Y70.911 E27.27239
G1 X14.043 Y71.654 E27.31075
G1 X13.769 Y72.373 E27.34914
G1 X13.422 Y73.059 E27.38749
G1 X13.006 Y73.706 E27.42587
G1 X12.525 Y74.306 E27.46423
G1 X12.116 Y74.733 E27.49373
G1 X11.544 Y75.247 E27.5321
G1 X10.922 Y75.7 E27.57049
G1 X10.257 Y76.086 E27.60885
G1 X9.555 Y76.401 E27.64723
G1 X8.824 Y76.641 E27.68562
G1 X8.073 Y76.804 E27.72396
G1 X7.308 Y76.888 E27.76235
G1 X6.883 Y76.9 E27.78357
G1 X-6.883 Y76.9 E28.47035
G1 X-7.651 Y76.86 E28.50872
G1 X-8.411 Y76.741 E28.5471
G1 X-9.154 Y76.543 E28.58546
G1 X-9.873 Y76.269 E28.62385
G1 X-10.559 Y75.922 E28.6622
G1 X-11.206 Y75.506 E28.70058
G1 X-11.806 Y75.025 E28.73895
G1 X-12.233 Y74.616 E28.76844
G1 X-12.747 Y74.044 E28.80681
G1 X-13.2 Y73.422 E28.8452
G1 X-13.586 Y72.757 E28.88356
G1 X-13.901 Y72.055 E28.92195
G1 X-14.141 Y71.324 E28.96033
G1 X-14.304 Y70.573 E28.99867
G1 X-14.388 Y69.808 E29.03707
G1 X-14.4 Y69.383 E29.05828
G1 X-14.4 Y57.9 E29.63117
G1 X-20.883 Y57.9 E29.95461
G1 X-21.651 Y57.86 E29.99297
G1 X-22.411 Y57.741 E30.03135
G1 X-23.154 Y57.543 E30.06972
G1 X-23.873 Y57.269 E30.1081
G1 X-24.559 Y56.922 E30.14646
G1 X-25.206 Y56.506 E30.18483
G1 X-25.806 Y56.025 E30.2232
G1 X-26.233 Y55.616 E30.2527
G1 X-26.747 Y55.044 E30.29106
G1 X-27.2 Y54.422 E30.32945
G1 X-27.586 Y53.757 E30.36781
G1 X-27.901 Y53.055 E30.4062
G1 X-28.141 Y52.324 E30.44459
G1 X-28.304 Y51.573 E30.48293
G1 X-28.388 Y50.808 E30.52132
G1 X-28.4 Y50.383 E30.54253
G1 X-28.4 Y32.449 E31.43726
G1 X-28.873 Y32.269 E31.46251
G1 X-29.559 Y31.922 E31.50087
G1 X-30.206 Y31.506 E31.53924
G1 X-30.806 Y31.025 E31.57761
G1 X-31.233 Y30.616 E31.60711
G1 X-31.747 Y30.044 E31.64547
G1 X-32.2 Y29.422 E31.68386
G1 X-32.586 Y28.757 E31.72222
G1 X-32.901 Y28.055 E31.76061
G1 X-33.141 Y27.324 E31.799
G1 X-33.304 Y26.573 E31.83734
G1 X-33.388 Y25.808 E31.87573
G1 X-33.4 Y25.383 E31.89694
G1 X-33.4 Y22.9 E32.02082
G1 X-40.883 Y22.9 E32.39415
G1 X-41.651 Y22.86 E32.43252
G1 X-42.411 Y22.741 E32.47089
G1 X-43.154 Y22.543 E32.50926
G1 X-43.873 Y22.269 E32.54764
G1 X-44.559 Y21.922 E32.586
G1 X-45.206 Y21.506 E32.62437
G1 X-45.806 Y21.025 E32.66274
G1 X-46.233 Y20.616 E32.69224
G1 X-46.747 Y20.044 E32.7306
G1 X-47.2 Y19.422 E32.76899
G1 X-47.586 Y18.757 E32.80735
G1 X-47.901 Y18.055 E32.84574
G1 X-48.141 Y17.324 E32.88413
G1 X-48.304 Y16.573 E32.92247
G1 X-48.388 Y15.808 E32.96086
G1 X-48.4 Y15.383 E32.98207
G1 X-48.4 Y5.617 E33.4693
G1 X-48.36 Y4.849 E33.50767
G1 X-48.241 Y4.089 E33.54605
G1 X-48.043 Y3.346 E33.58441
G1 X-47.769 Y2.627 E33.6228
G1 X-47.422 Y1.941 E33.66115
G1 X-47.006 Y1.294 E33.69953
G1 X-46.525 Y0.694 E33.73789
G1 X-46.116 Y0.267 E33.76739
G1 X-45.544 Y-.247 E33.80576
G1 X-44.922 Y-.7 E33.84415
G1 X-44.257 Y-1.086 E33.88251
G1 X-43.555 Y-1.401 E33.9209
G1 X-42.824 Y-1.641 E33.95928
G1 X-42.073 Y-1.804 E33.99762
G1 X-41.4 Y-1.878 E34.0314
G1 X-41.4 Y-55.127 E36.688
G1 X-41.651 Y-55.14 E36.70054
G1 X-42.411 Y-55.259 E36.73892
G1 X-43.154 Y-55.457 E36.77728
G1 X-43.873 Y-55.731 E36.81567
G1 X-44.559 Y-56.078 E36.85402
G1 X-45.206 Y-56.494 E36.8924
G1 X-45.806 Y-56.975 E36.93076
G1 X-46.233 Y-57.384 E36.96026
G1 X-46.747 Y-57.956 E36.99863
G1 X-47.2 Y-58.578 E37.03702
G1 X-47.586 Y-59.243 E37.07538
G1 X-47.901 Y-59.945 E37.11377
G1 X-48.141 Y-60.676 E37.15215
G1 X-48.304 Y-61.427 E37.19049
G1 X-48.388 Y-62.192 E37.22889
G1 X-48.4 Y-62.617 E37.2501
G1 X-48.4 Y-69.383 E37.58766
G1 X-48.36 Y-70.151 E37.62602
G1 X-48.241 Y-70.911 E37.6644
G1 X-48.043 Y-71.654 E37.70276
G1 X-47.769 Y-72.373 E37.74115
G1 X-47.422 Y-73.059 E37.77951
G1 X-47.006 Y-73.706 E37.81788
G1 X-46.525 Y-74.306 E37.85625
G1 X-46.116 Y-74.733 E37.88575
G1 X-45.544 Y-75.247 E37.92411
G1 X-44.922 Y-75.7 E37.9625
G1 X-44.257 Y-76.086 E38.00086
G1 X-43.555 Y-76.401 E38.03925
G1 X-42.824 Y-76.641 E38.07763
G1 X-42.073 Y-76.804 E38.11597
G1 X-41.308 Y-76.888 E38.15437
G1 X-40.883 Y-76.9 E38.17558
G1 X40.883 Y-76.9 E42.2549
G1 X41.651 Y-76.86 E42.29327
G1 X42.411 Y-76.741 E42.33165
G1 X43.154 Y-76.543 E42.37001
G1 X43.873 Y-76.269 E42.4084
G1 X44.559 Y-75.922 E42.44675
G1 X45.206 Y-75.506 E42.48513
G1 X45.806 Y-75.025 E42.52349
G1 X46.233 Y-74.616 E42.55299
G1 X46.747 Y-74.044 E42.59136
G1 X47.2 Y-73.422 E42.62975
G1 X47.586 Y-72.757 E42.66811
G1 X47.901 Y-72.055 E42.7065
G1 X48.141 Y-71.324 E42.74488
G1 X48.304 Y-70.573 E42.78322
G1 X48.388 Y-69.808 E42.82162
G1 X48.4 Y-69.383 E42.84283
G1 X48.4 Y-62.617 E43.18039
G1 X48.36 Y-61.849 E43.21875
G1 X48.241 Y-61.089 E43.25713
G1 X48.043 Y-60.346 E43.29549
G1 X47.769 Y-59.627 E43.33388
G1 X47.422 Y-58.941 E43.37224
G1 X47.006 Y-58.294 E43.41061
G1 X46.525 Y-57.694 E43.44898
G1 X46.116 Y-57.267 E43.47848
G1 X45.544 Y-56.753 E43.51684
G1 X44.922 Y-56.3 E43.55523
G1 X44.257 Y-55.914 E43.59359
G1 X43.555 Y-55.599 E43.63198
G1 X42.824 Y-55.359 E43.67037
G1 X42.073 Y-55.196 E43.70871
G1 X41.4 Y-55.122 E43.74248
G1 X41.4 Y-1.873 E46.39909
G1 X41.651 Y-1.86 E46.41163
G1 X42.411 Y-1.741 E46.45
G1 X43.154 Y-1.543 E46.48837
G1 X43.873 Y-1.269 E46.52675
G1 X44.559 Y-.922 E46.56511
G1 X45.206 Y-.506 E46.60348
G1 X45.806 Y-0.025 E46.64185
G1 X46.233 Y0.384 E46.67135
G1 X46.747 Y0.956 E46.70971
G1 X47.2 Y1.578 E46.7481
G1 X47.586 Y2.243 E46.78646
G1 X47.901 Y2.945 E46.82485
G1 X48.141 Y3.676 E46.86324
G1 X48.304 Y4.427 E46.90158
G1 X48.388 Y5.192 E46.93997
G1 X48.4 Y5.617 E46.96118
G1 X48.4 Y15.383 E47.44841
G1 X48.36 Y16.151 E47.48678
G1 X48.241 Y16.911 E47.52516
G1 X48.043 Y17.654 E47.56352
G1 X47.769 Y18.373 E47.60191
G1 X47.422 Y19.059 E47.64026
G1 X47.006 Y19.706 E47.67864
G1 X46.525 Y20.306 E47.717
G1 X46.116 Y20.733 E47.7465
G1 X45.544 Y21.247 E47.78487
G1 X44.922 Y21.7 E47.82326
G1 X44.257 Y22.086 E47.86162
G1 X43.555 Y22.401 E47.90001
G1 X42.824 Y22.641 E47.93839
G1 X42.073 Y22.804 E47.97673
G1 X41.308 Y22.888 E48.01513
G1 X40.883 Y22.9 E48.03634
G1 X33.4 Y22.9 E48.40967
G0 F3600 X33 Y22.5
G1 F1800 X33 Y25.383 E48.5535
G1 X32.96 Y26.13 E48.59082
G1 X32.841 Y26.868 E48.62812
G1 X32.643 Y27.59 E48.66547
G1 X32.37 Y28.286 E48.70276
G1 X32.023 Y28.949 E48.7401
G1 X31.608 Y29.572 E48.77744
G1 X30.95 Y30.333 E48.82764
G1 X30.833 Y30.45 E48.83589
G1 X30.276 Y30.95 E48.87323
G1 X29.67 Y31.387 E48.91051
G1 X29.02 Y31.758 E48.94785
G1 X28.334 Y32.057 E48.98518
G1 X28 Y32.162 E49.00265
G1 X28 Y50.383 E49.9117
G1 X27.96 Y51.13 E49.94902
G1 X27.841 Y51.868 E49.98631
G1 X27.643 Y52.59 E50.02366
G1 X27.37 Y53.286 E50.06096
G1 X27.023 Y53.949 E50.0983
G1 X26.608 Y54.572 E50.13564
G1 X25.95 Y55.333 E50.18583
G1 X25.833 Y55.45 E50.19409
G1 X25.276 Y55.95 E50.23143
G1 X24.67 Y56.387 E50.26871
G1 X24.02 Y56.758 E50.30605
G1 X23.334 Y57.057 E50.34338
G1 X22.62 Y57.281 E50.38071
G1 X21.887 Y57.428 E50.41801
G1 X20.883 Y57.5 E50.46823
G1 X14 Y57.5 E50.81162
G1 X14 Y69.383 E51.40447
G1 X13.96 Y70.13 E51.44179
G1 X13.841 Y70.868 E51.47909
G1 X13.643 Y71.59 E51.51644
G1 X13.37 Y72.286 E51.55373
G1 X13.023 Y72.949 E51.59107
G1 X12.608 Y73.572 E51.62841
G1 X11.95 Y74.333 E51.67861
G1 X11.833 Y74.45 E51.68686
G1 X11.276 Y74.95 E51.7242
G1 X10.67 Y75.387 E51.76148
G1 X10.02 Y75.758 E51.79882
G1 X9.334 Y76.057 E51.83615
G1 X8.62 Y76.281 E51.87348
G1 X7.887 Y76.428 E51.91078
G1 X6.883 Y76.5 E51.961
G1 X-6.883 Y76.5 E52.64779
G1 X-7.63 Y76.46 E52.68511
G1 X-8.368 Y76.341 E52.72241
G1 X-9.09 Y76.143 E52.75976
G1 X-9.786 Y75.87 E52.79706
G1 X-10.449 Y75.523 E52.83439
G1 X-11.072 Y75.108 E52.87174
G1 X-11.833 Y74.45 E52.92193
G1 X-11.95 Y74.333 E52.93018
G1 X-12.45 Y73.776 E52.96752
G1 X-12.887 Y73.17 E53.0048
G1 X-13.258 Y72.52 E53.04214
G1 X-13.557 Y71.834 E53.07947
G1 X-13.781 Y71.12 E53.1168
