;FLAVOR:Marlin
;TIME:16441
;Filament used: 23.9237m
;Layer height: 0.3
;MINX:-105.8
;MINY:-90.766
;MINZ:0.3
;MAXX:95.534
;MAXY:65.3
;MAXZ:15.9
;Generated with Cura_SteamEngine 4.7.1
M140 S50
M105
M190 S50
M104 S250
M105
M109 S250
M82 ;absolute extrusion mode
G28 ;Home
G1 Z15.0 F6000 ;Move the platform down 15mm
;Prime the extruder
G92 E0
G1 F200 E3
G92 E0
G92 E0
G92 E0
G1 F1500 E-6.5
;LAYER_COUNT:53
;LAYER:0
M107
G0 F3600 X-1.516 Y-7.834 Z0.3
;TYPE:SKIRT
G1 F1500 E0
G1 F1800 X-2.297 Y-7.717 E0.0394
G1 X-2.909 Y-7.681 E0.06998
G1 X-10.991 Y-7.526 E0.47327
G1 X-10.952 Y-5.403 E0.57921
G1 X-10.949 Y-5.327 E0.583
G1 X-10.913 Y-3.442 E0.67706
G1 X-10.938 Y-2.653 E0.71644
G1 X-11.043 Y-1.87 E0.75586
G1 X-11.226 Y-1.102 E0.79525
G1 X-11.486 Y-.356 E0.83466
G1 X-11.82 Y0.359 E0.87403
G1 X-12.225 Y1.038 E0.91348
G1 X-12.696 Y1.671 E0.95284
G1 X-13.08 Y2.103 E0.98168
G1 X-13.194 Y2.222 E0.9899
G1 X-13.768 Y2.764 E1.02928
G1 X-14.394 Y3.245 E1.06867
G1 X-15.066 Y3.66 E1.10807
G1 X-15.776 Y4.005 E1.14746
G1 X-16.518 Y4.277 E1.18688
G1 X-17.283 Y4.472 E1.22627
G1 X-18.064 Y4.589 E1.26567
G1 X-18.676 Y4.625 E1.29625
G1 X-48.768 Y5.203 E2.79783
G1 X-48.747 Y5.651 E2.8202
G1 X-48.747 Y9.543 E3.01437
G1 X-48.787 Y10.332 E3.05379
G1 X-48.906 Y11.112 E3.09315
G1 X-49.104 Y11.877 E3.13258
G1 X-49.378 Y12.617 E3.17195
G1 X-49.726 Y13.326 E3.21135
G1 X-50.144 Y13.997 E3.25079
G1 X-50.627 Y14.621 E3.29016
G1 X-51.032 Y15.058 E3.31988
G1 X-51.149 Y15.175 E3.32814
G1 X-51.687 Y15.662 E3.36434
G1 X-51.586 Y15.74 E3.37071
G1 X-51.149 Y16.145 E3.40043
G1 X-51.032 Y16.262 E3.40869
G1 X-50.502 Y16.848 E3.44811
G1 X-50.035 Y17.484 E3.48747
G1 X-49.634 Y18.164 E3.52686
G1 X-49.304 Y18.882 E3.56628
G1 X-49.049 Y19.629 E3.60566
G1 X-48.87 Y20.398 E3.64505
G1 X-48.77 Y21.182 E3.68448
G1 X-48.747 Y21.777 E3.71419
G1 X-48.747 Y25.666 E3.90821
G1 X-48.78 Y26.383 E3.94402
G1 X-48.855 Y27.196 E3.98476
G1 X-48.92 Y27.715 E4.01085
G1 X-49.123 Y28.632 E4.05771
G1 X-49.344 Y29.409 E4.09801
G1 X-49.598 Y30.157 E4.13742
G1 X-49.864 Y30.752 E4.16994
G1 X-50.233 Y31.493 E4.21124
G1 X-50.611 Y32.166 E4.24975
G1 X-50.994 Y32.724 E4.28351
G1 X-51.485 Y33.376 E4.32423
G1 X-52.014 Y34.006 E4.36527
G1 X-52.47 Y34.459 E4.39734
G1 X-53.069 Y35.006 E4.43781
G1 X-53.679 Y35.508 E4.47722
G1 X-54.22 Y35.876 E4.50987
G1 X-54.925 Y36.313 E4.55125
G1 X-55.562 Y36.668 E4.58763
G1 X-56.227 Y36.962 E4.62391
G1 X-56.979 Y37.254 E4.66415
G1 X-57.728 Y37.502 E4.70351
G1 X-58.349 Y37.647 E4.73533
G1 X-59.172 Y37.803 E4.77712
G1 X-59.827 Y37.898 E4.81014
G1 X-60.644 Y37.941 E4.85096
G1 X-61.449 Y37.941 E4.89112
G1 X-62.285 Y37.896 E4.93289
G1 X-62.903 Y37.806 E4.96404
G1 X-63.71 Y37.655 E5.005
G1 X-64.618 Y37.428 E5.0517
G1 X-65.114 Y37.254 E5.07792
G1 X-65.866 Y36.962 E5.11817
G1 X-66.547 Y36.66 E5.15534
G1 X-67.168 Y36.313 E5.19083
G1 X-67.873 Y35.876 E5.23221
G1 X-68.523 Y35.426 E5.27165
G1 X-69.025 Y35.005 E5.30434
G1 X-69.627 Y34.455 E5.34502
G1 X-70.082 Y34.003 E5.37701
G1 X-70.539 Y33.46 E5.41242
G1 X-75.543 Y33.46 E5.66207
G1 X-76.039 Y33.444 E5.68683
G1 X-77.309 Y33.363 E5.75032
G1 X-78.283 Y33.239 E5.79931
G1 X-79.508 Y33.004 E5.86154
G1 X-80.447 Y32.763 E5.9099
G1 X-81.639 Y32.376 E5.97243
G1 X-82.554 Y32.013 E6.02154
G1 X-83.694 Y31.476 E6.08441
G1 X-84.558 Y31 E6.13362
G1 X-85.617 Y30.326 E6.19625
G1 X-86.405 Y29.753 E6.24485
G1 X-87.372 Y28.952 E6.3075
G1 X-88.089 Y28.277 E6.35663
G1 X-88.947 Y27.361 E6.41925
G1 X-89.567 Y26.61 E6.46783
G1 X-90.308 Y25.589 E6.53077
G1 X-90.83 Y24.766 E6.57939
G1 X-91.431 Y23.673 E6.64162
G1 X-91.852 Y22.778 E6.69097
G1 X-92.314 Y21.607 E6.75377
G1 X-92.614 Y20.681 E6.80233
G1 X-92.927 Y19.46 E6.86522
G1 X-93.11 Y18.499 E6.91403
G1 X-93.266 Y17.262 E6.97623
G1 X-93.327 Y16.28 E7.02531
G1 X-93.326 Y15.018 E7.08828
G1 X-93.264 Y14.046 E7.13687
G1 X-93.109 Y12.82 E7.19852
G1 X-92.926 Y11.857 E7.24742
G1 X-92.609 Y10.623 E7.31099
G1 X-92.308 Y9.697 E7.35957
G1 X-91.85 Y8.538 E7.42174
G1 X-91.431 Y7.647 E7.47086
G1 X-90.83 Y6.554 E7.53309
G1 X-90.308 Y5.731 E7.58171
G1 X-89.567 Y4.71 E7.64465
G1 X-88.941 Y3.953 E7.69366
G1 X-88.069 Y3.024 E7.75723
G1 X-87.349 Y2.348 E7.8065
G1 X-87.19 Y2.216 E7.81681
G1 X-87.534 Y1.659 E7.84947
G1 X-87.879 Y0.949 E7.88885
G1 X-88.151 Y0.207 E7.92828
G1 X-88.346 Y-.558 E7.96767
G1 X-88.463 Y-1.339 E8.00707
G1 X-88.499 Y-1.951 E8.03765
G1 X-88.578 Y-6.034 E8.24139
G1 X-96.176 Y-5.889 E8.62053
G1 X-96.632 Y-5.879 E8.64328
G1 X-97.421 Y-5.901 E8.68266
G1 X-98.204 Y-6.003 E8.72205
G1 X-98.973 Y-6.183 E8.76146
G1 X-99.72 Y-6.44 E8.80087
G1 X-100.436 Y-6.772 E8.84024
G1 X-101.116 Y-7.174 E8.87965
G1 X-101.752 Y-7.643 E8.91908
G1 X-102.205 Y-8.045 E8.94929
G1 X-102.324 Y-8.159 E8.95752
G1 X-102.866 Y-8.733 E8.9969
G1 X-103.347 Y-9.359 E9.03629
G1 X-103.762 Y-10.031 E9.07569
G1 X-104.107 Y-10.741 E9.11507
G1 X-104.379 Y-11.483 E9.1545
G1 X-104.574 Y-12.248 E9.19389
G1 X-104.691 Y-13.029 E9.23329
G1 X-104.727 Y-13.641 E9.26387
G1 X-105.8 Y-69.398 E12.04612
G1 X-105.775 Y-70.187 E12.0855
G1 X-105.67 Y-70.97 E12.12491
G1 X-105.487 Y-71.738 E12.1643
G1 X-105.227 Y-72.484 E12.20371
G1 X-104.894 Y-73.199 E12.24307
G1 X-104.489 Y-73.878 E12.28251
G1 X-104.018 Y-74.511 E12.32187
G1 X-103.633 Y-74.944 E12.35078
G1 X-103.519 Y-75.063 E12.359
G1 X-102.945 Y-75.605 E12.39839
G1 X-102.319 Y-76.086 E12.43777
G1 X-101.647 Y-76.501 E12.47718
G1 X-100.937 Y-76.846 E12.51656
G1 X-100.195 Y-77.118 E12.55599
G1 X-99.43 Y-77.313 E12.59537
G1 X-98.649 Y-77.43 E12.63477
G1 X-98.037 Y-77.466 E12.66536
G1 X-79.956 Y-77.813 E13.56759
G1 X-80.035 Y-81.895 E13.77128
G1 X-80.01 Y-82.684 E13.81066
G1 X-79.905 Y-83.467 E13.85008
G1 X-79.722 Y-84.235 E13.88946
G1 X-79.462 Y-84.981 E13.92888
G1 X-79.129 Y-85.696 E13.96823
G1 X-78.724 Y-86.374 E14.00763
G1 X-78.253 Y-87.008 E14.04703
G1 X-77.868 Y-87.441 E14.07594
G1 X-77.754 Y-87.56 E14.08416
G1 X-77.18 Y-88.102 E14.12355
G1 X-76.554 Y-88.583 E14.16293
G1 X-75.882 Y-88.998 E14.20234
G1 X-75.172 Y-89.343 E14.24172
G1 X-74.43 Y-89.615 E14.28115
G1 X-73.665 Y-89.81 E14.32053
G1 X-72.884 Y-89.927 E14.35993
G1 X-72.272 Y-89.963 E14.39052
G1 X-30.513 Y-90.766 E16.47427
G1 X-29.724 Y-90.741 E16.51365
G1 X-28.941 Y-90.636 E16.55307
G1 X-28.173 Y-90.453 E16.59245
G1 X-27.427 Y-90.193 E16.63187
G1 X-26.711 Y-89.859 E16.67128
G1 X-26.033 Y-89.455 E16.71066
G1 X-25.399 Y-88.984 E16.75006
G1 X-24.967 Y-88.599 E16.77893
G1 X-24.848 Y-88.485 E16.78715
G1 X-24.306 Y-87.911 E16.82654
G1 X-23.825 Y-87.285 E16.86593
G1 X-23.41 Y-86.613 E16.90533
G1 X-23.065 Y-85.903 E16.94471
G1 X-22.793 Y-85.161 E16.98414
G1 X-22.598 Y-84.396 E17.02353
G1 X-22.481 Y-83.615 E17.06293
G1 X-22.445 Y-83.003 E17.09351
G1 X-22.366 Y-78.92 E17.29725
G1 X-5.145 Y-79.249 E18.15657
G1 X-4.3 Y-79.267 E18.19873
G1 X-3.511 Y-79.244 E18.23811
G1 X-2.728 Y-79.141 E18.27752
G1 X-1.96 Y-78.959 E18.31689
G1 X-1.214 Y-78.7 E18.35629
G1 X-.497 Y-78.368 E18.39571
G1 X0.182 Y-77.964 E18.43513
G1 X0.816 Y-77.494 E18.4745
G1 X1.259 Y-77.101 E18.50405
G1 X1.378 Y-76.987 E18.51227
G1 X1.92 Y-76.413 E18.55165
G1 X2.401 Y-75.787 E18.59104
G1 X2.816 Y-75.115 E18.63044
G1 X3.161 Y-74.405 E18.66983
G1 X3.433 Y-73.663 E18.70925
G1 X3.628 Y-72.898 E18.74864
G1 X3.745 Y-72.117 E18.78804
G1 X3.781 Y-71.505 E18.81862
G1 X4.48 Y-35.178 E20.63132
G1 X5.256 Y-35.277 E20.67035
G1 X5.851 Y-35.3 E20.70006
G1 X12.934 Y-35.3 E21.05343
G1 X12.934 Y-37.383 E21.15735
G1 X12.974 Y-38.172 E21.19676
G1 X13.093 Y-38.952 E21.23613
G1 X13.291 Y-39.717 E21.27555
G1 X13.565 Y-40.457 E21.31492
G1 X13.913 Y-41.166 E21.35432
G1 X14.331 Y-41.837 E21.39377
G1 X14.814 Y-42.461 E21.43313
G1 X15.219 Y-42.898 E21.46286
G1 X15.336 Y-43.015 E21.47111
G1 X15.922 Y-43.545 E21.51053
G1 X16.558 Y-44.012 E21.5499
G1 X17.238 Y-44.413 E21.58928
G1 X17.934 Y-44.733 E21.6275
G1 X17.934 Y-62.383 E22.50806
G1 X17.974 Y-63.172 E22.54748
G1 X18.093 Y-63.952 E22.58684
G1 X18.291 Y-64.717 E22.62627
G1 X18.565 Y-65.457 E22.66563
G1 X18.913 Y-66.166 E22.70504
G1 X19.331 Y-66.837 E22.74448
G1 X19.814 Y-67.461 E22.78385
G1 X20.219 Y-67.898 E22.81357
G1 X20.336 Y-68.015 E22.82183
G1 X20.922 Y-68.545 E22.86125
G1 X21.558 Y-69.012 E22.90061
G1 X22.238 Y-69.413 E22.94
G1 X22.956 Y-69.743 E22.97942
G1 X23.703 Y-69.998 E23.0188
G1 X24.472 Y-70.177 E23.05819
G1 X25.256 Y-70.277 E23.09762
G1 X25.851 Y-70.3 E23.12733
G1 X31.734 Y-70.3 E23.42083
G1 X31.934 Y-70.29 E23.43082
G1 X31.934 Y-81.383 E23.98425
G1 X31.974 Y-82.172 E24.02367
G1 X32.093 Y-82.952 E24.06303
G1 X32.291 Y-83.717 E24.10246
G1 X32.565 Y-84.457 E24.14182
G1 X32.913 Y-85.166 E24.18123
G1 X33.331 Y-85.837 E24.22067
G1 X33.814 Y-86.461 E24.26004
G1 X34.219 Y-86.898 E24.28976
G1 X34.336 Y-87.015 E24.29802
G1 X34.922 Y-87.545 E24.33744
G1 X35.558 Y-88.012 E24.3768
G1 X36.238 Y-88.413 E24.41619
G1 X36.956 Y-88.743 E24.45561
G1 X37.703 Y-88.998 E24.49499
G1 X38.472 Y-89.177 E24.53438
G1 X39.256 Y-89.277 E24.57381
G1 X39.851 Y-89.3 E24.60352
G1 X53.617 Y-89.3 E25.29031
G1 X54.406 Y-89.26 E25.32972
G1 X55.186 Y-89.141 E25.36909
G1 X55.951 Y-88.943 E25.40851
G1 X56.691 Y-88.669 E25.44788
G1 X57.4 Y-88.321 E25.48728
G1 X58.071 Y-87.903 E25.52672
G1 X58.695 Y-87.42 E25.56609
G1 X59.132 Y-87.015 E25.59581
G1 X59.249 Y-86.898 E25.60407
G1 X59.779 Y-86.312 E25.64349
G1 X60.246 Y-85.676 E25.68285
G1 X60.647 Y-84.996 E25.72224
G1 X60.977 Y-84.278 E25.76166
G1 X61.232 Y-83.531 E25.80104
G1 X61.411 Y-82.762 E25.84043
G1 X61.511 Y-81.978 E25.87986
G1 X61.534 Y-81.383 E25.90957
G1 X61.534 Y-70.285 E26.46325
G1 X61.735 Y-70.3 E26.47331
G1 X67.617 Y-70.3 E26.76676
G1 X68.406 Y-70.26 E26.80618
G1 X69.186 Y-70.141 E26.84554
G1 X69.951 Y-69.943 E26.88496
G1 X70.691 Y-69.669 E26.92433
G1 X71.4 Y-69.321 E26.96374
G1 X72.071 Y-68.903 E27.00318
G1 X72.695 Y-68.42 E27.04254
G1 X73.132 Y-68.015 E27.07227
G1 X73.249 Y-67.898 E27.08052
G1 X73.779 Y-67.312 E27.11994
G1 X74.246 Y-66.676 E27.15931
G1 X74.647 Y-65.996 E27.19869
G1 X74.977 Y-65.278 E27.23812
G1 X75.232 Y-64.531 E27.2775
G1 X75.411 Y-63.762 E27.31689
G1 X75.511 Y-62.978 E27.35632
G1 X75.534 Y-62.383 E27.38603
G1 X75.534 Y-44.727 E28.26689
G1 X75.691 Y-44.669 E28.27524
G1 X76.4 Y-44.321 E28.31464
G1 X77.071 Y-43.903 E28.35408
G1 X77.695 Y-43.42 E28.39345
G1 X78.132 Y-43.015 E28.42317
G1 X78.249 Y-42.898 E28.43143
G1 X78.779 Y-42.312 E28.47085
G1 X79.246 Y-41.676 E28.51021
G1 X79.647 Y-40.996 E28.5496
G1 X79.977 Y-40.278 E28.58902
G1 X80.232 Y-39.531 E28.6284
G1 X80.411 Y-38.762 E28.66779
G1 X80.511 Y-37.978 E28.70722
G1 X80.534 Y-37.383 E28.73693
G1 X80.534 Y-35.3 E28.84085
G1 X87.617 Y-35.3 E29.19423
G1 X88.406 Y-35.26 E29.23364
G1 X89.186 Y-35.141 E29.273
G1 X89.951 Y-34.943 E29.31243
G1 X90.691 Y-34.669 E29.3518
G1 X91.4 Y-34.321 E29.3912
G1 X92.071 Y-33.903 E29.43064
G1 X92.695 Y-33.42 E29.47001
G1 X93.132 Y-33.015 E29.49973
G1 X93.249 Y-32.898 E29.50799
G1 X93.779 Y-32.312 E29.54741
G1 X94.246 Y-31.676 E29.58677
G1 X94.647 Y-30.996 E29.62616
G1 X94.977 Y-30.278 E29.66558
G1 X95.232 Y-29.531 E29.70496
G1 X95.411 Y-28.762 E29.74435
G1 X95.511 Y-27.978 E29.78378
G1 X95.534 Y-27.383 E29.81349
G1 X95.534 Y-17.617 E30.30072
G1 X95.494 Y-16.828 E30.34013
G1 X95.375 Y-16.048 E30.3795
G1 X95.177 Y-15.283 E30.41892
G1 X94.903 Y-14.543 E30.45829
G1 X94.555 Y-13.834 E30.49769
G1 X94.137 Y-13.163 E30.53713
G1 X93.654 Y-12.539 E30.5765
G1 X93.249 Y-12.102 E30.60622
G1 X93.132 Y-11.985 E30.61448
G1 X92.546 Y-11.455 E30.6539
G1 X91.91 Y-10.988 E30.69326
G1 X91.23 Y-10.587 E30.73265
G1 X90.512 Y-10.257 E30.77207
G1 X89.765 Y-10.002 E30.81145
G1 X88.996 Y-9.823 E30.85084
G1 X88.534 Y-9.764 E30.87408
G1 X88.534 Y42.76 E33.49451
G1 X89.186 Y42.859 E33.52741
G1 X89.951 Y43.057 E33.56684
G1 X90.691 Y43.331 E33.60621
G1 X91.4 Y43.679 E33.64561
G1 X92.071 Y44.097 E33.68505
G1 X92.695 Y44.58 E33.72442
G1 X93.132 Y44.985 E33.75414
G1 X93.249 Y45.102 E33.7624
G1 X93.779 Y45.688 E33.80182
G1 X94.246 Y46.324 E33.84118
G1 X94.647 Y47.004 E33.88057
G1 X94.977 Y47.722 E33.91999
G1 X95.232 Y48.469 E33.95937
G1 X95.411 Y49.238 E33.99876
G1 X95.511 Y50.022 E34.03819
G1 X95.534 Y50.617 E34.0679
G1 X95.534 Y57.383 E34.40546
G1 X95.494 Y58.172 E34.44487
G1 X95.375 Y58.952 E34.48424
G1 X95.177 Y59.717 E34.52366
G1 X94.903 Y60.457 E34.56303
G1 X94.555 Y61.166 E34.60243
G1 X94.137 Y61.837 E34.64187
G1 X93.654 Y62.461 E34.68124
G1 X93.249 Y62.898 E34.71096
G1 X93.132 Y63.015 E34.71922
G1 X92.546 Y63.545 E34.75864
G1 X91.91 Y64.012 E34.798
G1 X91.23 Y64.413 E34.83739
G1 X90.512 Y64.743 E34.87681
G1 X89.765 Y64.998 E34.91619
G1 X88.996 Y65.177 E34.95558
G1 X88.212 Y65.277 E34.99501
G1 X87.617 Y65.3 E35.02472
G1 X5.851 Y65.3 E39.10404
G1 X5.062 Y65.26 E39.14346
G1 X4.282 Y65.141 E39.18282
G1 X3.517 Y64.943 E39.22225
G1 X2.777 Y64.669 E39.26161
G1 X2.068 Y64.321 E39.30102
G1 X1.397 Y63.903 E39.34046
G1 X0.773 Y63.42 E39.37983
G1 X0.336 Y63.015 E39.40955
G1 X0.219 Y62.898 E39.41781
G1 X-.311 Y62.312 E39.45723
G1 X-.778 Y61.676 E39.49659
G1 X-1.179 Y60.996 E39.53598
G1 X-1.509 Y60.278 E39.5754
G1 X-1.764 Y59.531 E39.61478
G1 X-1.943 Y58.762 E39.65417
G1 X-2.043 Y57.978 E39.6936
G1 X-2.066 Y57.383 E39.72331
G1 X-2.066 Y50.617 E40.06086
G1 X-2.026 Y49.828 E40.10028
G1 X-1.907 Y49.048 E40.13964
G1 X-1.709 Y48.283 E40.17907
G1 X-1.435 Y47.543 E40.21844
G1 X-1.087 Y46.834 E40.25784
G1 X-.669 Y46.163 E40.29728
G1 X-.186 Y45.539 E40.33665
G1 X0.219 Y45.102 E40.36637
G1 X0.336 Y44.985 E40.37463
G1 X0.922 Y44.455 E40.41405
G1 X1.558 Y43.988 E40.45341
G1 X2.238 Y43.587 E40.4928
G1 X2.956 Y43.257 E40.53222
G1 X3.703 Y43.002 E40.5716
G1 X4.472 Y42.823 E40.61099
G1 X4.934 Y42.764 E40.63423
G1 X4.934 Y-9.76 E43.25466
G1 X4.282 Y-9.859 E43.28756
G1 X3.517 Y-10.057 E43.32699
G1 X2.795 Y-10.324 E43.36539
G1 X2.573 Y-10.084 E43.3817
G1 X1.999 Y-9.542 E43.42109
G1 X1.373 Y-9.061 E43.46047
G1 X0.701 Y-8.646 E43.49988
G1 X-0.009 Y-8.301 E43.53926
G1 X-.751 Y-8.029 E43.57869
G1 X-1.516 Y-7.834 E43.61807
G0 F3600 X-1.713 Y-8.203
G1 F1800 X-2.475 Y-8.103 E43.65642
G1 X-2.917 Y-8.081 E43.67849
G1 X-11.399 Y-7.918 E44.10174
G1 X-11.352 Y-5.404 E44.22719
G1 X-11.349 Y-5.319 E44.23143
G1 X-11.313 Y-3.434 E44.32549
G1 X-11.339 Y-2.666 E44.36383
G1 X-11.444 Y-1.904 E44.4022
G1 X-11.627 Y-1.157 E44.44057
G1 X-11.887 Y-.433 E44.47895
G1 X-12.221 Y0.26 E44.51733
G1 X-12.625 Y0.915 E44.55573
G1 X-13.094 Y1.524 E44.59408
G1 X-13.482 Y1.945 E44.62264
G1 X-14.043 Y2.472 E44.66104
G1 X-14.654 Y2.938 E44.69938
G1 X-15.311 Y3.338 E44.73775
G1 X-16.006 Y3.668 E44.77614
G1 X-16.732 Y3.923 E44.81453
G1 X-17.48 Y4.103 E44.85291
G1 X-18.242 Y4.203 E44.89125
G1 X-18.684 Y4.225 E44.91333
G1 X-49.193 Y4.811 E46.43571
G1 X-49.178 Y4.97 E46.44368
G1 X-49.147 Y5.651 E46.47769
G1 X-49.147 Y9.543 E46.67186
G1 X-49.187 Y10.311 E46.71023
G1 X-49.306 Y11.071 E46.74861
G1 X-49.504 Y11.814 E46.78697
G1 X-49.778 Y12.533 E46.82536
G1 X-50.125 Y13.219 E46.86371
G1 X-50.541 Y13.866 E46.90209
G1 X-51.022 Y14.466 E46.94045
G1 X-51.431 Y14.893 E46.96995
G1 X-52.003 Y15.407 E47.00832
G1 X-52.341 Y15.654 E47.0292
G1 X-51.741 Y16.135 E47.06757
G1 X-51.314 Y16.544 E47.09707
G1 X-50.8 Y17.116 E47.13543
G1 X-50.347 Y17.738 E47.17382
G1 X-49.961 Y18.403 E47.21218
G1 X-49.646 Y19.105 E47.25057
G1 X-49.406 Y19.836 E47.28896
G1 X-49.243 Y20.587 E47.3273
G1 X-49.159 Y21.352 E47.36569
G1 X-49.147 Y21.777 E47.3869
G1 X-49.147 Y25.666 E47.58093
G1 X-49.178 Y26.346 E47.61489
G1 X-49.253 Y27.159 E47.65562
G1 X-49.316 Y27.652 E47.68042
G1 X-49.507 Y28.522 E47.72485
G1 X-49.728 Y29.299 E47.76516
G1 X-49.977 Y30.027 E47.80354
G1 X-50.222 Y30.574 E47.83344
G1 X-50.591 Y31.315 E47.87474
G1 X-50.95 Y31.954 E47.91131
G1 X-51.314 Y32.484 E47.94339
G1 X-51.805 Y33.136 E47.98411
G1 X-52.306 Y33.733 E48.02299
G1 X-52.74 Y34.163 E48.05347
G1 X-53.339 Y34.71 E48.09394
G1 X-53.933 Y35.199 E48.13232
G1 X-54.43 Y35.536 E48.16228
G1 X-55.135 Y35.973 E48.20366
G1 X-55.741 Y36.31 E48.23826
G1 X-56.371 Y36.589 E48.27263
G1 X-57.123 Y36.881 E48.31288
G1 X-57.854 Y37.122 E48.35128
G1 X-58.424 Y37.254 E48.38047
G1 X-59.247 Y37.41 E48.42226
G1 X-59.869 Y37.5 E48.45362
G1 X-60.644 Y37.541 E48.49234
G1 X-61.449 Y37.541 E48.5325
G1 X-62.243 Y37.498 E48.57217
