;FLAVOR:Marlin
;TIME:10178
;Filament used: 13.3931m
;Layer height: 0.3
;MINX:-75.3
;MINY:-45.8
;MINZ:0.3
;MAXX:75.3
;MAXY:45.8
;MAXZ:82.8
;Generated with Cura_SteamEngine 4.7.1
M140 S50
M105
M190 S50
M104 S250
M105
M109 S250
M82 ;absolute extrusion mode
G28 ;Home
G1 Z15.0 F6000 ;Move the platform down 15mm
;Prime the extruder
G92 E0
G1 F200 E3
G92 E0
G92 E0
G92 E0
G1 F1500 E-6.5
;LAYER_COUNT:276
;LAYER:0
M107
G0 F3600 X-8.7 Y-20.2 Z0.3
;TYPE:SKIRT
G1 F1500 E0
G1 F1800 X-8.7 Y38 E2.90361
G1 X-8.74 Y38.789 E2.94302
G1 X-8.859 Y39.569 E2.98239
G1 X-9.057 Y40.334 E3.02181
G1 X-9.331 Y41.074 E3.06118
G1 X-9.679 Y41.783 E3.10058
G1 X-10.097 Y42.454 E3.14002
G1 X-10.58 Y43.078 E3.17939
G1 X-11.123 Y43.651 E3.21878
G1 X-11.722 Y44.166 E3.25819
G1 X-12.37 Y44.617 E3.29758
G1 X-13.061 Y45.001 E3.33701
G1 X-13.786 Y45.313 E3.37639
G1 X-14.539 Y45.55 E3.41578
G1 X-15.313 Y45.709 E3.4552
G1 X-16.098 Y45.79 E3.49457
G1 X-16.5 Y45.8 E3.51463
G1 X-26.5 Y45.8 E4.01353
G1 X-27.289 Y45.76 E4.05295
G1 X-28.069 Y45.641 E4.09231
G1 X-28.834 Y45.443 E4.13174
G1 X-29.574 Y45.169 E4.1711
G1 X-30.283 Y44.821 E4.21051
G1 X-30.954 Y44.403 E4.24995
G1 X-31.578 Y43.92 E4.28932
G1 X-32.151 Y43.377 E4.3287
G1 X-32.666 Y42.778 E4.36811
G1 X-33.117 Y42.13 E4.4075
G1 X-33.501 Y41.439 E4.44694
G1 X-33.813 Y40.714 E4.48632
G1 X-34.05 Y39.961 E4.5257
G1 X-34.209 Y39.187 E4.56512
G1 X-34.29 Y38.402 E4.60449
G1 X-34.3 Y38 E4.62456
G1 X-34.3 Y-20.2 E7.52817
G1 X-67.5 Y-20.2 E9.18452
G1 X-68.289 Y-20.24 E9.22393
G1 X-69.069 Y-20.359 E9.2633
G1 X-69.834 Y-20.557 E9.30272
G1 X-70.574 Y-20.831 E9.34209
G1 X-71.283 Y-21.179 E9.38149
G1 X-71.954 Y-21.597 E9.42093
G1 X-72.578 Y-22.08 E9.4603
G1 X-73.151 Y-22.623 E9.49969
G1 X-73.666 Y-23.222 E9.5391
G1 X-74.117 Y-23.87 E9.57849
G1 X-74.501 Y-24.561 E9.61793
G1 X-74.813 Y-25.286 E9.6573
G1 X-75.05 Y-26.039 E9.69669
G1 X-75.209 Y-26.813 E9.73611
G1 X-75.29 Y-27.598 E9.77548
G1 X-75.3 Y-28 E9.79554
G1 X-75.3 Y-38 E10.29444
G1 X-75.26 Y-38.789 E10.33386
G1 X-75.141 Y-39.569 E10.37322
G1 X-74.943 Y-40.334 E10.41265
G1 X-74.669 Y-41.074 E10.45201
G1 X-74.321 Y-41.783 E10.49142
G1 X-73.903 Y-42.454 E10.53086
G1 X-73.42 Y-43.078 E10.57023
G1 X-72.877 Y-43.651 E10.60961
G1 X-72.278 Y-44.166 E10.64902
G1 X-71.63 Y-44.617 E10.68841
G1 X-70.939 Y-45.001 E10.72785
G1 X-70.214 Y-45.313 E10.76723
G1 X-69.461 Y-45.55 E10.80661
G1 X-68.687 Y-45.709 E10.84603
G1 X-67.902 Y-45.79 E10.8854
G1 X-67.5 Y-45.8 E10.90547
G1 X67.5 Y-45.8 E17.64064
G1 X68.289 Y-45.76 E17.68006
G1 X69.069 Y-45.641 E17.71942
G1 X69.834 Y-45.443 E17.75885
G1 X70.574 Y-45.169 E17.79821
G1 X71.283 Y-44.821 E17.83762
G1 X71.954 Y-44.403 E17.87706
G1 X72.578 Y-43.92 E17.91643
G1 X73.151 Y-43.377 E17.95581
G1 X73.666 Y-42.778 E17.99522
G1 X74.117 Y-42.13 E18.03461
G1 X74.501 Y-41.439 E18.07405
G1 X74.813 Y-40.714 E18.11343
G1 X75.05 Y-39.961 E18.15281
G1 X75.209 Y-39.187 E18.19223
G1 X75.29 Y-38.402 E18.2316
G1 X75.3 Y-38 E18.25167
G1 X75.3 Y-28 E18.75057
G1 X75.26 Y-27.211 E18.78998
G1 X75.141 Y-26.431 E18.82935
G1 X74.943 Y-25.666 E18.86877
G1 X74.669 Y-24.926 E18.90814
G1 X74.321 Y-24.217 E18.94754
G1 X73.903 Y-23.546 E18.98698
G1 X73.42 Y-22.922 E19.02635
G1 X72.877 Y-22.349 E19.06573
G1 X72.278 Y-21.834 E19.10515
G1 X71.63 Y-21.383 E19.14453
G1 X70.939 Y-20.999 E19.18397
G1 X70.214 Y-20.687 E19.22335
G1 X69.461 Y-20.45 E19.26273
G1 X68.687 Y-20.291 E19.30216
G1 X67.902 Y-20.21 E19.34153
G1 X67.5 Y-20.2 E19.36159
G1 X35.3 Y-20.2 E20.96805
G1 X35.3 Y38 E23.87166
G1 X35.26 Y38.789 E23.91108
G1 X35.141 Y39.569 E23.95044
G1 X34.943 Y40.334 E23.98987
G1 X34.669 Y41.074 E24.02923
G1 X34.321 Y41.783 E24.06864
G1 X33.903 Y42.454 E24.10808
G1 X33.42 Y43.078 E24.14745
G1 X32.877 Y43.651 E24.18683
G1 X32.278 Y44.166 E24.22624
G1 X31.63 Y44.617 E24.26563
G1 X30.939 Y45.001 E24.30507
G1 X30.214 Y45.313 E24.34445
G1 X29.461 Y45.55 E24.38383
G1 X28.687 Y45.709 E24.42325
G1 X27.902 Y45.79 E24.46262
G1 X27.5 Y45.8 E24.48269
G1 X17.5 Y45.8 E24.98159
G1 X16.711 Y45.76 E25.021
G1 X15.931 Y45.641 E25.06037
G1 X15.166 Y45.443 E25.09979
G1 X14.426 Y45.169 E25.13916
G1 X13.717 Y44.821 E25.17856
G1 X13.046 Y44.403 E25.218
G1 X12.422 Y43.92 E25.25737
G1 X11.849 Y43.377 E25.29675
G1 X11.334 Y42.778 E25.33617
G1 X10.883 Y42.13 E25.37555
G1 X10.499 Y41.439 E25.41499
G1 X10.187 Y40.714 E25.45437
G1 X9.95 Y39.961 E25.49376
G1 X9.791 Y39.187 E25.53318
G1 X9.71 Y38.402 E25.57255
G1 X9.7 Y38 E25.59261
G1 X9.7 Y-20.2 E28.49622
G1 X-8.7 Y-20.2 E29.4142
G0 F3600 X-9.1 Y-20.6
G1 F1800 X-9.1 Y38 E32.33777
G1 X-9.14 Y38.768 E32.37613
G1 X-9.259 Y39.528 E32.41451
G1 X-9.457 Y40.271 E32.45287
G1 X-9.731 Y40.99 E32.49126
G1 X-10.078 Y41.676 E32.52962
G1 X-10.494 Y42.323 E32.56799
G1 X-10.975 Y42.923 E32.60636
G1 X-11.516 Y43.47 E32.64474
G1 X-12.111 Y43.958 E32.68313
G1 X-12.753 Y44.381 E32.72149
G1 X-13.436 Y44.736 E32.75989
G1 X-14.151 Y45.017 E32.79822
G1 X-14.893 Y45.223 E32.83664
G1 X-15.651 Y45.351 E32.87499
G1 X-16.5 Y45.4 E32.91742
G1 X-26.5 Y45.4 E33.41632
G1 X-27.268 Y45.36 E33.45469
G1 X-28.028 Y45.241 E33.49306
G1 X-28.771 Y45.043 E33.53143
G1 X-29.49 Y44.769 E33.56981
G1 X-30.176 Y44.422 E33.60817
G1 X-30.823 Y44.006 E33.64654
G1 X-31.423 Y43.525 E33.68491
G1 X-31.97 Y42.984 E33.72329
G1 X-32.458 Y42.389 E33.76168
G1 X-32.881 Y41.747 E33.80004
G1 X-33.236 Y41.064 E33.83844
G1 X-33.517 Y40.349 E33.87677
G1 X-33.723 Y39.607 E33.91519
G1 X-33.851 Y38.849 E33.95354
G1 X-33.9 Y38 E33.99597
G1 X-33.9 Y-20.6 E36.91953
G1 X-67.5 Y-20.6 E38.59585
G1 X-68.268 Y-20.64 E38.63421
G1 X-69.028 Y-20.759 E38.67259
G1 X-69.771 Y-20.957 E38.71095
G1 X-70.49 Y-21.231 E38.74934
G1 X-71.176 Y-21.578 E38.7877
G1 X-71.823 Y-21.994 E38.82607
G1 X-72.423 Y-22.475 E38.86444
G1 X-72.97 Y-23.016 E38.90282
G1 X-73.458 Y-23.611 E38.94121
G1 X-73.881 Y-24.253 E38.97957
G1 X-74.236 Y-24.936 E39.01797
G1 X-74.517 Y-25.651 E39.0563
G1 X-74.723 Y-26.393 E39.09472
G1 X-74.851 Y-27.151 E39.13307
G1 X-74.9 Y-28 E39.1755
G1 X-74.9 Y-38 E39.6744
G1 X-74.86 Y-38.768 E39.71277
G1 X-74.741 Y-39.528 E39.75114
G1 X-74.543 Y-40.271 E39.78951
G1 X-74.269 Y-40.99 E39.82789
G1 X-73.922 Y-41.676 E39.86625
G1 X-73.506 Y-42.323 E39.90462
G1 X-73.025 Y-42.923 E39.94299
G1 X-72.484 Y-43.47 E39.98137
G1 X-71.889 Y-43.958 E40.01976
G1 X-71.247 Y-44.381 E40.05812
G1 X-70.564 Y-44.736 E40.09652
G1 X-69.849 Y-45.017 E40.13485
G1 X-69.107 Y-45.223 E40.17327
G1 X-68.349 Y-45.351 E40.21162
G1 X-67.5 Y-45.4 E40.25405
G1 X67.5 Y-45.4 E46.98923
G1 X68.268 Y-45.36 E47.02759
G1 X69.028 Y-45.241 E47.06597
G1 X69.771 Y-45.043 E47.10433
G1 X70.49 Y-44.769 E47.14272
G1 X71.176 Y-44.422 E47.18108
G1 X71.823 Y-44.006 E47.21945
G1 X72.423 Y-43.525 E47.25782
G1 X72.97 Y-42.984 E47.2962
G1 X73.458 Y-42.389 E47.33459
G1 X73.881 Y-41.747 E47.37295
G1 X74.236 Y-41.064 E47.41135
G1 X74.517 Y-40.349 E47.44968
G1 X74.723 Y-39.607 E47.4881
G1 X74.851 Y-38.849 E47.52645
G1 X74.9 Y-38 E47.56888
G1 X74.9 Y-28 E48.06778
G1 X74.86 Y-27.232 E48.10615
G1 X74.741 Y-26.472 E48.14452
G1 X74.543 Y-25.729 E48.18289
G1 X74.269 Y-25.01 E48.22127
G1 X73.922 Y-24.324 E48.25963
G1 X73.506 Y-23.677 E48.298
G1 X73.025 Y-23.077 E48.33637
G1 X72.484 Y-22.53 E48.37475
G1 X71.889 Y-22.042 E48.41314
G1 X71.247 Y-21.619 E48.4515
G1 X70.564 Y-21.264 E48.4899
G1 X69.849 Y-20.983 E48.52823
G1 X69.107 Y-20.777 E48.56665
G1 X68.349 Y-20.649 E48.605
G1 X67.5 Y-20.6 E48.64743
G1 X34.9 Y-20.6 E50.27385
G1 X34.9 Y38 E53.19742
G1 X34.86 Y38.768 E53.23578
G1 X34.741 Y39.528 E53.27416
G1 X34.543 Y40.271 E53.31252
G1 X34.269 Y40.99 E53.35091
G1 X33.922 Y41.676 E53.38927
G1 X33.506 Y42.323 E53.42764
G1 X33.025 Y42.923 E53.46601
G1 X32.484 Y43.47 E53.50439
G1 X31.889 Y43.958 E53.54278
G1 X31.247 Y44.381 E53.58114
G1 X30.564 Y44.736 E53.61954
G1 X29.849 Y45.017 E53.65787
G1 X29.107 Y45.223 E53.69629
G1 X28.349 Y45.351 E53.73464
G1 X27.5 Y45.4 E53.77707
G1 X17.5 Y45.4 E54.27597
G1 X16.732 Y45.36 E54.31434
G1 X15.972 Y45.241 E54.35271
G1 X15.229 Y45.043 E54.39108
G1 X14.51 Y44.769 E54.42946
G1 X13.824 Y44.422 E54.46782
G1 X13.177 Y44.006 E54.50619
G1 X12.577 Y43.525 E54.54456
G1 X12.03 Y42.984 E54.58294
G1 X11.542 Y42.389 E54.62133
G1 X11.119 Y41.747 E54.65969
G1 X10.764 Y41.064 E54.69809
G1 X10.483 Y40.349 E54.73642
G1 X10.277 Y39.607 E54.77484
G1 X10.149 Y38.849 E54.81319
G1 X10.1 Y38 E54.85562
G1 X10.1 Y-20.6 E57.77918
G1 X-9.1 Y-20.6 E58.73708
G0 F3600 X-9.5 Y-21
G1 F1800 X-9.5 Y38 E61.6806
G1 X-9.54 Y38.747 E61.71792
G1 X-9.659 Y39.485 E61.75521
G1 X-9.857 Y40.207 E61.79257
G1 X-10.13 Y40.903 E61.82986
G1 X-10.477 Y41.566 E61.8672
G1 X-10.892 Y42.189 E61.90454
G1 X-11.371 Y42.763 E61.94184
G1 X-11.908 Y43.284 E61.97917
G1 X-12.498 Y43.743 E62.01646
G1 X-13.134 Y44.138 E62.05382
G1 X-13.808 Y44.462 E62.09113
G1 X-14.513 Y44.712 E62.12844
G1 X-15.241 Y44.886 E62.16579
G1 X-15.983 Y44.981 E62.20311
G1 X-16.5 Y45 E62.22892
G1 X-26.5 Y45 E62.72782
G1 X-27.247 Y44.96 E62.76514
G1 X-27.985 Y44.841 E62.80244
G1 X-28.707 Y44.643 E62.83979
G1 X-29.403 Y44.37 E62.87709
G1 X-30.066 Y44.023 E62.91442
G1 X-30.689 Y43.608 E62.95177
G1 X-31.263 Y43.129 E62.98906
G1 X-31.784 Y42.592 E63.02639
G1 X-32.243 Y42.002 E63.06369
G1 X-32.638 Y41.366 E63.10104
G1 X-32.962 Y40.692 E63.13835
G1 X-33.212 Y39.987 E63.17567
G1 X-33.386 Y39.259 E63.21301
G1 X-33.481 Y38.517 E63.25033
G1 X-33.5 Y38 E63.27614
G1 X-33.5 Y-21 E66.21966
G1 X-67.5 Y-21 E67.91593
G1 X-68.247 Y-21.04 E67.95325
G1 X-68.985 Y-21.159 E67.99055
G1 X-69.707 Y-21.357 E68.0279
G1 X-70.403 Y-21.63 E68.0652
G1 X-71.066 Y-21.977 E68.10253
G1 X-71.689 Y-22.392 E68.13988
G1 X-72.263 Y-22.871 E68.17717
G1 X-72.784 Y-23.408 E68.2145
G1 X-73.243 Y-23.998 E68.2518
G1 X-73.638 Y-24.634 E68.28915
G1 X-73.962 Y-25.308 E68.32646
G1 X-74.212 Y-26.013 E68.36378
G1 X-74.386 Y-26.741 E68.40112
G1 X-74.481 Y-27.483 E68.43844
G1 X-74.5 Y-28 E68.46425
G1 X-74.5 Y-38 E68.96315
G1 X-74.46 Y-38.747 E69.00047
G1 X-74.341 Y-39.485 E69.03777
G1 X-74.143 Y-40.207 E69.07512
G1 X-73.87 Y-40.903 E69.11242
G1 X-73.523 Y-41.566 E69.14975
G1 X-73.108 Y-42.189 E69.1871
G1 X-72.629 Y-42.763 E69.2244
G1 X-72.092 Y-43.284 E69.26172
G1 X-71.502 Y-43.743 E69.29902
G1 X-70.866 Y-44.138 E69.33637
G1 X-70.192 Y-44.462 E69.37368
G1 X-69.487 Y-44.712 E69.411
G1 X-68.759 Y-44.886 E69.44834
G1 X-68.017 Y-44.981 E69.48566
G1 X-67.5 Y-45 E69.51147
G1 X67.5 Y-45 E76.24665
G1 X68.247 Y-44.96 E76.28397
G1 X68.985 Y-44.841 E76.32126
G1 X69.707 Y-44.643 E76.35862
G1 X70.403 Y-44.37 E76.39591
G1 X71.066 Y-44.023 E76.43325
G1 X71.689 Y-43.608 E76.47059
G1 X72.263 Y-43.129 E76.50789
G1 X72.784 Y-42.592 E76.54522
G1 X73.243 Y-42.002 E76.58251
G1 X73.638 Y-41.366 E76.61987
G1 X73.962 Y-40.692 E76.65718
G1 X74.212 Y-39.987 E76.69449
G1 X74.386 Y-39.259 E76.73184
G1 X74.481 Y-38.517 E76.76916
G1 X74.5 Y-38 E76.79497
G1 X74.5 Y-28 E77.29387
G1 X74.46 Y-27.253 E77.33119
G1 X74.341 Y-26.515 E77.36849
G1 X74.143 Y-25.793 E77.40584
G1 X73.87 Y-25.097 E77.44314
G1 X73.523 Y-24.434 E77.48047
G1 X73.108 Y-23.811 E77.51782
G1 X72.629 Y-23.237 E77.55512
G1 X72.092 Y-22.716 E77.59244
G1 X71.502 Y-22.257 E77.62974
G1 X70.866 Y-21.862 E77.66709
G1 X70.192 Y-21.538 E77.7044
G1 X69.487 Y-21.288 E77.74172
G1 X68.759 Y-21.114 E77.77906
G1 X68.017 Y-21.019 E77.81638
G1 X67.5 Y-21 E77.84219
G1 X34.5 Y-21 E79.48857
G1 X34.5 Y38 E82.43209
G1 X34.46 Y38.747 E82.46941
G1 X34.341 Y39.485 E82.50671
G1 X34.143 Y40.207 E82.54406
G1 X33.87 Y40.903 E82.58136
G1 X33.523 Y41.566 E82.61869
G1 X33.108 Y42.189 E82.65604
G1 X32.629 Y42.763 E82.69333
G1 X32.092 Y43.284 E82.73066
G1 X31.502 Y43.743 E82.76796
G1 X30.866 Y44.138 E82.80531
G1 X30.192 Y44.462 E82.84262
G1 X29.487 Y44.712 E82.87994
G1 X28.759 Y44.886 E82.91728
G1 X28.017 Y44.981 E82.9546
G1 X27.5 Y45 E82.98041
G1 X17.5 Y45 E83.47931
G1 X16.753 Y44.96 E83.51663
G1 X16.015 Y44.841 E83.55393
G1 X15.293 Y44.643 E83.59128
G1 X14.597 Y44.37 E83.62858
G1 X13.934 Y44.023 E83.66591
G1 X13.311 Y43.608 E83.70326
G1 X12.737 Y43.129 E83.74056
G1 X12.216 Y42.592 E83.77788
G1 X11.757 Y42.002 E83.81518
G1 X11.362 Y41.366 E83.85253
G1 X11.038 Y40.692 E83.88984
G1 X10.788 Y39.987 E83.92716
G1 X10.614 Y39.259 E83.9645
G1 X10.519 Y38.517 E84.00182
G1 X10.5 Y38 E84.02763
G1 X10.5 Y-21 E86.97115
G1 X-9.5 Y-21 E87.96896
G0 F3600 X-9.9 Y-21.4
G1 F1800 X-9.9 Y38 E90.93244
G1 X-9.94 Y38.725 E90.96866
G1 X-10.059 Y39.442 E91.00492
G1 X-10.257 Y40.141 E91.04117
G1 X-10.53 Y40.814 E91.0774
G1 X-10.875 Y41.453 E91.11363
G1 X-11.289 Y42.05 E91.14988
G1 X-11.765 Y42.598 E91.18609
G1 X-12.299 Y43.091 E91.22235
G1 X-12.884 Y43.521 E91.25857
G1 X-13.513 Y43.885 E91.29483
G1 X-14.178 Y44.178 E91.33108
G1 X-14.871 Y44.396 E91.36733
G1 X-15.583 Y44.536 E91.40353
G1 X-16.5 Y44.6 E91.44939
G1 X-26.5 Y44.6 E91.94829
G1 X-27.225 Y44.56 E91.98452
G1 X-27.942 Y44.441 E92.02078
G1 X-28.641 Y44.243 E92.05702
G1 X-29.314 Y43.97 E92.09326
G1 X-29.953 Y43.625 E92.12948
G1 X-30.55 Y43.211 E92.16573
G1 X-31.098 Y42.735 E92.20194
G1 X-31.591 Y42.201 E92.2382
G1 X-32.021 Y41.616 E92.27442
G1 X-32.385 Y40.987 E92.31068
G1 X-32.678 Y40.322 E92.34694
G1 X-32.896 Y39.629 E92.38318
G1 X-33.036 Y38.917 E92.41938
G1 X-33.1 Y38 E92.46524
G1 X-33.1 Y-21.4 E95.42872
G1 X-67.5 Y-21.4 E97.14494
G1 X-68.225 Y-21.44 E97.18117
G1 X-68.942 Y-21.559 E97.21743
G1 X-69.641 Y-21.757 E97.25368
G1 X-70.314 Y-22.03 E97.28991
G1 X-70.953 Y-22.375 E97.32614
G1 X-71.55 Y-22.789 E97.36238
G1 X-72.098 Y-23.265 E97.3986
G1 X-72.591 Y-23.799 E97.43486
G1 X-73.021 Y-24.384 E97.47108
G1 X-73.385 Y-25.013 E97.50733
G1 X-73.678 Y-25.678 E97.54359
G1 X-73.896 Y-26.371 E97.57983
G1 X-74.036 Y-27.083 E97.61604
G1 X-74.1 Y-28 E97.6619
G1 X-74.1 Y-38 E98.1608
G1 X-74.06 Y-38.725 E98.19702
G1 X-73.941 Y-39.442 E98.23328
G1 X-73.743 Y-40.141 E98.26953
G1 X-73.47 Y-40.814 E98.30576
G1 X-73.125 Y-41.453 E98.34199
G1 X-72.711 Y-42.05 E98.37824
G1 X-72.235 Y-42.598 E98.41445
G1 X-71.701 Y-43.091 E98.45071
G1 X-71.116 Y-43.521 E98.48693
G1 X-70.487 Y-43.885 E98.52319
G1 X-69.822 Y-44.178 E98.55944
G1 X-69.129 Y-44.396 E98.59569
G1 X-68.417 Y-44.536 E98.63189
G1 X-67.5 Y-44.6 E98.67775
G1 X67.5 Y-44.6 E105.41293
G1 X68.225 Y-44.56 E105.44915
G1 X68.942 Y-44.441 E105.48541
G1 X69.641 Y-44.243 E105.52166
G1 X70.314 Y-43.97 E105.55789
G1 X70.953 Y-43.625 E105.59412
G1 X71.55 Y-43.211 E105.63037
G1 X72.098 Y-42.735 E105.66658
G1 X72.591 Y-42.201 E105.70284
G1 X73.021 Y-41.616 E105.73906
G1 X73.385 Y-40.987 E105.77532
G1 X73.678 Y-40.322 E105.81157
G1 X73.896 Y-39.629 E105.84782
G1 X74.036 Y-38.917 E105.88402
G1 X74.1 Y-38 E105.92988
G1 X74.1 Y-28 E106.42878
G1 X74.06 Y-27.275 E106.46501
G1 X73.941 Y-26.558 E106.50127
G1 X73.743 Y-25.859 E106.53751
G1 X73.47 Y-25.186 E106.57375
G1 X73.125 Y-24.547 E106.60998
G1 X72.711 Y-23.95 E106.64622
G1 X72.235 Y-23.402 E106.68244
G1 X71.701 Y-22.909 E106.71869
G1 X71.116 Y-22.479 E106.75492
G1 X70.487 Y-22.115 E106.79117
G1 X69.822 Y-21.822 E106.82743
G1 X69.129 Y-21.604 E106.86367
G1 X68.417 Y-21.464 E106.89987
G1 X67.5 Y-21.4 E106.94573
G1 X34.1 Y-21.4 E108.61207
G1 X34.1 Y38 E111.57555
G1 X34.06 Y38.725 E111.61177
G1 X33.941 Y39.442 E111.64803
G1 X33.743 Y40.141 E111.68428
G1 X33.47 Y40.814 E111.72051
G1 X33.125 Y41.453 E111.75674
G1 X32.711 Y42.05 E111.79298
G1 X32.235 Y42.598 E111.8292
G1 X31.701 Y43.091 E111.86546
G1 X31.116 Y43.521 E111.90168
G1 X30.487 Y43.885 E111.93794
G1 X29.822 Y44.178 E111.97419
G1 X29.129 Y44.396 E112.01043
G1 X28.417 Y44.536 E112.04664
G1 X27.5 Y44.6 E112.0925
G1 X17.5 Y44.6 E112.5914
G1 X16.775 Y44.56 E112.62762
G1 X16.058 Y44.441 E112.66389
G1 X15.359 Y44.243 E112.70013
G1 X14.686 Y43.97 E112.73636
G1 X14.047 Y43.625 E112.77259
G1 X13.45 Y43.211 E112.80884
G1 X12.902 Y42.735 E112.84505
G1 X12.409 Y42.201 E112.88131
G1 X11.979 Y41.616 E112.91753
G1 X11.615 Y40.987 E112.95379
G1 X11.322 Y40.322 E112.99005
G1 X11.104 Y39.629 E113.02629
G1 X10.964 Y38.917 E113.06249
G1 X10.9 Y38 E113.10835
G1 X10.9 Y-21.4 E116.07183
G1 X-9.9 Y-21.4 E117.10955
G0 F3600 X-10.3 Y-21.8
G1 F1800 X-10.3 Y38 E120.09298
G1 X-10.34 Y38.703 E120.12811
G1 X-10.459 Y39.397 E120.16324
G1 X-10.657 Y40.072 E120.19833
