;FLAVOR:Marlin
;TIME:16927
;Filament used: 22.9934m
;Layer height: 0.3
;MINX:-87.8
;MINY:-57.8
;MINZ:0.3
;MAXX:87.8
;MAXY:57.8
;MAXZ:30
;Generated with Cura_SteamEngine 4.7.1
M140 S50
M105
M190 S50
M104 S250
M105
M109 S250
M82 ;absolute extrusion mode
G28 ;Home
G1 Z15.0 F6000 ;Move the platform down 15mm
;Prime the extruder
G92 E0
G1 F200 E3
G92 E0
G92 E0
G92 E0
G1 F1500 E-6.5
;LAYER_COUNT:100
;LAYER:0
M107
G0 F3600 X-42.2 Y-42.8 Z0.3
;TYPE:SKIRT
G1 F1500 E0
G1 F1800 X42.2 Y-42.8 E4.21073
G1 X42.2 Y-50 E4.56994
G1 X42.24 Y-50.789 E4.60936
G1 X42.359 Y-51.569 E4.64872
G1 X42.557 Y-52.334 E4.68814
G1 X42.831 Y-53.074 E4.72751
G1 X43.179 Y-53.783 E4.76692
G1 X43.597 Y-54.454 E4.80636
G1 X44.08 Y-55.078 E4.84572
G1 X44.623 Y-55.651 E4.88511
G1 X45.222 Y-56.166 E4.92452
G1 X45.87 Y-56.617 E4.96391
G1 X46.561 Y-57.001 E5.00335
G1 X47.286 Y-57.313 E5.04273
G1 X48.039 Y-57.55 E5.08211
G1 X48.813 Y-57.709 E5.12153
G1 X49.598 Y-57.79 E5.1609
G1 X50 Y-57.8 E5.18096
G1 X70 Y-57.8 E6.17877
G1 X70.789 Y-57.76 E6.21818
G1 X71.569 Y-57.641 E6.25755
G1 X72.334 Y-57.443 E6.29697
G1 X73.074 Y-57.169 E6.33634
G1 X73.783 Y-56.821 E6.37574
G1 X74.454 Y-56.403 E6.41518
G1 X75.078 Y-55.92 E6.45455
G1 X75.651 Y-55.377 E6.49394
G1 X76.166 Y-54.778 E6.53335
G1 X76.617 Y-54.13 E6.57273
G1 X77.001 Y-53.439 E6.61217
G1 X77.313 Y-52.714 E6.65155
G1 X77.55 Y-51.961 E6.69094
G1 X77.709 Y-51.187 E6.73036
G1 X77.79 Y-50.402 E6.76973
G1 X77.8 Y-50 E6.78979
G1 X77.8 Y-42.8 E7.149
G1 X80 Y-42.8 E7.25876
G1 X80.789 Y-42.76 E7.29817
G1 X81.569 Y-42.641 E7.33754
G1 X82.334 Y-42.443 E7.37696
G1 X83.074 Y-42.169 E7.41633
G1 X83.783 Y-41.821 E7.45573
G1 X84.454 Y-41.403 E7.49517
G1 X85.078 Y-40.92 E7.53454
G1 X85.651 Y-40.377 E7.57392
G1 X86.166 Y-39.778 E7.61334
G1 X86.617 Y-39.13 E7.65272
G1 X87.001 Y-38.439 E7.69216
G1 X87.313 Y-37.714 E7.73154
G1 X87.55 Y-36.961 E7.77093
G1 X87.709 Y-36.187 E7.81035
G1 X87.79 Y-35.402 E7.84972
G1 X87.8 Y-35 E7.86978
G1 X87.8 Y35 E11.36209
G1 X87.76 Y35.789 E11.40151
G1 X87.641 Y36.569 E11.44087
G1 X87.443 Y37.334 E11.4803
G1 X87.169 Y38.074 E11.51967
G1 X86.821 Y38.783 E11.55907
G1 X86.403 Y39.454 E11.59851
G1 X85.92 Y40.078 E11.63788
G1 X85.377 Y40.651 E11.67726
G1 X84.778 Y41.166 E11.71667
G1 X84.13 Y41.617 E11.75606
G1 X83.439 Y42.001 E11.7955
G1 X82.714 Y42.313 E11.83488
G1 X81.961 Y42.55 E11.87426
G1 X81.187 Y42.709 E11.91368
G1 X80.402 Y42.79 E11.95305
G1 X80 Y42.8 E11.97312
G1 X77.8 Y42.8 E12.08288
G1 X77.8 Y50 E12.44208
G1 X77.76 Y50.789 E12.4815
G1 X77.641 Y51.569 E12.52086
G1 X77.443 Y52.334 E12.56029
G1 X77.169 Y53.074 E12.59966
G1 X76.821 Y53.783 E12.63906
G1 X76.403 Y54.454 E12.6785
G1 X75.92 Y55.078 E12.71787
G1 X75.377 Y55.651 E12.75725
G1 X74.778 Y56.166 E12.79666
G1 X74.13 Y56.617 E12.83605
G1 X73.439 Y57.001 E12.87549
G1 X72.714 Y57.313 E12.91487
G1 X71.961 Y57.55 E12.95425
G1 X71.187 Y57.709 E12.99367
G1 X70.402 Y57.79 E13.03304
G1 X70 Y57.8 E13.05311
G1 X50 Y57.8 E14.05091
G1 X49.211 Y57.76 E14.09032
G1 X48.431 Y57.641 E14.12969
G1 X47.666 Y57.443 E14.16911
G1 X46.926 Y57.169 E14.20848
G1 X46.217 Y56.821 E14.24788
G1 X45.546 Y56.403 E14.28733
G1 X44.922 Y55.92 E14.32669
G1 X44.349 Y55.377 E14.36608
G1 X43.834 Y54.778 E14.40549
G1 X43.383 Y54.13 E14.44488
G1 X42.999 Y53.439 E14.48432
G1 X42.687 Y52.714 E14.52369
G1 X42.45 Y51.961 E14.56308
G1 X42.291 Y51.187 E14.6025
G1 X42.21 Y50.402 E14.64187
G1 X42.2 Y50 E14.66193
G1 X42.2 Y42.8 E15.02114
G1 X-42.2 Y42.8 E19.23188
G1 X-42.2 Y50 E19.59108
G1 X-42.24 Y50.789 E19.6305
G1 X-42.359 Y51.569 E19.66986
G1 X-42.557 Y52.334 E19.70929
G1 X-42.831 Y53.074 E19.74866
G1 X-43.179 Y53.783 E19.78806
G1 X-43.597 Y54.454 E19.8275
G1 X-44.08 Y55.078 E19.86687
G1 X-44.623 Y55.651 E19.90625
G1 X-45.222 Y56.166 E19.94566
G1 X-45.87 Y56.617 E19.98505
G1 X-46.561 Y57.001 E20.02449
G1 X-47.286 Y57.313 E20.06387
G1 X-48.039 Y57.55 E20.10325
G1 X-48.813 Y57.709 E20.14267
G1 X-49.598 Y57.79 E20.18204
G1 X-50 Y57.8 E20.20211
G1 X-70 Y57.8 E21.19991
G1 X-70.789 Y57.76 E21.23932
G1 X-71.569 Y57.641 E21.27869
G1 X-72.334 Y57.443 E21.31811
G1 X-73.074 Y57.169 E21.35748
G1 X-73.783 Y56.821 E21.39688
G1 X-74.454 Y56.403 E21.43633
G1 X-75.078 Y55.92 E21.47569
G1 X-75.651 Y55.377 E21.51508
G1 X-76.166 Y54.778 E21.55449
G1 X-76.617 Y54.13 E21.59388
G1 X-77.001 Y53.439 E21.63332
G1 X-77.313 Y52.714 E21.67269
G1 X-77.55 Y51.961 E21.71208
G1 X-77.709 Y51.187 E21.7515
G1 X-77.79 Y50.402 E21.79087
G1 X-77.8 Y50 E21.81093
G1 X-77.8 Y42.8 E22.17014
G1 X-80 Y42.8 E22.2799
G1 X-80.789 Y42.76 E22.31931
G1 X-81.569 Y42.641 E22.35868
G1 X-82.334 Y42.443 E22.3981
G1 X-83.074 Y42.169 E22.43747
G1 X-83.783 Y41.821 E22.47687
G1 X-84.454 Y41.403 E22.51632
G1 X-85.078 Y40.92 E22.55568
G1 X-85.651 Y40.377 E22.59507
G1 X-86.166 Y39.778 E22.63448
G1 X-86.617 Y39.13 E22.67387
G1 X-87.001 Y38.439 E22.71331
G1 X-87.313 Y37.714 E22.75268
G1 X-87.55 Y36.961 E22.79207
G1 X-87.709 Y36.187 E22.83149
G1 X-87.79 Y35.402 E22.87086
G1 X-87.8 Y35 E22.89092
G1 X-87.8 Y-35 E26.38324
G1 X-87.76 Y-35.789 E26.42265
G1 X-87.641 Y-36.569 E26.46202
G1 X-87.443 Y-37.334 E26.50144
G1 X-87.169 Y-38.074 E26.54081
G1 X-86.821 Y-38.783 E26.58021
G1 X-86.403 Y-39.454 E26.61965
G1 X-85.92 Y-40.078 E26.65902
G1 X-85.377 Y-40.651 E26.6984
G1 X-84.778 Y-41.166 E26.73781
G1 X-84.13 Y-41.617 E26.7772
G1 X-83.439 Y-42.001 E26.81664
G1 X-82.714 Y-42.313 E26.85602
G1 X-81.961 Y-42.55 E26.8954
G1 X-81.187 Y-42.709 E26.93483
G1 X-80.402 Y-42.79 E26.9742
G1 X-80 Y-42.8 E26.99426
G1 X-77.8 Y-42.8 E27.10402
G1 X-77.8 Y-50 E27.46323
G1 X-77.76 Y-50.789 E27.50264
G1 X-77.641 Y-51.569 E27.54201
G1 X-77.443 Y-52.334 E27.58143
G1 X-77.169 Y-53.074 E27.6208
G1 X-76.821 Y-53.783 E27.6602
G1 X-76.403 Y-54.454 E27.69964
G1 X-75.92 Y-55.078 E27.73901
G1 X-75.377 Y-55.651 E27.77839
G1 X-74.778 Y-56.166 E27.8178
G1 X-74.13 Y-56.617 E27.85719
G1 X-73.439 Y-57.001 E27.89663
G1 X-72.714 Y-57.313 E27.93601
G1 X-71.961 Y-57.55 E27.97539
G1 X-71.187 Y-57.709 E28.01482
G1 X-70.402 Y-57.79 E28.05419
G1 X-70 Y-57.8 E28.07425
G1 X-50 Y-57.8 E29.07205
G1 X-49.211 Y-57.76 E29.11147
G1 X-48.431 Y-57.641 E29.15083
G1 X-47.666 Y-57.443 E29.19026
G1 X-46.926 Y-57.169 E29.22962
G1 X-46.217 Y-56.821 E29.26903
G1 X-45.546 Y-56.403 E29.30847
G1 X-44.922 Y-55.92 E29.34784
G1 X-44.349 Y-55.377 E29.38722
G1 X-43.834 Y-54.778 E29.42663
G1 X-43.383 Y-54.13 E29.46602
G1 X-42.999 Y-53.439 E29.50546
G1 X-42.687 Y-52.714 E29.54484
G1 X-42.45 Y-51.961 E29.58422
G1 X-42.291 Y-51.187 E29.62364
G1 X-42.21 Y-50.402 E29.66301
G1 X-42.2 Y-50 E29.68307
G1 X-42.2 Y-42.8 E30.04228
G0 F3600 X-42.6 Y-42.4
G1 F1800 X42.6 Y-42.4 E34.29293
G1 X42.6 Y-50 E34.6721
G1 X42.64 Y-50.768 E34.71046
G1 X42.759 Y-51.528 E34.74884
G1 X42.957 Y-52.271 E34.7872
G1 X43.231 Y-52.99 E34.82559
G1 X43.578 Y-53.676 E34.86394
G1 X43.994 Y-54.323 E34.90232
G1 X44.475 Y-54.923 E34.94069
G1 X45.016 Y-55.47 E34.97907
G1 X45.611 Y-55.958 E35.01746
G1 X46.253 Y-56.381 E35.05582
G1 X46.936 Y-56.736 E35.09422
G1 X47.651 Y-57.017 E35.13255
G1 X48.393 Y-57.223 E35.17097
G1 X49.151 Y-57.351 E35.20932
G1 X50 Y-57.4 E35.25175
G1 X70 Y-57.4 E36.24955
G1 X70.768 Y-57.36 E36.28792
G1 X71.528 Y-57.241 E36.3263
G1 X72.271 Y-57.043 E36.36466
G1 X72.99 Y-56.769 E36.40305
G1 X73.676 Y-56.422 E36.4414
G1 X74.323 Y-56.006 E36.47977
G1 X74.923 Y-55.525 E36.51814
G1 X75.47 Y-54.984 E36.55652
G1 X75.958 Y-54.389 E36.59492
G1 X76.381 Y-53.747 E36.63327
G1 X76.736 Y-53.064 E36.67167
G1 X77.017 Y-52.349 E36.71
G1 X77.223 Y-51.607 E36.74842
G1 X77.351 Y-50.849 E36.78677
G1 X77.4 Y-50 E36.8292
G1 X77.4 Y-42.4 E37.20837
G1 X80 Y-42.4 E37.33808
G1 X80.768 Y-42.36 E37.37645
G1 X81.528 Y-42.241 E37.41483
G1 X82.271 Y-42.043 E37.45319
G1 X82.99 Y-41.769 E37.49158
G1 X83.676 Y-41.422 E37.52993
G1 X84.323 Y-41.006 E37.56831
G1 X84.923 Y-40.525 E37.60667
G1 X85.47 Y-39.984 E37.64505
G1 X85.958 Y-39.389 E37.68345
G1 X86.381 Y-38.747 E37.7218
G1 X86.736 Y-38.064 E37.76021
G1 X87.017 Y-37.349 E37.79853
G1 X87.223 Y-36.607 E37.83695
G1 X87.351 Y-35.849 E37.8753
G1 X87.4 Y-35 E37.91773
G1 X87.4 Y35 E41.41005
G1 X87.36 Y35.768 E41.44841
G1 X87.241 Y36.528 E41.48679
G1 X87.043 Y37.271 E41.52515
G1 X86.769 Y37.99 E41.56354
G1 X86.422 Y38.676 E41.60189
G1 X86.006 Y39.323 E41.64027
G1 X85.525 Y39.923 E41.67864
G1 X84.984 Y40.47 E41.71702
G1 X84.389 Y40.958 E41.75541
G1 X83.747 Y41.381 E41.79377
G1 X83.064 Y41.736 E41.83217
G1 X82.349 Y42.017 E41.8705
G1 X81.607 Y42.223 E41.90892
G1 X80.849 Y42.351 E41.94727
G1 X80 Y42.4 E41.9897
G1 X77.4 Y42.4 E42.11941
G1 X77.4 Y50 E42.49858
G1 X77.36 Y50.768 E42.53694
G1 X77.241 Y51.528 E42.57532
G1 X77.043 Y52.271 E42.61368
G1 X76.769 Y52.99 E42.65207
G1 X76.422 Y53.676 E42.69043
G1 X76.006 Y54.323 E42.7288
G1 X75.525 Y54.923 E42.76717
G1 X74.984 Y55.47 E42.80555
G1 X74.389 Y55.958 E42.84394
G1 X73.747 Y56.381 E42.8823
G1 X73.064 Y56.736 E42.9207
G1 X72.349 Y57.017 E42.95903
G1 X71.607 Y57.223 E42.99745
G1 X70.849 Y57.351 E43.0358
G1 X70 Y57.4 E43.07823
G1 X50 Y57.4 E44.07603
G1 X49.232 Y57.36 E44.1144
G1 X48.472 Y57.241 E44.15278
G1 X47.729 Y57.043 E44.19114
G1 X47.01 Y56.769 E44.22953
G1 X46.324 Y56.422 E44.26788
G1 X45.677 Y56.006 E44.30626
G1 X45.077 Y55.525 E44.34462
G1 X44.53 Y54.984 E44.383
G1 X44.042 Y54.389 E44.4214
G1 X43.619 Y53.747 E44.45975
G1 X43.264 Y53.064 E44.49816
G1 X42.983 Y52.349 E44.53648
G1 X42.777 Y51.607 E44.5749
G1 X42.649 Y50.849 E44.61325
G1 X42.6 Y50 E44.65568
G1 X42.6 Y42.4 E45.03485
G1 X-42.6 Y42.4 E49.28549
G1 X-42.6 Y50 E49.66466
G1 X-42.64 Y50.768 E49.70303
G1 X-42.759 Y51.528 E49.7414
G1 X-42.957 Y52.271 E49.77977
G1 X-43.231 Y52.99 E49.81815
G1 X-43.578 Y53.676 E49.85651
G1 X-43.994 Y54.323 E49.89488
G1 X-44.475 Y54.923 E49.93325
G1 X-45.016 Y55.47 E49.97163
G1 X-45.611 Y55.958 E50.01002
G1 X-46.253 Y56.381 E50.04838
G1 X-46.936 Y56.736 E50.08678
G1 X-47.651 Y57.017 E50.12511
G1 X-48.393 Y57.223 E50.16353
G1 X-49.151 Y57.351 E50.20188
G1 X-50 Y57.4 E50.24431
G1 X-70 Y57.4 E51.24211
G1 X-70.768 Y57.36 E51.28048
G1 X-71.528 Y57.241 E51.31886
G1 X-72.271 Y57.043 E51.35722
G1 X-72.99 Y56.769 E51.39561
G1 X-73.676 Y56.422 E51.43396
G1 X-74.323 Y56.006 E51.47234
G1 X-74.923 Y55.525 E51.5107
G1 X-75.47 Y54.984 E51.54909
G1 X-75.958 Y54.389 E51.58748
G1 X-76.381 Y53.747 E51.62583
G1 X-76.736 Y53.064 E51.66424
G1 X-77.017 Y52.349 E51.70256
G1 X-77.223 Y51.607 E51.74098
G1 X-77.351 Y50.849 E51.77934
G1 X-77.4 Y50 E51.82176
G1 X-77.4 Y42.4 E52.20093
G1 X-80 Y42.4 E52.33064
G1 X-80.768 Y42.36 E52.36901
G1 X-81.528 Y42.241 E52.40739
G1 X-82.271 Y42.043 E52.44575
G1 X-82.99 Y41.769 E52.48414
G1 X-83.676 Y41.422 E52.52249
G1 X-84.323 Y41.006 E52.56087
G1 X-84.923 Y40.525 E52.59923
G1 X-85.47 Y39.984 E52.63762
G1 X-85.958 Y39.389 E52.67601
G1 X-86.381 Y38.747 E52.71436
G1 X-86.736 Y38.064 E52.75277
G1 X-87.017 Y37.349 E52.7911
G1 X-87.223 Y36.607 E52.82951
G1 X-87.351 Y35.849 E52.86787
G1 X-87.4 Y35 E52.91029
G1 X-87.4 Y-35 E56.40261
G1 X-87.36 Y-35.768 E56.44098
G1 X-87.241 Y-36.528 E56.47935
G1 X-87.043 Y-37.271 E56.51772
G1 X-86.769 Y-37.99 E56.5561
G1 X-86.422 Y-38.676 E56.59446
G1 X-86.006 Y-39.323 E56.63283
G1 X-85.525 Y-39.923 E56.6712
G1 X-84.984 Y-40.47 E56.70958
G1 X-84.389 Y-40.958 E56.74797
G1 X-83.747 Y-41.381 E56.78633
G1 X-83.064 Y-41.736 E56.82473
G1 X-82.349 Y-42.017 E56.86306
G1 X-81.607 Y-42.223 E56.90148
G1 X-80.849 Y-42.351 E56.93983
G1 X-80 Y-42.4 E56.98226
G1 X-77.4 Y-42.4 E57.11197
G1 X-77.4 Y-50 E57.49114
G1 X-77.36 Y-50.768 E57.52951
G1 X-77.241 Y-51.528 E57.56788
G1 X-77.043 Y-52.271 E57.60625
G1 X-76.769 Y-52.99 E57.64463
G1 X-76.422 Y-53.676 E57.68299
G1 X-76.006 Y-54.323 E57.72136
G1 X-75.525 Y-54.923 E57.75973
G1 X-74.984 Y-55.47 E57.79811
G1 X-74.389 Y-55.958 E57.8365
G1 X-73.747 Y-56.381 E57.87486
G1 X-73.064 Y-56.736 E57.91326
G1 X-72.349 Y-57.017 E57.95159
G1 X-71.607 Y-57.223 E57.99001
G1 X-70.849 Y-57.351 E58.02836
G1 X-70 Y-57.4 E58.07079
G1 X-50 Y-57.4 E59.06859
G1 X-49.232 Y-57.36 E59.10696
G1 X-48.472 Y-57.241 E59.14534
G1 X-47.729 Y-57.043 E59.1837
G1 X-47.01 Y-56.769 E59.22209
G1 X-46.324 Y-56.422 E59.26044
G1 X-45.677 Y-56.006 E59.29882
G1 X-45.077 Y-55.525 E59.33718
G1 X-44.53 Y-54.984 E59.37557
G1 X-44.042 Y-54.389 E59.41396
G1 X-43.619 Y-53.747 E59.45231
G1 X-43.264 Y-53.064 E59.49072
G1 X-42.983 Y-52.349 E59.52905
G1 X-42.777 Y-51.607 E59.56746
G1 X-42.649 Y-50.849 E59.60582
G1 X-42.6 Y-50 E59.64824
G1 X-42.6 Y-42.4 E60.02741
G0 F3600 X-43 Y-42
G1 F1800 X43 Y-42 E64.31797
G1 X43 Y-50 E64.71709
G1 X43.04 Y-50.747 E64.75441
G1 X43.159 Y-51.485 E64.7917
G1 X43.357 Y-52.207 E64.82905
G1 X43.63 Y-52.903 E64.86635
G1 X43.977 Y-53.566 E64.90369
G1 X44.392 Y-54.189 E64.94103
G1 X44.871 Y-54.763 E64.97833
G1 X45.408 Y-55.284 E65.01566
G1 X45.998 Y-55.743 E65.05295
G1 X46.634 Y-56.138 E65.09031
G1 X47.308 Y-56.462 E65.12761
G1 X48.013 Y-56.712 E65.16493
G1 X48.741 Y-56.886 E65.20228
G1 X49.483 Y-56.981 E65.2396
G1 X50 Y-57 E65.26541
G1 X70 Y-57 E66.26321
G1 X70.747 Y-56.96 E66.30053
G1 X71.485 Y-56.841 E66.33783
G1 X72.207 Y-56.643 E66.37518
G1 X72.903 Y-56.37 E66.41248
G1 X73.566 Y-56.023 E66.44981
G1 X74.189 Y-55.608 E66.48716
G1 X74.763 Y-55.129 E66.52446
G1 X75.284 Y-54.592 E66.56178
G1 X75.743 Y-54.002 E66.59908
G1 X76.138 Y-53.366 E66.63643
G1 X76.462 Y-52.692 E66.67374
G1 X76.712 Y-51.987 E66.71106
G1 X76.886 Y-51.259 E66.7484
G1 X76.981 Y-50.517 E66.78572
G1 X77 Y-50 E66.81153
G1 X77 Y-42 E67.21065
G1 X80 Y-42 E67.36032
G1 X80.747 Y-41.96 E67.39765
G1 X81.485 Y-41.841 E67.43494
G1 X82.207 Y-41.643 E67.47229
G1 X82.903 Y-41.37 E67.50959
G1 X83.566 Y-41.023 E67.54692
G1 X84.189 Y-40.608 E67.58427
G1 X84.763 Y-40.129 E67.62157
G1 X85.284 Y-39.592 E67.6589
G1 X85.743 Y-39.002 E67.69619
G1 X86.138 Y-38.366 E67.73354
G1 X86.462 Y-37.692 E67.77085
G1 X86.712 Y-36.987 E67.80817
G1 X86.886 Y-36.259 E67.84551
G1 X86.981 Y-35.517 E67.88283
G1 X87 Y-35 E67.90864
G1 X87 Y35 E71.40096
G1 X86.96 Y35.747 E71.43828
G1 X86.841 Y36.485 E71.47557
G1 X86.643 Y37.207 E71.51293
G1 X86.37 Y37.903 E71.55022
G1 X86.023 Y38.566 E71.58756
G1 X85.608 Y39.189 E71.6249
G1 X85.129 Y39.763 E71.6622
G1 X84.592 Y40.284 E71.69953
G1 X84.002 Y40.743 E71.73682
G1 X83.366 Y41.138 E71.77418
G1 X82.692 Y41.462 E71.81149
G1 X81.987 Y41.712 E71.8488
G1 X81.259 Y41.886 E71.88615
G1 X80.517 Y41.981 E71.92347
G1 X80 Y42 E71.94928
G1 X77 Y42 E72.09895
G1 X77 Y50 E72.49807
G1 X76.96 Y50.747 E72.53539
G1 X76.841 Y51.485 E72.57269
G1 X76.643 Y52.207 E72.61004
G1 X76.37 Y52.903 E72.64734
G1 X76.023 Y53.566 E72.68467
G1 X75.608 Y54.189 E72.72202
G1 X75.129 Y54.763 E72.75931
G1 X74.592 Y55.284 E72.79664
G1 X74.002 Y55.743 E72.83394
G1 X73.366 Y56.138 E72.87129
G1 X72.692 Y56.462 E72.9086
G1 X71.987 Y56.712 E72.94592
G1 X71.259 Y56.886 E72.98326
G1 X70.517 Y56.981 E73.02058
G1 X70 Y57 E73.04639
G1 X50 Y57 E74.04419
G1 X49.253 Y56.96 E74.08152
G1 X48.515 Y56.841 E74.11881
G1 X47.793 Y56.643 E74.15616
G1 X47.097 Y56.37 E74.19346
G1 X46.434 Y56.023 E74.23079
G1 X45.811 Y55.608 E74.26814
G1 X45.237 Y55.129 E74.30544
G1 X44.716 Y54.592 E74.34277
G1 X44.257 Y54.002 E74.38006
G1 X43.862 Y53.366 E74.41741
G1 X43.538 Y52.692 E74.45472
G1 X43.288 Y51.987 E74.49204
G1 X43.114 Y51.259 E74.52938
G1 X43.019 Y50.517 E74.5667
G1 X43 Y50 E74.59252
G1 X43 Y42 E74.99164
G1 X-43 Y42 E79.28219
G1 X-43 Y50 E79.68132
G1 X-43.04 Y50.747 E79.71864
G1 X-43.159 Y51.485 E79.75593
G1 X-43.357 Y52.207 E79.79328
G1 X-43.63 Y52.903 E79.83058
G1 X-43.977 Y53.566 E79.86792
G1 X-44.392 Y54.189 E79.90526
G1 X-44.871 Y54.763 E79.94256
G1 X-45.408 Y55.284 E79.97989
G1 X-45.998 Y55.743 E80.01718
G1 X-46.634 Y56.138 E80.05453
G1 X-47.308 Y56.462 E80.09184
G1 X-48.013 Y56.712 E80.12916
G1 X-48.741 Y56.886 E80.1665
G1 X-49.483 Y56.981 E80.20383
G1 X-50 Y57 E80.22964
G1 X-70 Y57 E81.22744
G1 X-70.747 Y56.96 E81.26476
G1 X-71.485 Y56.841 E81.30206
G1 X-72.207 Y56.643 E81.33941
G1 X-72.903 Y56.37 E81.37671
G1 X-73.566 Y56.023 E81.41404
G1 X-74.189 Y55.608 E81.45139
G1 X-74.763 Y55.129 E81.48868
G1 X-75.284 Y54.592 E81.52601
G1 X-75.743 Y54.002 E81.56331
G1 X-76.138 Y53.366 E81.60066
G1 X-76.462 Y52.692 E81.63797
G1 X-76.712 Y51.987 E81.67529
