;FLAVOR:Marlin
;TIME:6392
;Filament used: 14.4133m
;Layer height: 0.3
;MINX:-31.8
;MINY:-44.8
;MINZ:0.3
;MAXX:31.8
;MAXY:52.8
;MAXZ:19.8
;Generated with Cura_SteamEngine 4.7.1
M140 S50
M105
M190 S50
M104 S250
M105
M109 S250
M82 ;absolute extrusion mode
G28 ;Home
G1 Z15.0 F6000 ;Move the platform down 15mm
;Prime the extruder
G92 E0
G1 F200 E3
G92 E0
G92 E0
G92 E0
G1 F1500 E-6.5
;LAYER_COUNT:66
;LAYER:0
M107
G0 F3600 X-6.8 Y-22.2 Z0.3
;TYPE:SKIRT
G1 F1500 E0
G1 F1800 X-24 Y-22.2 E0.85811
G1 X-24.789 Y-22.24 E0.89753
G1 X-25.569 Y-22.359 E0.93689
G1 X-26.334 Y-22.557 E0.97631
G1 X-27.074 Y-22.831 E1.01568
G1 X-27.783 Y-23.179 E1.05509
G1 X-28.454 Y-23.597 E1.09453
G1 X-29.078 Y-24.08 E1.13389
G1 X-29.651 Y-24.623 E1.17328
G1 X-30.166 Y-25.222 E1.21269
G1 X-30.617 Y-25.87 E1.25208
G1 X-31.001 Y-26.561 E1.29152
G1 X-31.313 Y-27.286 E1.33089
G1 X-31.55 Y-28.039 E1.37028
G1 X-31.709 Y-28.813 E1.4097
G1 X-31.79 Y-29.598 E1.44907
G1 X-31.8 Y-30 E1.46913
G1 X-31.8 Y-36.524 E1.79462
G1 X-31.76 Y-37.313 E1.83403
G1 X-31.641 Y-38.093 E1.8734
G1 X-31.443 Y-38.858 E1.91282
G1 X-31.169 Y-39.598 E1.95219
G1 X-30.821 Y-40.307 E1.99159
G1 X-30.403 Y-40.978 E2.03103
G1 X-29.92 Y-41.602 E2.0704
G1 X-29.377 Y-42.175 E2.10978
G1 X-28.778 Y-42.69 E2.14919
G1 X-28.13 Y-43.141 E2.18858
G1 X-27.439 Y-43.525 E2.22802
G1 X-26.714 Y-43.837 E2.2674
G1 X-25.961 Y-44.074 E2.30678
G1 X-25.187 Y-44.233 E2.34621
G1 X-24.402 Y-44.314 E2.38558
G1 X-24 Y-44.324 E2.40564
G1 X19 Y-44.325 E4.55092
G1 X19.788 Y-44.285 E4.59028
G1 X20.569 Y-44.166 E4.6297
G1 X21.334 Y-43.968 E4.66912
G1 X22.074 Y-43.694 E4.70849
G1 X22.783 Y-43.346 E4.74789
G1 X23.454 Y-42.929 E4.78731
G1 X24.078 Y-42.445 E4.8267
G1 X24.651 Y-41.902 E4.86609
G1 X25.165 Y-41.303 E4.90547
G1 X25.617 Y-40.655 E4.94488
G1 X26.001 Y-39.965 E4.98428
G1 X26.313 Y-39.239 E5.0237
G1 X26.55 Y-38.486 E5.06309
G1 X26.709 Y-37.712 E5.10251
G1 X26.753 Y-37.288 E5.12378
G1 X27.074 Y-37.169 E5.14085
G1 X27.783 Y-36.821 E5.18026
G1 X28.454 Y-36.403 E5.2197
G1 X29.078 Y-35.92 E5.25907
G1 X29.651 Y-35.377 E5.29845
G1 X30.166 Y-34.778 E5.33786
G1 X30.617 Y-34.13 E5.37725
G1 X31.001 Y-33.439 E5.41669
G1 X31.313 Y-32.714 E5.45607
G1 X31.55 Y-31.961 E5.49545
G1 X31.709 Y-31.187 E5.53487
G1 X31.79 Y-30.402 E5.57424
G1 X31.8 Y-30 E5.59431
G1 X31.8 Y45 E9.33607
G1 X31.76 Y45.789 E9.37549
G1 X31.641 Y46.569 E9.41485
G1 X31.443 Y47.334 E9.45427
G1 X31.169 Y48.074 E9.49364
G1 X30.821 Y48.783 E9.53305
G1 X30.403 Y49.454 E9.57249
G1 X29.92 Y50.078 E9.61185
G1 X29.377 Y50.651 E9.65124
G1 X28.778 Y51.166 E9.69065
G1 X28.13 Y51.617 E9.73004
G1 X27.439 Y52.001 E9.76948
G1 X26.714 Y52.313 E9.80885
G1 X25.961 Y52.55 E9.84824
G1 X25.187 Y52.709 E9.88766
G1 X24.402 Y52.79 E9.92703
G1 X24 Y52.8 E9.94709
G1 X14 Y52.8 E10.446
G1 X13.211 Y52.76 E10.48541
G1 X12.481 Y52.649 E10.52225
G1 X12.187 Y52.709 E10.53722
G1 X11.402 Y52.79 E10.57659
G1 X11 Y52.8 E10.59665
G1 X1 Y52.8 E11.09555
G1 X0.211 Y52.76 E11.13497
G1 X-.569 Y52.641 E11.17433
G1 X-1.334 Y52.443 E11.21376
G1 X-2.074 Y52.169 E11.25312
G1 X-2.783 Y51.821 E11.29253
G1 X-3.454 Y51.403 E11.33197
G1 X-4.078 Y50.92 E11.37134
G1 X-4.651 Y50.377 E11.41072
G1 X-5.166 Y49.778 E11.45013
G1 X-5.617 Y49.13 E11.48952
G1 X-6.001 Y48.439 E11.52896
G1 X-6.313 Y47.714 E11.56834
G1 X-6.55 Y46.961 E11.60772
G1 X-6.709 Y46.187 E11.64714
G1 X-6.79 Y45.402 E11.68651
G1 X-6.8 Y45 E11.70658
G1 X-6.8 Y-22.2 E15.0592
G0 F3600 X-6.4 Y-22.6
G1 F1800 X-24 Y-22.6 E15.93727
G1 X-24.768 Y-22.64 E15.97563
G1 X-25.528 Y-22.759 E16.01401
G1 X-26.271 Y-22.957 E16.05237
G1 X-26.99 Y-23.231 E16.09076
G1 X-27.676 Y-23.578 E16.12911
G1 X-28.323 Y-23.994 E16.16749
G1 X-28.923 Y-24.475 E16.20586
G1 X-29.47 Y-25.016 E16.24424
G1 X-29.958 Y-25.611 E16.28263
G1 X-30.381 Y-26.253 E16.32099
G1 X-30.736 Y-26.936 E16.35939
G1 X-31.017 Y-27.651 E16.39772
G1 X-31.223 Y-28.393 E16.43614
G1 X-31.351 Y-29.151 E16.47449
G1 X-31.4 Y-30 E16.51692
G1 X-31.4 Y-36.524 E16.8424
G1 X-31.36 Y-37.292 E16.88077
G1 X-31.241 Y-38.052 E16.91915
G1 X-31.043 Y-38.795 E16.95751
G1 X-30.769 Y-39.514 E16.9959
G1 X-30.422 Y-40.2 E17.03425
G1 X-30.006 Y-40.847 E17.07262
G1 X-29.525 Y-41.447 E17.11099
G1 X-28.984 Y-41.994 E17.14937
G1 X-28.389 Y-42.482 E17.18776
G1 X-27.747 Y-42.905 E17.22612
G1 X-27.064 Y-43.26 E17.26452
G1 X-26.349 Y-43.541 E17.30285
G1 X-25.607 Y-43.747 E17.34127
G1 X-24.849 Y-43.875 E17.37962
G1 X-24 Y-43.924 E17.42205
G1 X19 Y-43.925 E19.56733
G1 X19.768 Y-43.885 E19.6057
G1 X20.528 Y-43.766 E19.64407
G1 X21.271 Y-43.568 E19.68244
G1 X21.99 Y-43.294 E19.72082
G1 X22.676 Y-42.947 E19.75918
G1 X23.323 Y-42.531 E19.79755
G1 X23.923 Y-42.05 E19.83592
G1 X24.47 Y-41.509 E19.8743
G1 X24.958 Y-40.914 E19.91269
G1 X25.381 Y-40.272 E19.95105
G1 X25.736 Y-39.589 E19.98945
G1 X26.017 Y-38.874 E20.02778
G1 X26.223 Y-38.133 E20.06615
G1 X26.351 Y-37.374 E20.10455
G1 X26.372 Y-37.004 E20.12304
G1 X26.99 Y-36.769 E20.15603
G1 X27.676 Y-36.422 E20.19438
G1 X28.323 Y-36.006 E20.23276
G1 X28.923 Y-35.525 E20.27112
G1 X29.47 Y-34.984 E20.30951
G1 X29.958 Y-34.389 E20.3479
G1 X30.381 Y-33.747 E20.38625
G1 X30.736 Y-33.064 E20.42466
G1 X31.017 Y-32.349 E20.46298
G1 X31.223 Y-31.607 E20.5014
G1 X31.351 Y-30.849 E20.53976
G1 X31.4 Y-30 E20.58218
G1 X31.4 Y45 E24.32395
G1 X31.36 Y45.768 E24.36232
G1 X31.241 Y46.528 E24.40069
G1 X31.043 Y47.271 E24.43906
G1 X30.769 Y47.99 E24.47744
G1 X30.422 Y48.676 E24.5158
G1 X30.006 Y49.323 E24.55417
G1 X29.525 Y49.923 E24.59254
G1 X28.984 Y50.47 E24.63092
G1 X28.389 Y50.958 E24.66931
G1 X27.747 Y51.381 E24.70767
G1 X27.064 Y51.736 E24.74607
G1 X26.349 Y52.017 E24.7844
G1 X25.607 Y52.223 E24.82282
G1 X24.849 Y52.351 E24.86117
G1 X24 Y52.4 E24.9036
G1 X14 Y52.4 E25.4025
G1 X13.232 Y52.36 E25.44087
G1 X12.487 Y52.243 E25.47849
G1 X11.849 Y52.351 E25.51078
G1 X11 Y52.4 E25.5532
G1 X1 Y52.4 E26.0521
G1 X0.232 Y52.36 E26.09047
G1 X-.528 Y52.241 E26.12885
G1 X-1.271 Y52.043 E26.16721
G1 X-1.99 Y51.769 E26.2056
G1 X-2.676 Y51.422 E26.24395
G1 X-3.323 Y51.006 E26.28233
G1 X-3.923 Y50.525 E26.3207
G1 X-4.47 Y49.984 E26.35908
G1 X-4.958 Y49.389 E26.39747
G1 X-5.381 Y48.747 E26.43583
G1 X-5.736 Y48.064 E26.47423
G1 X-6.017 Y47.349 E26.51256
G1 X-6.223 Y46.607 E26.55098
G1 X-6.351 Y45.849 E26.58933
G1 X-6.4 Y45 E26.63175
G1 X-6.4 Y-22.6 E30.00433
G0 F3600 X-6 Y-23
G1 F1800 X-24 Y-23 E30.90236
G1 X-24.747 Y-23.04 E30.93968
G1 X-25.485 Y-23.159 E30.97697
G1 X-26.207 Y-23.357 E31.01432
G1 X-26.903 Y-23.63 E31.05162
G1 X-27.566 Y-23.977 E31.08896
G1 X-28.189 Y-24.392 E31.1263
G1 X-28.763 Y-24.871 E31.1636
G1 X-29.284 Y-25.408 E31.20093
G1 X-29.743 Y-25.998 E31.23822
G1 X-30.138 Y-26.634 E31.27557
G1 X-30.462 Y-27.308 E31.31288
G1 X-30.712 Y-28.013 E31.3502
G1 X-30.886 Y-28.741 E31.38754
G1 X-30.981 Y-29.483 E31.42487
G1 X-31 Y-30 E31.45068
G1 X-31 Y-36.524 E31.77616
G1 X-30.96 Y-37.271 E31.81348
G1 X-30.841 Y-38.009 E31.85078
G1 X-30.643 Y-38.731 E31.88813
G1 X-30.37 Y-39.427 E31.92543
G1 X-30.023 Y-40.09 E31.96276
G1 X-29.608 Y-40.713 E32.00011
G1 X-29.129 Y-41.287 E32.0374
G1 X-28.592 Y-41.808 E32.07473
G1 X-28.002 Y-42.267 E32.11203
G1 X-27.366 Y-42.662 E32.14938
G1 X-26.692 Y-42.986 E32.18669
G1 X-25.987 Y-43.236 E32.22401
G1 X-25.259 Y-43.41 E32.26135
G1 X-24.517 Y-43.505 E32.29867
G1 X-24 Y-43.524 E32.32448
G1 X19 Y-43.525 E34.46976
G1 X19.747 Y-43.485 E34.50708
G1 X20.485 Y-43.366 E34.54437
G1 X21.207 Y-43.168 E34.58173
G1 X21.903 Y-42.895 E34.61902
G1 X22.566 Y-42.548 E34.65636
G1 X23.189 Y-42.133 E34.6937
G1 X23.763 Y-41.654 E34.731
G1 X24.283 Y-41.117 E34.7683
G1 X24.743 Y-40.527 E34.80562
G1 X25.138 Y-39.891 E34.84297
G1 X25.462 Y-39.217 E34.88028
G1 X25.712 Y-38.512 E34.9176
G1 X25.886 Y-37.784 E34.95494
G1 X25.981 Y-37.042 E34.99226
G1 X25.994 Y-36.702 E35.00924
G1 X26.207 Y-36.643 E35.02027
G1 X26.903 Y-36.37 E35.05757
G1 X27.566 Y-36.023 E35.0949
G1 X28.189 Y-35.608 E35.13225
G1 X28.763 Y-35.129 E35.16954
G1 X29.284 Y-34.592 E35.20687
G1 X29.743 Y-34.002 E35.24417
G1 X30.138 Y-33.366 E35.28152
G1 X30.462 Y-32.692 E35.31883
G1 X30.712 Y-31.987 E35.35614
G1 X30.886 Y-31.259 E35.39349
G1 X30.981 Y-30.517 E35.43081
G1 X31 Y-30 E35.45662
G1 X31 Y45 E39.19838
G1 X30.96 Y45.747 E39.23571
G1 X30.841 Y46.485 E39.273
G1 X30.643 Y47.207 E39.31035
G1 X30.37 Y47.903 E39.34765
G1 X30.023 Y48.566 E39.38498
G1 X29.608 Y49.189 E39.42233
G1 X29.129 Y49.763 E39.45963
G1 X28.592 Y50.284 E39.49696
G1 X28.002 Y50.743 E39.53425
G1 X27.366 Y51.138 E39.5716
G1 X26.692 Y51.462 E39.60891
G1 X25.987 Y51.712 E39.64623
G1 X25.259 Y51.886 E39.68357
G1 X24.517 Y51.981 E39.72089
G1 X24 Y52 E39.7467
G1 X14 Y52 E40.24561
G1 X13.253 Y51.96 E40.28293
G1 X12.515 Y51.841 E40.32022
G1 X12.259 Y51.886 E40.33319
G1 X11.517 Y51.981 E40.37051
G1 X11 Y52 E40.39632
G1 X1 Y52 E40.89522
G1 X0.253 Y51.96 E40.93255
G1 X-.485 Y51.841 E40.96984
G1 X-1.207 Y51.643 E41.00719
G1 X-1.903 Y51.37 E41.04449
G1 X-2.566 Y51.023 E41.08182
G1 X-3.189 Y50.608 E41.11917
G1 X-3.763 Y50.129 E41.15647
G1 X-4.284 Y49.592 E41.1938
G1 X-4.743 Y49.002 E41.23109
G1 X-5.138 Y48.366 E41.26844
G1 X-5.462 Y47.692 E41.30575
G1 X-5.712 Y46.987 E41.34307
G1 X-5.886 Y46.259 E41.38041
G1 X-5.981 Y45.517 E41.41773
G1 X-6 Y45 E41.44354
G1 X-6 Y-23 E44.83608
G0 F3600 X-5.6 Y-23.4
G1 F1800 X-24 Y-23.4 E45.75406
G1 X-24.725 Y-23.44 E45.79028
G1 X-25.442 Y-23.559 E45.82654
G1 X-26.141 Y-23.757 E45.86279
G1 X-26.814 Y-24.03 E45.89902
G1 X-27.453 Y-24.375 E45.93525
G1 X-28.05 Y-24.789 E45.9715
G1 X-28.598 Y-25.265 E46.00771
G1 X-29.091 Y-25.799 E46.04397
G1 X-29.521 Y-26.384 E46.08019
G1 X-29.885 Y-27.013 E46.11645
G1 X-30.178 Y-27.678 E46.1527
G1 X-30.396 Y-28.371 E46.18895
G1 X-30.536 Y-29.083 E46.22515
G1 X-30.6 Y-30 E46.27101
G1 X-30.6 Y-36.524 E46.59649
G1 X-30.56 Y-37.249 E46.63272
G1 X-30.441 Y-37.966 E46.66898
G1 X-30.243 Y-38.665 E46.70522
G1 X-29.97 Y-39.338 E46.74146
G1 X-29.625 Y-39.977 E46.77769
G1 X-29.211 Y-40.574 E46.81393
G1 X-28.735 Y-41.122 E46.85015
G1 X-28.201 Y-41.615 E46.88641
G1 X-27.616 Y-42.045 E46.92263
G1 X-26.987 Y-42.409 E46.95888
G1 X-26.322 Y-42.702 E46.99514
G1 X-25.629 Y-42.92 E47.03138
G1 X-24.917 Y-43.06 E47.06759
G1 X-24 Y-43.124 E47.11345
G1 X19 Y-43.125 E49.25872
G1 X19.725 Y-43.085 E49.29495
G1 X20.442 Y-42.966 E49.33121
G1 X21.141 Y-42.768 E49.36746
G1 X21.814 Y-42.495 E49.40369
G1 X22.453 Y-42.15 E49.43992
G1 X23.05 Y-41.736 E49.47616
G1 X23.598 Y-41.26 E49.51238
G1 X24.09 Y-40.726 E49.5486
G1 X24.521 Y-40.141 E49.58485
G1 X24.885 Y-39.512 E49.62111
G1 X25.178 Y-38.848 E49.65732
G1 X25.396 Y-38.155 E49.69356
G1 X25.536 Y-37.442 E49.72982
G1 X25.6 Y-36.525 E49.77568
G1 X25.6 Y-36.396 E49.78211
G1 X26.141 Y-36.243 E49.81016
G1 X26.814 Y-35.97 E49.84639
G1 X27.453 Y-35.625 E49.88262
G1 X28.05 Y-35.211 E49.91887
G1 X28.598 Y-34.735 E49.95508
G1 X29.091 Y-34.201 E49.99134
G1 X29.521 Y-33.616 E50.02756
G1 X29.885 Y-32.987 E50.06382
G1 X30.178 Y-32.322 E50.10007
G1 X30.396 Y-31.629 E50.13632
G1 X30.536 Y-30.917 E50.17252
G1 X30.6 Y-30 E50.21838
G1 X30.6 Y45 E53.96015
G1 X30.56 Y45.725 E53.99637
G1 X30.441 Y46.442 E54.03263
G1 X30.243 Y47.141 E54.06888
G1 X29.97 Y47.814 E54.10511
G1 X29.625 Y48.453 E54.14134
G1 X29.211 Y49.05 E54.17759
G1 X28.735 Y49.598 E54.2138
G1 X28.201 Y50.091 E54.25006
G1 X27.616 Y50.521 E54.28628
G1 X26.987 Y50.885 E54.32254
G1 X26.322 Y51.178 E54.35879
G1 X25.629 Y51.396 E54.39504
G1 X24.917 Y51.536 E54.43124
G1 X24 Y51.6 E54.4771
G1 X14 Y51.6 E54.976
G1 X13.275 Y51.56 E55.01223
G1 X12.558 Y51.441 E55.04849
G1 X12.493 Y51.423 E55.05185
G1 X11.917 Y51.536 E55.08114
G1 X11 Y51.6 E55.127
G1 X1 Y51.6 E55.6259
G1 X0.275 Y51.56 E55.66212
G1 X-.442 Y51.441 E55.69839
G1 X-1.141 Y51.243 E55.73463
G1 X-1.814 Y50.97 E55.77086
G1 X-2.453 Y50.625 E55.80709
G1 X-3.05 Y50.211 E55.84334
G1 X-3.598 Y49.735 E55.87955
G1 X-4.091 Y49.201 E55.91581
G1 X-4.521 Y48.616 E55.95203
G1 X-4.885 Y47.987 E55.98829
G1 X-5.178 Y47.322 E56.02454
G1 X-5.396 Y46.629 E56.06079
G1 X-5.536 Y45.917 E56.09699
G1 X-5.6 Y45 E56.14285
G1 X-5.6 Y-23.4 E59.55534
G0 F3600 X-5.2 Y-23.8
G1 F1800 X-24 Y-23.8 E60.49328
G1 X-24.703 Y-23.84 E60.52841
G1 X-25.397 Y-23.959 E60.56354
G1 X-26.072 Y-24.157 E60.59863
G1 X-26.721 Y-24.429 E60.63374
G1 X-27.335 Y-24.774 E60.66888
G1 X-27.906 Y-25.185 E60.70397
G1 X-28.427 Y-25.659 E60.73912
G1 X-28.891 Y-26.189 E60.77426
G1 X-29.291 Y-26.768 E60.80937
G1 X-29.623 Y-27.389 E60.8445
G1 X-29.883 Y-28.043 E60.87961
G1 X-30.067 Y-28.723 E60.91476
G1 X-30.173 Y-29.419 E60.94988
G1 X-30.2 Y-30 E60.9789
G1 X-30.2 Y-36.524 E61.30438
G1 X-30.16 Y-37.227 E61.33951
G1 X-30.041 Y-37.921 E61.37464
G1 X-29.843 Y-38.596 E61.40974
G1 X-29.571 Y-39.245 E61.44484
G1 X-29.226 Y-39.859 E61.47998
G1 X-28.815 Y-40.43 E61.51508
G1 X-28.341 Y-40.951 E61.55022
G1 X-27.811 Y-41.415 E61.58536
G1 X-27.232 Y-41.815 E61.62047
G1 X-26.611 Y-42.147 E61.6556
G1 X-25.957 Y-42.407 E61.69072
G1 X-25.277 Y-42.591 E61.72586
G1 X-24.581 Y-42.697 E61.76099
G1 X-24 Y-42.724 E61.79
G1 X19 Y-42.725 E63.93528
G1 X19.703 Y-42.685 E63.97041
G1 X20.397 Y-42.566 E64.00554
G1 X21.072 Y-42.368 E64.04064
G1 X21.721 Y-42.096 E64.07574
G1 X22.335 Y-41.751 E64.11088
G1 X22.906 Y-41.34 E64.14598
G1 X23.427 Y-40.866 E64.18112
G1 X23.89 Y-40.336 E64.21623
G1 X24.291 Y-39.757 E64.25137
G1 X24.623 Y-39.136 E64.2865
G1 X24.883 Y-38.482 E64.32161
G1 X25.067 Y-37.802 E64.35676
G1 X25.173 Y-37.106 E64.39188
G1 X25.2 Y-36.525 E64.4209
G1 X25.2 Y-36.075 E64.44335
G1 X25.397 Y-36.041 E64.45332
G1 X26.072 Y-35.843 E64.48842
G1 X26.721 Y-35.571 E64.52352
G1 X27.335 Y-35.226 E64.55866
G1 X27.906 Y-34.815 E64.59376
G1 X28.427 Y-34.341 E64.6289
G1 X28.891 Y-33.811 E64.66405
G1 X29.291 Y-33.232 E64.69915
G1 X29.623 Y-32.611 E64.73429
G1 X29.883 Y-31.957 E64.7694
G1 X30.067 Y-31.277 E64.80454
G1 X30.173 Y-30.581 E64.83967
G1 X30.2 Y-30 E64.86868
G1 X30.2 Y45 E68.61045
G1 X30.16 Y45.703 E68.64558
G1 X30.041 Y46.397 E68.68071
G1 X29.843 Y47.072 E68.7158
G1 X29.571 Y47.721 E68.75091
G1 X29.226 Y48.335 E68.78605
G1 X28.815 Y48.906 E68.82115
G1 X28.341 Y49.427 E68.85629
G1 X27.811 Y49.891 E68.89143
G1 X27.232 Y50.291 E68.92654
G1 X26.611 Y50.623 E68.96167
G1 X25.957 Y50.883 E68.99678
G1 X25.277 Y51.067 E69.03193
G1 X24.581 Y51.173 E69.06705
G1 X24 Y51.2 E69.09607
G1 X14 Y51.2 E69.59497
G1 X13.297 Y51.16 E69.6301
G1 X12.603 Y51.041 E69.66523
G1 X12.493 Y51.009 E69.67095
G1 X12.277 Y51.067 E69.68211
G1 X11.581 Y51.173 E69.71723
G1 X11 Y51.2 E69.74625
G1 X1 Y51.2 E70.24515
G1 X0.297 Y51.16 E70.28028
G1 X-.397 Y51.041 E70.31541
G1 X-1.072 Y50.843 E70.3505
G1 X-1.721 Y50.571 E70.38561
G1 X-2.335 Y50.226 E70.42075
G1 X-2.906 Y49.815 E70.45585
G1 X-3.427 Y49.341 E70.49099
G1 X-3.891 Y48.811 E70.52613
G1 X-4.291 Y48.232 E70.56124
G1 X-4.623 Y47.611 E70.59637
G1 X-4.883 Y46.957 E70.63148
G1 X-5.067 Y46.277 E70.66663
G1 X-5.173 Y45.581 E70.70175
G1 X-5.2 Y45 E70.73077
G1 X-5.2 Y-23.8 E74.16322
G0 F3600 X-4.8 Y-24.2
G1 F1800 X-24 Y-24.2 E75.12111
G1 X-24.68 Y-24.24 E75.15509
G1 X-25.35 Y-24.359 E75.18904
G1 X-26.002 Y-24.556 E75.22302
G1 X-26.626 Y-24.828 E75.25698
G1 X-27.214 Y-25.172 E75.29097
G1 X-27.758 Y-25.582 E75.32495
G1 X-28.249 Y-26.053 E75.3589
G1 X-28.683 Y-26.578 E75.39288
G1 X-29.052 Y-27.15 E75.42684
G1 X-29.351 Y-27.762 E75.46082
G1 X-29.576 Y-28.404 E75.49476
G1 X-29.725 Y-29.069 E75.52876
G1 X-29.8 Y-30 E75.57536
G1 X-29.8 Y-36.524 E75.90085
G1 X-29.76 Y-37.204 E75.93483
G1 X-29.641 Y-37.874 E75.96878
G1 X-29.444 Y-38.526 E76.00276
G1 X-29.172 Y-39.15 E76.03672
G1 X-28.828 Y-39.738 E76.07071
G1 X-28.418 Y-40.282 E76.10469
G1 X-27.947 Y-40.773 E76.13864
G1 X-27.422 Y-41.207 E76.17262
G1 X-26.85 Y-41.576 E76.20658
G1 X-26.238 Y-41.875 E76.24056
G1 X-25.596 Y-42.1 E76.2745
G1 X-24.931 Y-42.249 E76.3085
G1 X-24 Y-42.324 E76.3551
G1 X19 Y-42.325 E78.50038
G1 X19.68 Y-42.285 E78.53436
G1 X20.35 Y-42.166 E78.56831
G1 X21.002 Y-41.969 E78.60229
G1 X21.626 Y-41.697 E78.63625
G1 X22.214 Y-41.353 E78.67024
G1 X22.757 Y-40.943 E78.70419
G1 X23.249 Y-40.473 E78.73813
G1 X23.683 Y-39.947 E78.77215
G1 X24.051 Y-39.375 E78.80609
G1 X24.351 Y-38.763 E78.84009
G1 X24.576 Y-38.121 E78.87403
G1 X24.725 Y-37.456 E78.90803
