;FLAVOR:Marlin
;TIME:8401
;Filament used: 18.6724m
;Layer height: 0.3
;MINX:-56.8
;MINY:-44.8
;MINZ:0.3
;MAXX:56.8
;MAXY:52.8
;MAXZ:19.8
;Generated with Cura_SteamEngine 4.7.1
M140 S50
M105
M190 S50
M104 S250
M105
M109 S250
M82 ;absolute extrusion mode
G28 ;Home
G1 Z15.0 F6000 ;Move the platform down 15mm
;Prime the extruder
G92 E0
G1 F200 E3
G92 E0
G92 E0
G92 E0
G1 F1500 E-6.5
;LAYER_COUNT:66
;LAYER:0
M107
G0 F3600 X6.8 Y-2.2 Z0.3
;TYPE:SKIRT
G1 F1500 E0
G1 F1800 X6.8 Y45 E2.35482
G1 X6.76 Y45.789 E2.39423
G1 X6.641 Y46.569 E2.4336
G1 X6.443 Y47.334 E2.47302
G1 X6.169 Y48.074 E2.51239
G1 X5.821 Y48.783 E2.55179
G1 X5.403 Y49.454 E2.59123
G1 X4.92 Y50.078 E2.6306
G1 X4.377 Y50.651 E2.66998
G1 X3.778 Y51.166 E2.70939
G1 X3.13 Y51.617 E2.74878
G1 X2.439 Y52.001 E2.78822
G1 X1.714 Y52.313 E2.8276
G1 X0.961 Y52.55 E2.86698
G1 X0.187 Y52.709 E2.90641
G1 X-.598 Y52.79 E2.94578
G1 X-1 Y52.8 E2.96584
G1 X-11 Y52.8 E3.46474
G1 X-11.789 Y52.76 E3.50416
G1 X-12.519 Y52.649 E3.54099
G1 X-12.813 Y52.709 E3.55596
G1 X-13.598 Y52.79 E3.59534
G1 X-14 Y52.8 E3.6154
G1 X-24 Y52.8 E4.1143
G1 X-24.789 Y52.76 E4.15371
G1 X-25.569 Y52.641 E4.19308
G1 X-26.334 Y52.443 E4.2325
G1 X-27.074 Y52.169 E4.27187
G1 X-27.783 Y51.821 E4.31127
G1 X-28.454 Y51.403 E4.35071
G1 X-29.078 Y50.92 E4.39008
G1 X-29.651 Y50.377 E4.42947
G1 X-30.166 Y49.778 E4.46888
G1 X-30.617 Y49.13 E4.50827
G1 X-31.001 Y48.439 E4.54771
G1 X-31.313 Y47.714 E4.58708
G1 X-31.55 Y46.961 E4.62647
G1 X-31.709 Y46.187 E4.66589
G1 X-31.79 Y45.402 E4.70526
G1 X-31.8 Y45 E4.72532
G1 X-31.8 Y-2.2 E7.08014
G1 X-49 Y-2.2 E7.93825
G1 X-49.789 Y-2.24 E7.97766
G1 X-50.569 Y-2.359 E8.01703
G1 X-51.334 Y-2.557 E8.05645
G1 X-52.074 Y-2.831 E8.09582
G1 X-52.783 Y-3.179 E8.13522
G1 X-53.454 Y-3.597 E8.17467
G1 X-54.078 Y-4.08 E8.21403
G1 X-54.651 Y-4.623 E8.25342
G1 X-55.166 Y-5.222 E8.29283
G1 X-55.617 Y-5.87 E8.33222
G1 X-56.001 Y-6.561 E8.37166
G1 X-56.313 Y-7.286 E8.41103
G1 X-56.55 Y-8.039 E8.45042
G1 X-56.709 Y-8.813 E8.48984
G1 X-56.79 Y-9.598 E8.52921
G1 X-56.8 Y-10 E8.54927
G1 X-56.8 Y-36.524 E9.87256
G1 X-56.76 Y-37.313 E9.91197
G1 X-56.641 Y-38.093 E9.95134
G1 X-56.443 Y-38.858 E9.99076
G1 X-56.169 Y-39.598 E10.03013
G1 X-55.821 Y-40.307 E10.06953
G1 X-55.403 Y-40.978 E10.10898
G1 X-54.92 Y-41.602 E10.14834
G1 X-54.377 Y-42.175 E10.18773
G1 X-53.778 Y-42.69 E10.22714
G1 X-53.13 Y-43.141 E10.26653
G1 X-52.439 Y-43.525 E10.30597
G1 X-51.714 Y-43.837 E10.34534
G1 X-50.961 Y-44.074 E10.38473
G1 X-50.187 Y-44.233 E10.42415
G1 X-49.402 Y-44.314 E10.46352
G1 X-49.001 Y-44.324 E10.48353
G1 X-34.001 Y-44.325 E11.23189
G1 X-33.212 Y-44.285 E11.2713
G1 X-32.431 Y-44.166 E11.31071
G1 X-31.667 Y-43.968 E11.35009
G1 X-30.926 Y-43.694 E11.3895
G1 X-30.217 Y-43.346 E11.42891
G1 X-29.547 Y-42.929 E11.46828
G1 X-28.922 Y-42.446 E11.50769
G1 X-28.349 Y-41.902 E11.54711
G1 X-27.835 Y-41.303 E11.58648
G1 X-27.383 Y-40.655 E11.6259
G1 X-27 Y-39.965 E11.66527
G1 X-26.688 Y-39.239 E11.7047
G1 X-26.451 Y-38.486 E11.74408
G1 X-26.291 Y-37.713 E11.78346
G1 X-26.21 Y-36.927 E11.82288
G1 X-26.2 Y-36.525 E11.84295
G1 X-26.2 Y-27.8 E12.27824
G1 X26.2 Y-27.8 E14.89248
G1 X26.2 Y-36.524 E15.32773
G1 X26.24 Y-37.313 E15.36714
G1 X26.359 Y-38.093 E15.4065
G1 X26.557 Y-38.858 E15.44593
G1 X26.831 Y-39.598 E15.4853
G1 X27.179 Y-40.307 E15.5247
G1 X27.597 Y-40.978 E15.56414
G1 X28.08 Y-41.602 E15.60351
G1 X28.623 Y-42.175 E15.64289
G1 X29.222 Y-42.69 E15.6823
G1 X29.87 Y-43.141 E15.72169
G1 X30.561 Y-43.525 E15.76113
G1 X31.286 Y-43.837 E15.80051
G1 X32.039 Y-44.074 E15.83989
G1 X32.813 Y-44.233 E15.87931
G1 X33.598 Y-44.314 E15.91869
G1 X34 Y-44.324 E15.93875
G1 X49 Y-44.324 E16.6871
G1 X49.789 Y-44.284 E16.72652
G1 X50.569 Y-44.165 E16.76588
G1 X51.334 Y-43.967 E16.8053
G1 X52.074 Y-43.693 E16.84467
G1 X52.783 Y-43.345 E16.88408
G1 X53.454 Y-42.927 E16.92352
G1 X54.078 Y-42.444 E16.96288
G1 X54.651 Y-41.901 E17.00227
G1 X55.166 Y-41.302 E17.04168
G1 X55.617 Y-40.654 E17.08107
G1 X56.001 Y-39.963 E17.12051
G1 X56.313 Y-39.238 E17.15988
G1 X56.55 Y-38.485 E17.19927
G1 X56.709 Y-37.711 E17.23869
G1 X56.79 Y-36.926 E17.27806
G1 X56.8 Y-36.524 E17.29812
G1 X56.8 Y-10 E18.62141
G1 X56.76 Y-9.211 E18.66083
G1 X56.641 Y-8.431 E18.70019
G1 X56.443 Y-7.666 E18.73961
G1 X56.169 Y-6.926 E18.77898
G1 X55.821 Y-6.217 E18.81838
G1 X55.403 Y-5.546 E18.85783
G1 X54.92 Y-4.922 E18.89719
G1 X54.377 Y-4.349 E18.93658
G1 X53.778 Y-3.834 E18.97599
G1 X53.13 Y-3.383 E19.01538
G1 X52.439 Y-2.999 E19.05482
G1 X51.714 Y-2.687 E19.09419
G1 X50.961 Y-2.45 E19.13358
G1 X50.187 Y-2.291 E19.173
G1 X49.402 Y-2.21 E19.21237
G1 X49 Y-2.2 E19.23243
G1 X6.8 Y-2.2 E21.3378
G0 F3600 X6.4 Y-2.6
G1 F1800 X6.4 Y45 E23.71257
G1 X6.36 Y45.768 E23.75094
G1 X6.241 Y46.528 E23.78932
G1 X6.043 Y47.271 E23.82768
G1 X5.769 Y47.99 E23.86607
G1 X5.422 Y48.676 E23.90442
G1 X5.006 Y49.323 E23.9428
G1 X4.525 Y49.923 E23.98116
G1 X3.984 Y50.47 E24.01955
G1 X3.389 Y50.958 E24.05794
G1 X2.747 Y51.381 E24.0963
G1 X2.064 Y51.736 E24.1347
G1 X1.349 Y52.017 E24.17303
G1 X0.607 Y52.223 E24.21144
G1 X-.151 Y52.351 E24.2498
G1 X-1 Y52.4 E24.29222
G1 X-11 Y52.4 E24.79113
G1 X-11.768 Y52.36 E24.82949
G1 X-12.513 Y52.243 E24.86712
G1 X-13.151 Y52.351 E24.8994
G1 X-14 Y52.4 E24.94183
G1 X-24 Y52.4 E25.44073
G1 X-24.768 Y52.36 E25.4791
G1 X-25.528 Y52.241 E25.51748
G1 X-26.271 Y52.043 E25.55584
G1 X-26.99 Y51.769 E25.59423
G1 X-27.676 Y51.422 E25.63258
G1 X-28.323 Y51.006 E25.67095
G1 X-28.923 Y50.525 E25.70932
G1 X-29.47 Y49.984 E25.7477
G1 X-29.958 Y49.389 E25.78609
G1 X-30.381 Y48.747 E25.82445
G1 X-30.736 Y48.064 E25.86285
G1 X-31.017 Y47.349 E25.90118
G1 X-31.223 Y46.607 E25.9396
G1 X-31.351 Y45.849 E25.97795
G1 X-31.4 Y45 E26.02038
G1 X-31.4 Y-2.6 E28.39515
G1 X-49 Y-2.6 E29.27322
G1 X-49.768 Y-2.64 E29.31159
G1 X-50.528 Y-2.759 E29.34997
G1 X-51.271 Y-2.957 E29.38833
G1 X-51.99 Y-3.231 E29.42672
G1 X-52.676 Y-3.578 E29.46507
G1 X-53.323 Y-3.994 E29.50345
G1 X-53.923 Y-4.475 E29.54181
G1 X-54.47 Y-5.016 E29.58019
G1 X-54.958 Y-5.611 E29.61859
G1 X-55.381 Y-6.253 E29.65694
G1 X-55.736 Y-6.936 E29.69535
G1 X-56.017 Y-7.651 E29.73367
G1 X-56.223 Y-8.393 E29.77209
G1 X-56.351 Y-9.151 E29.81044
G1 X-56.4 Y-10 E29.85287
G1 X-56.4 Y-36.524 E31.17616
G1 X-56.36 Y-37.292 E31.21453
G1 X-56.241 Y-38.052 E31.25291
G1 X-56.043 Y-38.795 E31.29127
G1 X-55.769 Y-39.514 E31.32966
G1 X-55.422 Y-40.2 E31.36801
G1 X-55.006 Y-40.847 E31.40638
G1 X-54.525 Y-41.447 E31.44475
G1 X-53.984 Y-41.994 E31.48313
G1 X-53.389 Y-42.482 E31.52152
G1 X-52.747 Y-42.905 E31.55988
G1 X-52.064 Y-43.26 E31.59828
G1 X-51.349 Y-43.541 E31.63661
G1 X-50.607 Y-43.747 E31.67503
G1 X-49.849 Y-43.875 E31.71338
G1 X-49 Y-43.924 E31.75581
G1 X-34 Y-43.925 E32.50416
G1 X-33.232 Y-43.885 E32.54253
G1 X-32.473 Y-43.766 E32.58086
G1 X-31.729 Y-43.568 E32.61927
G1 X-31.01 Y-43.294 E32.65766
G1 X-30.324 Y-42.947 E32.69601
G1 X-29.677 Y-42.531 E32.73439
G1 X-29.077 Y-42.05 E32.77275
G1 X-28.53 Y-41.509 E32.81114
G1 X-28.042 Y-40.914 E32.84953
G1 X-27.619 Y-40.272 E32.88788
G1 X-27.264 Y-39.59 E32.92624
G1 X-26.983 Y-38.874 E32.96462
G1 X-26.777 Y-38.133 E33.00299
G1 X-26.649 Y-37.374 E33.04139
G1 X-26.6 Y-36.525 E33.08382
G1 X-26.6 Y-27.4 E33.53906
G1 X26.6 Y-27.4 E36.19322
G1 X26.6 Y-36.524 E36.64842
G1 X26.64 Y-37.292 E36.68679
G1 X26.759 Y-38.052 E36.72517
G1 X26.957 Y-38.795 E36.76353
G1 X27.231 Y-39.514 E36.80192
G1 X27.578 Y-40.2 E36.84027
G1 X27.994 Y-40.847 E36.87865
G1 X28.475 Y-41.447 E36.91701
G1 X29.016 Y-41.994 E36.95539
G1 X29.611 Y-42.482 E36.99379
G1 X30.253 Y-42.905 E37.03214
G1 X30.936 Y-43.26 E37.07055
G1 X31.651 Y-43.541 E37.10887
G1 X32.393 Y-43.747 E37.14729
G1 X33.151 Y-43.875 E37.18564
G1 X34 Y-43.924 E37.22807
G1 X49 Y-43.924 E37.97642
G1 X49.768 Y-43.884 E38.01479
G1 X50.528 Y-43.765 E38.05317
G1 X51.271 Y-43.567 E38.09153
G1 X51.99 Y-43.293 E38.12992
G1 X52.676 Y-42.946 E38.16827
G1 X53.323 Y-42.53 E38.20665
G1 X53.923 Y-42.049 E38.24502
G1 X54.47 Y-41.508 E38.2834
G1 X54.958 Y-40.913 E38.32179
G1 X55.381 Y-40.271 E38.36015
G1 X55.736 Y-39.588 E38.39855
G1 X56.017 Y-38.873 E38.43688
G1 X56.223 Y-38.131 E38.4753
G1 X56.351 Y-37.373 E38.51365
G1 X56.4 Y-36.524 E38.55608
G1 X56.4 Y-10 E39.87936
G1 X56.36 Y-9.232 E39.91773
G1 X56.241 Y-8.472 E39.95611
G1 X56.043 Y-7.729 E39.99447
G1 X55.769 Y-7.01 E40.03286
G1 X55.422 Y-6.324 E40.07121
G1 X55.006 Y-5.677 E40.10959
G1 X54.525 Y-5.077 E40.14795
G1 X53.984 Y-4.53 E40.18634
G1 X53.389 Y-4.042 E40.22473
G1 X52.747 Y-3.619 E40.26309
G1 X52.064 Y-3.264 E40.30149
G1 X51.349 Y-2.983 E40.33982
G1 X50.607 Y-2.777 E40.37823
G1 X49.849 Y-2.649 E40.41659
G1 X49 Y-2.6 E40.45901
G1 X6.4 Y-2.6 E42.58434
G0 F3600 X6 Y-3
G1 F1800 X6 Y45 E44.97907
G1 X5.96 Y45.747 E45.01639
G1 X5.841 Y46.485 E45.05368
G1 X5.643 Y47.207 E45.09103
G1 X5.37 Y47.903 E45.12833
G1 X5.023 Y48.566 E45.16567
G1 X4.608 Y49.189 E45.20301
G1 X4.129 Y49.763 E45.24031
G1 X3.592 Y50.284 E45.27764
G1 X3.002 Y50.743 E45.31493
G1 X2.366 Y51.138 E45.35228
G1 X1.692 Y51.462 E45.38959
G1 X0.987 Y51.712 E45.42691
G1 X0.259 Y51.886 E45.46425
G1 X-.483 Y51.981 E45.50158
G1 X-1 Y52 E45.52739
G1 X-11 Y52 E46.02629
G1 X-11.747 Y51.96 E46.06361
G1 X-12.485 Y51.841 E46.1009
G1 X-12.741 Y51.886 E46.11387
G1 X-13.483 Y51.981 E46.15119
G1 X-14 Y52 E46.177
G1 X-24 Y52 E46.67591
G1 X-24.747 Y51.96 E46.71323
G1 X-25.485 Y51.841 E46.75052
G1 X-26.207 Y51.643 E46.78787
G1 X-26.903 Y51.37 E46.82517
G1 X-27.566 Y51.023 E46.8625
G1 X-28.189 Y50.608 E46.89985
G1 X-28.763 Y50.129 E46.93715
G1 X-29.284 Y49.592 E46.97448
G1 X-29.743 Y49.002 E47.01177
G1 X-30.138 Y48.366 E47.04912
G1 X-30.462 Y47.692 E47.08643
G1 X-30.712 Y46.987 E47.12375
G1 X-30.886 Y46.259 E47.16109
G1 X-30.981 Y45.517 E47.19841
G1 X-31 Y45 E47.22423
G1 X-31 Y-3 E49.61895
G1 X-49 Y-3 E50.51698
G1 X-49.747 Y-3.04 E50.5543
G1 X-50.485 Y-3.159 E50.59159
G1 X-51.207 Y-3.357 E50.62895
G1 X-51.903 Y-3.63 E50.66624
G1 X-52.566 Y-3.977 E50.70358
G1 X-53.189 Y-4.392 E50.74092
G1 X-53.763 Y-4.871 E50.77822
G1 X-54.284 Y-5.408 E50.81555
G1 X-54.743 Y-5.998 E50.85284
G1 X-55.138 Y-6.634 E50.8902
G1 X-55.462 Y-7.308 E50.92751
G1 X-55.712 Y-8.013 E50.96482
G1 X-55.886 Y-8.741 E51.00217
G1 X-55.981 Y-9.483 E51.03949
G1 X-56 Y-10 E51.0653
G1 X-56 Y-36.524 E52.38859
G1 X-55.96 Y-37.271 E52.42591
G1 X-55.841 Y-38.009 E52.4632
G1 X-55.643 Y-38.731 E52.50055
G1 X-55.37 Y-39.427 E52.53785
G1 X-55.023 Y-40.09 E52.57519
G1 X-54.608 Y-40.713 E52.61253
G1 X-54.129 Y-41.287 E52.64983
G1 X-53.592 Y-41.808 E52.68716
G1 X-53.002 Y-42.267 E52.72445
G1 X-52.366 Y-42.662 E52.7618
G1 X-51.692 Y-42.986 E52.79911
G1 X-50.987 Y-43.236 E52.83643
G1 X-50.259 Y-43.41 E52.87377
G1 X-49.517 Y-43.505 E52.9111
G1 X-49 Y-43.524 E52.93691
G1 X-34 Y-43.525 E53.68526
G1 X-33.253 Y-43.485 E53.72258
G1 X-32.515 Y-43.366 E53.75988
G1 X-31.793 Y-43.168 E53.79723
G1 X-31.097 Y-42.895 E53.83453
G1 X-30.434 Y-42.549 E53.87184
G1 X-29.812 Y-42.134 E53.90914
G1 X-29.237 Y-41.655 E53.94648
G1 X-28.717 Y-41.117 E53.98381
G1 X-28.257 Y-40.527 E54.02113
G1 X-27.863 Y-39.891 E54.05846
G1 X-27.538 Y-39.217 E54.09579
G1 X-27.288 Y-38.512 E54.13311
G1 X-27.114 Y-37.785 E54.1704
G1 X-27.019 Y-37.043 E54.20772
G1 X-27 Y-36.525 E54.23358
G1 X-27 Y-27 E54.70879
G1 X27 Y-27 E57.40286
G1 X27 Y-36.524 E57.87801
G1 X27.04 Y-37.271 E57.91533
G1 X27.159 Y-38.009 E57.95263
G1 X27.357 Y-38.731 E57.98998
G1 X27.63 Y-39.427 E58.02728
G1 X27.977 Y-40.09 E58.06461
G1 X28.392 Y-40.713 E58.10196
G1 X28.871 Y-41.287 E58.13925
G1 X29.408 Y-41.808 E58.17658
G1 X29.998 Y-42.267 E58.21388
G1 X30.634 Y-42.662 E58.25123
G1 X31.308 Y-42.986 E58.28854
G1 X32.013 Y-43.236 E58.32586
G1 X32.741 Y-43.41 E58.3632
G1 X33.483 Y-43.505 E58.40052
G1 X34 Y-43.524 E58.42633
G1 X49 Y-43.524 E59.17468
G1 X49.747 Y-43.484 E59.21201
G1 X50.485 Y-43.365 E59.2493
G1 X51.207 Y-43.167 E59.28665
G1 X51.903 Y-42.894 E59.32395
G1 X52.566 Y-42.547 E59.36128
G1 X53.189 Y-42.132 E59.39863
G1 X53.763 Y-41.653 E59.43593
G1 X54.284 Y-41.116 E59.47326
G1 X54.743 Y-40.526 E59.51055
G1 X55.138 Y-39.89 E59.5479
G1 X55.462 Y-39.216 E59.58521
G1 X55.712 Y-38.511 E59.62253
G1 X55.886 Y-37.783 E59.65987
G1 X55.981 Y-37.041 E59.69719
G1 X56 Y-36.524 E59.723
G1 X56 Y-10 E61.04629
G1 X55.96 Y-9.253 E61.08361
G1 X55.841 Y-8.515 E61.12091
G1 X55.643 Y-7.793 E61.15826
G1 X55.37 Y-7.097 E61.19556
G1 X55.023 Y-6.434 E61.23289
G1 X54.608 Y-5.811 E61.27024
G1 X54.129 Y-5.237 E61.30754
G1 X53.592 Y-4.716 E61.34486
G1 X53.002 Y-4.257 E61.38216
G1 X52.366 Y-3.862 E61.41951
G1 X51.692 Y-3.538 E61.45682
G1 X50.987 Y-3.288 E61.49414
G1 X50.259 Y-3.114 E61.53148
G1 X49.517 Y-3.019 E61.5688
G1 X49 Y-3 E61.59461
G1 X6 Y-3 E63.73989
G0 F3600 X5.6 Y-3.4
G1 F1800 X5.6 Y45 E66.15458
G1 X5.56 Y45.725 E66.1908
G1 X5.441 Y46.442 E66.22706
G1 X5.243 Y47.141 E66.26331
G1 X4.97 Y47.814 E66.29954
G1 X4.625 Y48.453 E66.33577
G1 X4.211 Y49.05 E66.37202
G1 X3.735 Y49.598 E66.40823
G1 X3.201 Y50.091 E66.44449
G1 X2.616 Y50.521 E66.48071
G1 X1.987 Y50.885 E66.51697
G1 X1.322 Y51.178 E66.55322
G1 X0.629 Y51.396 E66.58947
G1 X-0.083 Y51.536 E66.62567
G1 X-1 Y51.6 E66.67153
G1 X-11 Y51.6 E67.17043
G1 X-11.725 Y51.56 E67.20666
G1 X-12.442 Y51.441 E67.24292
G1 X-12.507 Y51.423 E67.24628
G1 X-13.083 Y51.536 E67.27557
G1 X-14 Y51.6 E67.32143
G1 X-24 Y51.6 E67.82033
G1 X-24.725 Y51.56 E67.85655
G1 X-25.442 Y51.441 E67.89281
G1 X-26.141 Y51.243 E67.92906
G1 X-26.814 Y50.97 E67.96529
G1 X-27.453 Y50.625 E68.00152
G1 X-28.05 Y50.211 E68.03777
G1 X-28.598 Y49.735 E68.07398
G1 X-29.091 Y49.201 E68.11024
G1 X-29.521 Y48.616 E68.14646
G1 X-29.885 Y47.987 E68.18272
G1 X-30.178 Y47.322 E68.21897
G1 X-30.396 Y46.629 E68.25522
G1 X-30.536 Y45.917 E68.29142
G1 X-30.6 Y45 E68.33728
G1 X-30.6 Y-3.4 E70.75197
G1 X-49 Y-3.4 E71.66995
G1 X-49.725 Y-3.44 E71.70617
G1 X-50.442 Y-3.559 E71.74243
G1 X-51.141 Y-3.757 E71.77868
G1 X-51.814 Y-4.03 E71.81491
G1 X-52.453 Y-4.375 E71.85114
G1 X-53.05 Y-4.789 E71.88739
G1 X-53.598 Y-5.265 E71.9236
G1 X-54.091 Y-5.799 E71.95986
G1 X-54.521 Y-6.384 E71.99608
G1 X-54.885 Y-7.013 E72.03234
G1 X-55.178 Y-7.678 E72.06859
G1 X-55.396 Y-8.371 E72.10484
G1 X-55.536 Y-9.083 E72.14104
G1 X-55.6 Y-10 E72.1869
G1 X-55.6 Y-36.524 E73.51019
G1 X-55.56 Y-37.249 E73.54641
G1 X-55.441 Y-37.966 E73.58267
G1 X-55.243 Y-38.665 E73.61892
G1 X-54.97 Y-39.338 E73.65515
G1 X-54.625 Y-39.977 E73.69138
G1 X-54.211 Y-40.574 E73.72763
G1 X-53.735 Y-41.122 E73.76384
G1 X-53.201 Y-41.615 E73.8001
G1 X-52.616 Y-42.045 E73.83632
G1 X-51.987 Y-42.409 E73.87258
G1 X-51.322 Y-42.702 E73.90883
G1 X-50.629 Y-42.92 E73.94508
G1 X-49.917 Y-43.06 E73.98128
G1 X-49 Y-43.124 E74.02714
G1 X-34 Y-43.125 E74.77549
G1 X-33.275 Y-43.085 E74.81172
G1 X-32.559 Y-42.966 E74.84793
G1 X-31.86 Y-42.768 E74.88417
G1 X-31.187 Y-42.495 E74.92041
G1 X-30.548 Y-42.15 E74.95664
G1 X-29.95 Y-41.737 E74.9929
G1 X-29.402 Y-41.26 E75.02914
G1 X-28.91 Y-40.726 E75.06537
G1 X-28.479 Y-40.141 E75.10162
G1 X-28.115 Y-39.513 E75.13783
G1 X-27.822 Y-38.848 E75.17409
G1 X-27.604 Y-38.155 E75.21033
G1 X-27.464 Y-37.442 E75.24658
G1 X-27.4 Y-36.525 E75.29244
G1 X-27.4 Y-26.6 E75.7876
G1 X27.4 Y-26.6 E78.52159
G1 X27.4 Y-36.524 E79.0167
G1 X27.44 Y-37.249 E79.05292
G1 X27.559 Y-37.966 E79.08918
G1 X27.757 Y-38.665 E79.12543
G1 X28.03 Y-39.338 E79.16166
G1 X28.375 Y-39.977 E79.19789
G1 X28.789 Y-40.574 E79.23414
G1 X29.265 Y-41.122 E79.27035
G1 X29.799 Y-41.615 E79.30661
G1 X30.384 Y-42.045 E79.34283
G1 X31.013 Y-42.409 E79.37909
G1 X31.678 Y-42.702 E79.41534
G1 X32.371 Y-42.92 E79.45159
G1 X33.083 Y-43.06 E79.48779
G1 X34 Y-43.124 E79.53365
G1 X49 Y-43.124 E80.282
G1 X49.725 Y-43.084 E80.31823
G1 X50.442 Y-42.965 E80.35449
G1 X51.141 Y-42.767 E80.39073
G1 X51.814 Y-42.494 E80.42697
G1 X52.453 Y-42.149 E80.4632
G1 X53.05 Y-41.735 E80.49944
G1 X53.598 Y-41.259 E80.53565
G1 X54.091 Y-40.725 E80.57191
G1 X54.521 Y-40.14 E80.60814
G1 X54.885 Y-39.511 E80.64439
G1 X55.178 Y-38.846 E80.68065
G1 X55.396 Y-38.153 E80.71689
G1 X55.536 Y-37.441 E80.75309
G1 X55.6 Y-36.524 E80.79895
G1 X55.6 Y-10 E82.12224
G1 X55.56 Y-9.275 E82.15847
G1 X55.441 Y-8.558 E82.19473
