;FLAVOR:Marlin
;TIME:14898
;Filament used: 31.928m
;Layer height: 0.3
;MINX:-64.53
;MINY:-105.578
;MINZ:0.3
;MAXX:58.036
;MAXY:53.635
;MAXZ:19.8
;Generated with Cura_SteamEngine 4.7.1
M140 S50
M105
M190 S50
M104 S250
M105
M109 S250
M82 ;absolute extrusion mode
G28 ;Home
G1 Z15.0 F6000 ;Move the platform down 15mm
;Prime the extruder
G92 E0
G1 F200 E3
G92 E0
G92 E0
G92 E0
G1 F1500 E-6.5
;LAYER_COUNT:66
;LAYER:0
M107
G0 F3600 X-0.098 Y-.335 Z0.3
;TYPE:SKIRT
G1 F1500 E0
G1 F1800 X-.838 Y-.609 E0.03937
G1 X-.93 Y-.654 E0.04448
G1 X-.93 Y30.835 E1.61547
G1 X-.97 Y31.624 E1.65488
G1 X-1.089 Y32.404 E1.69425
G1 X-1.287 Y33.169 E1.73367
G1 X-1.561 Y33.909 E1.77304
G1 X-1.909 Y34.618 E1.81244
G1 X-2.327 Y35.289 E1.85188
G1 X-2.81 Y35.913 E1.89125
G1 X-3.353 Y36.486 E1.93064
G1 X-3.952 Y37.001 E1.97005
G1 X-4.6 Y37.452 E2.00944
G1 X-5.291 Y37.836 E2.04888
G1 X-5.93 Y38.111 E2.08358
G1 X-5.93 Y45.835 E2.46893
G1 X-5.97 Y46.624 E2.50835
G1 X-6.089 Y47.404 E2.54771
G1 X-6.287 Y48.169 E2.58714
G1 X-6.561 Y48.909 E2.6265
G1 X-6.909 Y49.618 E2.66591
G1 X-7.327 Y50.289 E2.70535
G1 X-7.81 Y50.913 E2.74472
G1 X-8.353 Y51.486 E2.7841
G1 X-8.952 Y52.001 E2.82351
G1 X-9.6 Y52.452 E2.8629
G1 X-10.291 Y52.836 E2.90234
G1 X-11.016 Y53.148 E2.94172
G1 X-11.769 Y53.385 E2.9811
G1 X-12.543 Y53.544 E3.02052
G1 X-13.328 Y53.625 E3.05989
G1 X-13.73 Y53.635 E3.07996
G1 X-56.73 Y53.635 E5.22523
G1 X-57.519 Y53.595 E5.26465
G1 X-58.299 Y53.476 E5.30401
G1 X-59.064 Y53.278 E5.34344
G1 X-59.804 Y53.004 E5.38281
G1 X-60.513 Y52.656 E5.42221
G1 X-61.184 Y52.238 E5.46165
G1 X-61.808 Y51.755 E5.50102
G1 X-62.381 Y51.212 E5.5404
G1 X-62.896 Y50.613 E5.57981
G1 X-63.347 Y49.965 E5.6192
G1 X-63.731 Y49.274 E5.65864
G1 X-64.043 Y48.549 E5.69802
G1 X-64.28 Y47.796 E5.7374
G1 X-64.439 Y47.022 E5.77682
G1 X-64.52 Y46.237 E5.81619
G1 X-64.53 Y45.835 E5.83626
G1 X-64.53 Y30.835 E6.58461
G1 X-64.49 Y30.046 E6.62402
G1 X-64.371 Y29.266 E6.66339
G1 X-64.173 Y28.501 E6.70281
G1 X-63.899 Y27.761 E6.74218
G1 X-63.551 Y27.052 E6.78158
G1 X-63.133 Y26.381 E6.82102
G1 X-62.65 Y25.757 E6.86039
G1 X-62.107 Y25.184 E6.89978
G1 X-61.508 Y24.669 E6.93919
G1 X-60.86 Y24.218 E6.97858
G1 X-60.169 Y23.834 E7.01802
G1 X-59.444 Y23.522 E7.05739
G1 X-58.691 Y23.285 E7.09678
G1 X-57.917 Y23.126 E7.1362
G1 X-57.132 Y23.045 E7.17557
G1 X-56.73 Y23.035 E7.19563
G1 X-39.53 Y23.035 E8.05374
G1 X-39.53 Y-44.165 E11.40637
G1 X-39.49 Y-44.954 E11.44578
G1 X-39.371 Y-45.734 E11.48514
G1 X-39.173 Y-46.499 E11.52457
G1 X-38.899 Y-47.239 E11.56394
G1 X-38.551 Y-47.948 E11.60334
G1 X-38.133 Y-48.619 E11.64278
G1 X-37.65 Y-49.243 E11.68215
G1 X-37.107 Y-49.816 E11.72153
G1 X-36.508 Y-50.331 E11.76094
G1 X-35.86 Y-50.782 E11.80033
G1 X-35.169 Y-51.166 E11.83977
G1 X-34.444 Y-51.478 E11.87915
G1 X-33.691 Y-51.715 E11.91853
G1 X-32.917 Y-51.874 E11.95795
G1 X-32.132 Y-51.955 E11.99733
G1 X-31.73 Y-51.965 E12.01739
G1 X-21.73 Y-51.965 E12.51629
G1 X-20.941 Y-51.925 E12.5557
G1 X-20.211 Y-51.814 E12.59254
G1 X-19.917 Y-51.874 E12.60751
G1 X-19.132 Y-51.955 E12.64688
G1 X-18.73 Y-51.965 E12.66695
G1 X-8.73 Y-51.965 E13.16585
G1 X-7.941 Y-51.925 E13.20526
G1 X-7.161 Y-51.806 E13.24463
G1 X-6.396 Y-51.608 E13.28405
G1 X-5.656 Y-51.334 E13.32342
G1 X-5.564 Y-51.289 E13.32853
G1 X-5.564 Y-54.978 E13.51257
G1 X-47.764 Y-54.978 E15.61794
G1 X-48.553 Y-55.018 E15.65735
G1 X-49.333 Y-55.137 E15.69672
G1 X-50.098 Y-55.335 E15.73614
G1 X-50.838 Y-55.609 E15.77551
G1 X-51.547 Y-55.957 E15.81491
G1 X-52.218 Y-56.375 E15.85435
G1 X-52.842 Y-56.858 E15.89372
G1 X-53.415 Y-57.401 E15.93311
G1 X-53.93 Y-58 E15.97252
G1 X-54.381 Y-58.648 E16.0119
G1 X-54.765 Y-59.339 E16.05134
G1 X-55.077 Y-60.064 E16.09072
G1 X-55.314 Y-60.817 E16.13011
G1 X-55.473 Y-61.591 E16.16953
G1 X-55.554 Y-62.376 E16.2089
G1 X-55.564 Y-62.778 E16.22896
G1 X-55.564 Y-97.778 E17.97512
G1 X-55.524 Y-98.567 E18.01453
G1 X-55.405 Y-99.347 E18.0539
G1 X-55.207 Y-100.112 E18.09332
G1 X-54.933 Y-100.852 E18.13269
G1 X-54.585 Y-101.561 E18.17209
G1 X-54.167 Y-102.232 E18.21153
G1 X-53.684 Y-102.856 E18.2509
G1 X-53.141 Y-103.429 E18.29028
G1 X-52.542 Y-103.944 E18.3297
G1 X-51.894 Y-104.395 E18.36908
G1 X-51.203 Y-104.779 E18.40852
G1 X-50.478 Y-105.091 E18.4479
G1 X-49.725 Y-105.328 E18.48728
G1 X-48.951 Y-105.487 E18.52671
G1 X-48.166 Y-105.568 E18.56608
G1 X-47.764 Y-105.578 E18.58614
G1 X-32.764 Y-105.578 E19.33449
G1 X-31.975 Y-105.538 E19.37391
G1 X-31.195 Y-105.419 E19.41327
G1 X-30.43 Y-105.221 E19.4527
G1 X-29.69 Y-104.947 E19.49206
G1 X-28.981 Y-104.599 E19.53147
G1 X-28.31 Y-104.181 E19.57091
G1 X-27.686 Y-103.698 E19.61028
G1 X-27.113 Y-103.155 E19.64966
G1 X-26.598 Y-102.556 E19.68907
G1 X-26.147 Y-101.908 E19.72846
G1 X-25.763 Y-101.217 E19.7679
G1 X-25.451 Y-100.492 E19.80728
G1 X-25.214 Y-99.739 E19.84666
G1 X-25.055 Y-98.965 E19.88608
G1 X-24.974 Y-98.18 E19.92545
G1 X-24.964 Y-97.778 E19.94552
G1 X-24.964 Y-80.578 E20.80363
G1 X27.436 Y-80.578 E23.41787
G1 X27.436 Y-97.778 E24.27598
G1 X27.476 Y-98.567 E24.3154
G1 X27.595 Y-99.347 E24.35476
G1 X27.793 Y-100.112 E24.39419
G1 X28.067 Y-100.852 E24.43356
G1 X28.415 Y-101.561 E24.47296
G1 X28.833 Y-102.232 E24.5124
G1 X29.316 Y-102.856 E24.55177
G1 X29.859 Y-103.429 E24.59115
G1 X30.458 Y-103.944 E24.63056
G1 X31.106 Y-104.395 E24.66995
G1 X31.797 Y-104.779 E24.70939
G1 X32.522 Y-105.091 E24.74877
G1 X33.275 Y-105.328 E24.78815
G1 X34.049 Y-105.487 E24.82757
G1 X34.834 Y-105.568 E24.86694
G1 X35.236 Y-105.578 E24.88701
G1 X50.236 Y-105.578 E25.63536
G1 X51.025 Y-105.538 E25.67477
G1 X51.805 Y-105.419 E25.71414
G1 X52.57 Y-105.221 E25.75356
G1 X53.31 Y-104.947 E25.79293
G1 X54.019 Y-104.599 E25.83233
G1 X54.69 Y-104.181 E25.87177
G1 X55.314 Y-103.698 E25.91114
G1 X55.887 Y-103.155 E25.95053
G1 X56.402 Y-102.556 E25.98994
G1 X56.853 Y-101.908 E26.02933
G1 X57.237 Y-101.217 E26.06876
G1 X57.549 Y-100.492 E26.10814
G1 X57.786 Y-99.739 E26.14753
G1 X57.945 Y-98.965 E26.18695
G1 X58.026 Y-98.18 E26.22632
G1 X58.036 Y-97.778 E26.24638
G1 X58.036 Y-62.778 E27.99254
G1 X57.996 Y-61.989 E28.03195
G1 X57.877 Y-61.209 E28.07132
G1 X57.679 Y-60.444 E28.11074
G1 X57.405 Y-59.704 E28.15011
G1 X57.057 Y-58.995 E28.18951
G1 X56.639 Y-58.324 E28.22895
G1 X56.156 Y-57.7 E28.26832
G1 X55.613 Y-57.127 E28.30771
G1 X55.014 Y-56.612 E28.34712
G1 X54.366 Y-56.161 E28.3865
G1 X53.675 Y-55.777 E28.42594
G1 X52.95 Y-55.465 E28.46532
G1 X52.197 Y-55.228 E28.50471
G1 X51.423 Y-55.069 E28.54413
G1 X50.638 Y-54.988 E28.5835
G1 X50.236 Y-54.978 E28.60356
G1 X33.036 Y-54.978 E29.46167
G1 X33.036 Y-7.778 E31.81649
G1 X32.996 Y-6.989 E31.8559
G1 X32.877 Y-6.209 E31.89527
G1 X32.679 Y-5.444 E31.93469
G1 X32.405 Y-4.704 E31.97406
G1 X32.057 Y-3.995 E32.01346
G1 X31.639 Y-3.324 E32.0529
G1 X31.156 Y-2.7 E32.09227
G1 X30.613 Y-2.127 E32.13166
G1 X30.014 Y-1.612 E32.17107
G1 X29.366 Y-1.161 E32.21046
G1 X28.675 Y-.777 E32.2499
G1 X27.95 Y-.465 E32.28927
G1 X27.197 Y-.228 E32.32866
G1 X26.423 Y-0.069 E32.36808
G1 X25.638 Y0.012 E32.40745
G1 X25.236 Y0.022 E32.42751
G1 X15.236 Y0.022 E32.92641
G1 X14.447 Y-0.018 E32.96583
G1 X13.717 Y-.129 E33.00267
G1 X13.423 Y-0.069 E33.01764
G1 X12.638 Y0.012 E33.05701
G1 X12.236 Y0.022 E33.07707
G1 X2.236 Y0.022 E33.57597
G1 X1.447 Y-0.018 E33.61539
G1 X0.667 Y-.137 E33.65475
G1 X-0.098 Y-.335 E33.69417
G0 F3600 X-0.035 Y-.735
G1 F1800 X-.754 Y-1.009 E33.73256
G1 X-1.33 Y-1.3 E33.76476
G1 X-1.33 Y30.835 E35.36798
G1 X-1.37 Y31.603 E35.40635
G1 X-1.489 Y32.363 E35.44473
G1 X-1.687 Y33.106 E35.48309
G1 X-1.961 Y33.825 E35.52148
G1 X-2.308 Y34.511 E35.55983
G1 X-2.724 Y35.158 E35.5982
G1 X-3.205 Y35.758 E35.63657
G1 X-3.746 Y36.305 E35.67495
G1 X-4.341 Y36.793 E35.71334
G1 X-4.983 Y37.216 E35.7517
G1 X-5.666 Y37.571 E35.7901
G1 X-6.33 Y37.832 E35.8257
G1 X-6.33 Y45.835 E36.22497
G1 X-6.37 Y46.603 E36.26334
G1 X-6.489 Y47.363 E36.30172
G1 X-6.687 Y48.106 E36.34008
G1 X-6.961 Y48.825 E36.37847
G1 X-7.308 Y49.511 E36.41682
G1 X-7.724 Y50.158 E36.4552
G1 X-8.205 Y50.758 E36.49356
G1 X-8.746 Y51.305 E36.53194
G1 X-9.341 Y51.793 E36.57034
G1 X-9.983 Y52.216 E36.60869
G1 X-10.666 Y52.571 E36.6471
G1 X-11.381 Y52.852 E36.68542
G1 X-12.123 Y53.058 E36.72384
G1 X-12.881 Y53.186 E36.76219
G1 X-13.73 Y53.235 E36.80462
G1 X-56.73 Y53.235 E38.9499
G1 X-57.498 Y53.195 E38.98827
G1 X-58.258 Y53.076 E39.02665
G1 X-59.001 Y52.878 E39.06501
G1 X-59.72 Y52.604 E39.1034
G1 X-60.406 Y52.257 E39.14175
G1 X-61.053 Y51.841 E39.18012
G1 X-61.653 Y51.36 E39.21849
G1 X-62.2 Y50.819 E39.25687
G1 X-62.688 Y50.224 E39.29526
G1 X-63.111 Y49.582 E39.33362
G1 X-63.466 Y48.899 E39.37202
G1 X-63.747 Y48.184 E39.41035
G1 X-63.953 Y47.442 E39.44877
G1 X-64.081 Y46.684 E39.48712
G1 X-64.13 Y45.835 E39.52955
G1 X-64.13 Y30.835 E40.2779
G1 X-64.09 Y30.067 E40.31627
G1 X-63.971 Y29.307 E40.35465
G1 X-63.773 Y28.564 E40.39301
G1 X-63.499 Y27.845 E40.4314
G1 X-63.152 Y27.159 E40.46975
G1 X-62.736 Y26.512 E40.50813
G1 X-62.255 Y25.912 E40.54649
G1 X-61.714 Y25.365 E40.58488
G1 X-61.119 Y24.877 E40.62327
G1 X-60.477 Y24.454 E40.66163
G1 X-59.794 Y24.099 E40.70003
G1 X-59.079 Y23.818 E40.73836
G1 X-58.337 Y23.612 E40.77677
G1 X-57.579 Y23.484 E40.81513
G1 X-56.73 Y23.435 E40.85755
G1 X-39.13 Y23.435 E41.73562
G1 X-39.13 Y-44.165 E45.1082
G1 X-39.09 Y-44.933 E45.14657
G1 X-38.971 Y-45.693 E45.18495
G1 X-38.773 Y-46.436 E45.22331
G1 X-38.499 Y-47.155 E45.26169
G1 X-38.152 Y-47.841 E45.30005
G1 X-37.736 Y-48.488 E45.33842
G1 X-37.255 Y-49.088 E45.37679
G1 X-36.714 Y-49.635 E45.41517
G1 X-36.119 Y-50.123 E45.45356
G1 X-35.477 Y-50.546 E45.49192
G1 X-34.794 Y-50.901 E45.53032
G1 X-34.079 Y-51.182 E45.56865
G1 X-33.337 Y-51.388 E45.60707
G1 X-32.579 Y-51.516 E45.64542
G1 X-31.73 Y-51.565 E45.68785
G1 X-21.73 Y-51.565 E46.18675
G1 X-20.962 Y-51.525 E46.22512
G1 X-20.217 Y-51.408 E46.26274
G1 X-19.579 Y-51.516 E46.29503
G1 X-18.73 Y-51.565 E46.33745
G1 X-8.73 Y-51.565 E46.83635
G1 X-7.962 Y-51.525 E46.87472
G1 X-7.202 Y-51.406 E46.9131
G1 X-6.459 Y-51.208 E46.95146
G1 X-5.74 Y-50.934 E46.98985
G1 X-5.164 Y-50.643 E47.02205
G1 X-5.164 Y-55.378 E47.25828
G1 X-47.764 Y-55.378 E49.3836
G1 X-48.532 Y-55.418 E49.42197
G1 X-49.292 Y-55.537 E49.46035
G1 X-50.035 Y-55.735 E49.49871
G1 X-50.754 Y-56.009 E49.5371
G1 X-51.44 Y-56.356 E49.57545
G1 X-52.087 Y-56.772 E49.61382
G1 X-52.687 Y-57.253 E49.65219
G1 X-53.234 Y-57.794 E49.69057
G1 X-53.722 Y-58.389 E49.72896
G1 X-54.145 Y-59.031 E49.76732
G1 X-54.5 Y-59.714 E49.80572
G1 X-54.781 Y-60.429 E49.84405
G1 X-54.987 Y-61.171 E49.88247
G1 X-55.115 Y-61.929 E49.92082
G1 X-55.164 Y-62.778 E49.96325
G1 X-55.164 Y-97.778 E51.70941
G1 X-55.124 Y-98.546 E51.74777
G1 X-55.005 Y-99.306 E51.78615
G1 X-54.807 Y-100.049 E51.82452
G1 X-54.533 Y-100.768 E51.8629
G1 X-54.186 Y-101.454 E51.90126
G1 X-53.77 Y-102.101 E51.93963
G1 X-53.289 Y-102.701 E51.978
G1 X-52.748 Y-103.248 E52.01638
G1 X-52.153 Y-103.736 E52.05477
G1 X-51.511 Y-104.159 E52.09313
G1 X-50.828 Y-104.514 E52.13153
G1 X-50.113 Y-104.795 E52.16986
G1 X-49.371 Y-105.001 E52.20828
G1 X-48.613 Y-105.129 E52.24663
G1 X-47.764 Y-105.178 E52.28906
G1 X-32.764 Y-105.178 E53.03741
G1 X-31.996 Y-105.138 E53.07578
G1 X-31.236 Y-105.019 E53.11416
G1 X-30.493 Y-104.821 E53.15252
G1 X-29.774 Y-104.547 E53.19091
G1 X-29.088 Y-104.2 E53.22926
G1 X-28.441 Y-103.784 E53.26764
G1 X-27.841 Y-103.303 E53.306
G1 X-27.294 Y-102.762 E53.34438
G1 X-26.806 Y-102.167 E53.38278
G1 X-26.383 Y-101.525 E53.42113
G1 X-26.028 Y-100.842 E53.45954
G1 X-25.747 Y-100.127 E53.49786
G1 X-25.541 Y-99.385 E53.53628
G1 X-25.413 Y-98.627 E53.57463
G1 X-25.364 Y-97.778 E53.61706
G1 X-25.364 Y-80.178 E54.49513
G1 X27.836 Y-80.178 E57.14929
G1 X27.836 Y-97.778 E58.02736
G1 X27.876 Y-98.546 E58.06572
G1 X27.995 Y-99.306 E58.1041
G1 X28.193 Y-100.049 E58.14246
G1 X28.467 Y-100.768 E58.18085
G1 X28.814 Y-101.454 E58.2192
G1 X29.23 Y-102.101 E58.25758
G1 X29.711 Y-102.701 E58.29595
G1 X30.252 Y-103.248 E58.33433
G1 X30.847 Y-103.736 E58.37272
G1 X31.489 Y-104.159 E58.41108
G1 X32.172 Y-104.514 E58.44948
G1 X32.887 Y-104.795 E58.48781
G1 X33.629 Y-105.001 E58.52623
G1 X34.387 Y-105.129 E58.56458
G1 X35.236 Y-105.178 E58.60701
G1 X50.236 Y-105.178 E59.35536
G1 X51.004 Y-105.138 E59.39373
G1 X51.764 Y-105.019 E59.4321
G1 X52.507 Y-104.821 E59.47047
G1 X53.226 Y-104.547 E59.50885
G1 X53.912 Y-104.2 E59.54721
G1 X54.559 Y-103.784 E59.58558
G1 X55.159 Y-103.303 E59.62395
G1 X55.706 Y-102.762 E59.66233
G1 X56.194 Y-102.167 E59.70072
G1 X56.617 Y-101.525 E59.73908
G1 X56.972 Y-100.842 E59.77748
G1 X57.253 Y-100.127 E59.81581
G1 X57.459 Y-99.385 E59.85423
G1 X57.587 Y-98.627 E59.89258
G1 X57.636 Y-97.778 E59.93501
G1 X57.636 Y-62.778 E61.68117
G1 X57.596 Y-62.01 E61.71953
G1 X57.477 Y-61.25 E61.75791
G1 X57.279 Y-60.507 E61.79627
G1 X57.005 Y-59.788 E61.83466
G1 X56.658 Y-59.102 E61.87302
G1 X56.242 Y-58.455 E61.91139
G1 X55.761 Y-57.855 E61.94976
G1 X55.22 Y-57.308 E61.98814
G1 X54.625 Y-56.82 E62.02653
G1 X53.983 Y-56.397 E62.06489
G1 X53.3 Y-56.042 E62.10329
G1 X52.585 Y-55.761 E62.14162
G1 X51.843 Y-55.555 E62.18004
G1 X51.085 Y-55.427 E62.21839
G1 X50.236 Y-55.378 E62.26082
G1 X32.636 Y-55.378 E63.13888
G1 X32.636 Y-7.778 E65.51366
G1 X32.596 Y-7.01 E65.55203
G1 X32.477 Y-6.25 E65.5904
G1 X32.279 Y-5.507 E65.62877
G1 X32.005 Y-4.788 E65.66715
G1 X31.658 Y-4.102 E65.70551
G1 X31.242 Y-3.455 E65.74388
G1 X30.761 Y-2.855 E65.78225
G1 X30.22 Y-2.308 E65.82063
G1 X29.625 Y-1.82 E65.85902
G1 X28.983 Y-1.397 E65.89738
G1 X28.3 Y-1.042 E65.93578
G1 X27.585 Y-.761 E65.97411
G1 X26.843 Y-.555 E66.01253
G1 X26.085 Y-.427 E66.05088
G1 X25.236 Y-.378 E66.09331
G1 X15.236 Y-.378 E66.59221
G1 X14.468 Y-.418 E66.63058
G1 X13.723 Y-.535 E66.6682
G1 X13.085 Y-.427 E66.70048
G1 X12.236 Y-.378 E66.74291
G1 X2.236 Y-.378 E67.24181
G1 X1.468 Y-.418 E67.28018
G1 X0.708 Y-.537 E67.31856
G1 X-0.035 Y-.735 E67.35692
G0 F3600 X0.029 Y-1.135
G1 F1800 X-.667 Y-1.408 E67.39422
G1 X-1.33 Y-1.755 E67.43156
G1 X-1.73 Y-2.021 E67.45552
G1 X-1.73 Y30.835 E69.09471
G1 X-1.77 Y31.582 E69.13203
G1 X-1.889 Y32.32 E69.16933
G1 X-2.087 Y33.042 E69.20668
G1 X-2.36 Y33.738 E69.24398
G1 X-2.707 Y34.401 E69.28131
G1 X-3.122 Y35.024 E69.31866
G1 X-3.601 Y35.598 E69.35596
G1 X-4.138 Y36.119 E69.39329
G1 X-4.728 Y36.578 E69.43058
G1 X-5.364 Y36.973 E69.46793
G1 X-6.038 Y37.297 E69.50524
G1 X-6.73 Y37.542 E69.54186
G1 X-6.73 Y45.835 E69.9556
G1 X-6.77 Y46.582 E69.99293
G1 X-6.889 Y47.32 E70.03022
G1 X-7.087 Y48.042 E70.06757
G1 X-7.36 Y48.738 E70.10487
G1 X-7.707 Y49.401 E70.1422
G1 X-8.122 Y50.024 E70.17955
G1 X-8.601 Y50.598 E70.21685
G1 X-9.138 Y51.119 E70.25418
G1 X-9.728 Y51.578 E70.29147
G1 X-10.364 Y51.973 E70.32882
G1 X-11.038 Y52.297 E70.36613
G1 X-11.743 Y52.547 E70.40345
G1 X-12.471 Y52.721 E70.44079
G1 X-13.213 Y52.816 E70.47811
G1 X-13.73 Y52.835 E70.50392
G1 X-56.73 Y52.835 E72.6492
G1 X-57.477 Y52.795 E72.68652
G1 X-58.215 Y52.676 E72.72382
G1 X-58.937 Y52.478 E72.76117
G1 X-59.633 Y52.205 E72.79847
G1 X-60.296 Y51.858 E72.8358
G1 X-60.919 Y51.443 E72.87315
G1 X-61.493 Y50.964 E72.91045
G1 X-62.014 Y50.427 E72.94777
G1 X-62.473 Y49.837 E72.98507
G1 X-62.868 Y49.201 E73.02242
G1 X-63.192 Y48.527 E73.05973
G1 X-63.442 Y47.822 E73.09705
G1 X-63.616 Y47.094 E73.13439
G1 X-63.711 Y46.352 E73.17171
G1 X-63.73 Y45.835 E73.19752
G1 X-63.73 Y30.835 E73.94588
G1 X-63.69 Y30.088 E73.9832
G1 X-63.571 Y29.35 E74.02049
G1 X-63.373 Y28.628 E74.05784
G1 X-63.1 Y27.932 E74.09514
G1 X-62.753 Y27.269 E74.13248
G1 X-62.338 Y26.646 E74.16982
G1 X-61.859 Y26.072 E74.20712
G1 X-61.322 Y25.551 E74.24445
G1 X-60.732 Y25.092 E74.28174
G1 X-60.096 Y24.697 E74.31909
G1 X-59.422 Y24.373 E74.3564
G1 X-58.717 Y24.123 E74.39372
G1 X-57.989 Y23.949 E74.43106
G1 X-57.247 Y23.854 E74.46839
G1 X-56.73 Y23.835 E74.4942
G1 X-38.73 Y23.835 E75.39222
G1 X-38.73 Y-44.165 E78.78475
G1 X-38.69 Y-44.912 E78.82207
G1 X-38.571 Y-45.65 E78.85937
G1 X-38.373 Y-46.372 E78.89672
G1 X-38.1 Y-47.068 E78.93402
G1 X-37.753 Y-47.731 E78.97135
G1 X-37.338 Y-48.354 E79.0087
G1 X-36.859 Y-48.928 E79.046
G1 X-36.322 Y-49.449 E79.08333
G1 X-35.732 Y-49.908 E79.12062
