;FLAVOR:Marlin
;TIME:9348
;Filament used: 20.5301m
;Layer height: 0.3
;MINX:-31.8
;MINY:-52.8
;MINZ:0.3
;MAXX:31.8
;MAXY:52.8
;MAXZ:63.9
;Generated with Cura_SteamEngine 4.7.1
M140 S50
M105
M190 S50
M104 S250
M105
M109 S250
M82 ;absolute extrusion mode
G28 ;Home
G1 Z15.0 F6000 ;Move the platform down 15mm
;Prime the extruder
G92 E0
G1 F200 E3
G92 E0
G92 E0
G92 E0
G1 F1500 E-6.5
;LAYER_COUNT:213
;LAYER:0
M107
G0 F3600 X-6.8 Y-22.2 Z0.3
;TYPE:SKIRT
G1 F1500 E0
G1 F1800 X-24 Y-22.2 E0.85811
G1 X-24.789 Y-22.24 E0.89753
G1 X-25.569 Y-22.359 E0.93689
G1 X-26.334 Y-22.557 E0.97631
G1 X-27.074 Y-22.831 E1.01568
G1 X-27.783 Y-23.179 E1.05509
G1 X-28.454 Y-23.597 E1.09453
G1 X-29.078 Y-24.08 E1.13389
G1 X-29.651 Y-24.623 E1.17328
G1 X-30.166 Y-25.222 E1.21269
G1 X-30.617 Y-25.87 E1.25208
G1 X-31.001 Y-26.561 E1.29152
G1 X-31.313 Y-27.286 E1.33089
G1 X-31.55 Y-28.039 E1.37028
G1 X-31.709 Y-28.813 E1.4097
G1 X-31.79 Y-29.598 E1.44907
G1 X-31.8 Y-30 E1.46913
G1 X-31.8 Y-45 E2.21749
G1 X-31.76 Y-45.789 E2.2569
G1 X-31.641 Y-46.569 E2.29627
G1 X-31.443 Y-47.334 E2.33569
G1 X-31.169 Y-48.074 E2.37506
G1 X-30.821 Y-48.783 E2.41446
G1 X-30.403 Y-49.454 E2.4539
G1 X-29.92 Y-50.078 E2.49327
G1 X-29.377 Y-50.651 E2.53265
G1 X-28.778 Y-51.166 E2.57206
G1 X-28.13 Y-51.617 E2.61145
G1 X-27.439 Y-52.001 E2.65089
G1 X-26.714 Y-52.313 E2.69027
G1 X-25.961 Y-52.55 E2.72965
G1 X-25.187 Y-52.709 E2.76907
G1 X-24.402 Y-52.79 E2.80845
G1 X-24 Y-52.8 E2.82851
G1 X19 Y-52.8 E4.97379
G1 X19.789 Y-52.76 E5.0132
G1 X20.569 Y-52.641 E5.05257
G1 X21.334 Y-52.443 E5.09199
G1 X22.074 Y-52.169 E5.13136
G1 X22.783 Y-51.821 E5.17076
G1 X23.454 Y-51.403 E5.2102
G1 X24.078 Y-50.92 E5.24957
G1 X24.651 Y-50.377 E5.28895
G1 X25.166 Y-49.778 E5.32836
G1 X25.617 Y-49.13 E5.36775
G1 X26.001 Y-48.439 E5.40719
G1 X26.313 Y-47.714 E5.44657
G1 X26.55 Y-46.961 E5.48595
G1 X26.709 Y-46.187 E5.52538
G1 X26.79 Y-45.402 E5.56475
G1 X26.8 Y-45 E5.58481
G1 X26.8 Y-37.27 E5.97046
G1 X27.074 Y-37.169 E5.98503
G1 X27.783 Y-36.821 E6.02443
G1 X28.454 Y-36.403 E6.06387
G1 X29.078 Y-35.92 E6.10324
G1 X29.651 Y-35.377 E6.14263
G1 X30.166 Y-34.778 E6.18204
G1 X30.617 Y-34.13 E6.22142
G1 X31.001 Y-33.439 E6.26086
G1 X31.313 Y-32.714 E6.30024
G1 X31.55 Y-31.961 E6.33963
G1 X31.709 Y-31.187 E6.37905
G1 X31.79 Y-30.402 E6.41842
G1 X31.8 Y-30 E6.43848
G1 X31.8 Y45 E10.18025
G1 X31.76 Y45.789 E10.21966
G1 X31.641 Y46.569 E10.25902
G1 X31.443 Y47.334 E10.29845
G1 X31.169 Y48.074 E10.33782
G1 X30.821 Y48.783 E10.37722
G1 X30.403 Y49.454 E10.41666
G1 X29.92 Y50.078 E10.45603
G1 X29.377 Y50.651 E10.49541
G1 X28.778 Y51.166 E10.53482
G1 X28.13 Y51.617 E10.57421
G1 X27.439 Y52.001 E10.61365
G1 X26.714 Y52.313 E10.65303
G1 X25.961 Y52.55 E10.69241
G1 X25.187 Y52.709 E10.73183
G1 X24.402 Y52.79 E10.77121
G1 X24 Y52.8 E10.79127
G1 X14 Y52.8 E11.29017
G1 X13.211 Y52.76 E11.32958
G1 X12.481 Y52.649 E11.36642
G1 X12.187 Y52.709 E11.38139
G1 X11.402 Y52.79 E11.42076
G1 X11 Y52.8 E11.44083
G1 X1 Y52.8 E11.93973
G1 X0.211 Y52.76 E11.97914
G1 X-.569 Y52.641 E12.01851
G1 X-1.334 Y52.443 E12.05793
G1 X-2.074 Y52.169 E12.0973
G1 X-2.783 Y51.821 E12.1367
G1 X-3.454 Y51.403 E12.17614
G1 X-4.078 Y50.92 E12.21551
G1 X-4.651 Y50.377 E12.2549
G1 X-5.166 Y49.778 E12.29431
G1 X-5.617 Y49.13 E12.33369
G1 X-6.001 Y48.439 E12.37313
G1 X-6.313 Y47.714 E12.41251
G1 X-6.55 Y46.961 E12.4519
G1 X-6.709 Y46.187 E12.49132
G1 X-6.79 Y45.402 E12.53069
G1 X-6.8 Y45 E12.55075
G1 X-6.8 Y-22.2 E15.90337
G0 F3600 X-6.4 Y-22.6
G1 F1800 X-24 Y-22.6 E16.78144
G1 X-24.768 Y-22.64 E16.81981
G1 X-25.528 Y-22.759 E16.85819
G1 X-26.271 Y-22.957 E16.89655
G1 X-26.99 Y-23.231 E16.93494
G1 X-27.676 Y-23.578 E16.97329
G1 X-28.323 Y-23.994 E17.01166
G1 X-28.923 Y-24.475 E17.05003
G1 X-29.47 Y-25.016 E17.08841
G1 X-29.958 Y-25.611 E17.12681
G1 X-30.381 Y-26.253 E17.16516
G1 X-30.736 Y-26.936 E17.20356
G1 X-31.017 Y-27.651 E17.24189
G1 X-31.223 Y-28.393 E17.28031
G1 X-31.351 Y-29.151 E17.31866
G1 X-31.4 Y-30 E17.36109
G1 X-31.4 Y-45 E18.10944
G1 X-31.36 Y-45.768 E18.14781
G1 X-31.241 Y-46.528 E18.18619
G1 X-31.043 Y-47.271 E18.22455
G1 X-30.769 Y-47.99 E18.26294
G1 X-30.422 Y-48.676 E18.30129
G1 X-30.006 Y-49.323 E18.33967
G1 X-29.525 Y-49.923 E18.37803
G1 X-28.984 Y-50.47 E18.41642
G1 X-28.389 Y-50.958 E18.45481
G1 X-27.747 Y-51.381 E18.49317
G1 X-27.064 Y-51.736 E18.53157
G1 X-26.349 Y-52.017 E18.5699
G1 X-25.607 Y-52.223 E18.60831
G1 X-24.849 Y-52.351 E18.64667
G1 X-24 Y-52.4 E18.68909
G1 X19 Y-52.4 E20.83437
G1 X19.768 Y-52.36 E20.87274
G1 X20.528 Y-52.241 E20.91112
G1 X21.271 Y-52.043 E20.94948
G1 X21.99 Y-51.769 E20.98787
G1 X22.676 Y-51.422 E21.02622
G1 X23.323 Y-51.006 E21.0646
G1 X23.923 Y-50.525 E21.10296
G1 X24.47 Y-49.984 E21.14135
G1 X24.958 Y-49.389 E21.17974
G1 X25.381 Y-48.747 E21.21809
G1 X25.736 Y-48.064 E21.2565
G1 X26.017 Y-47.349 E21.29483
G1 X26.223 Y-46.607 E21.33324
G1 X26.351 Y-45.849 E21.3716
G1 X26.4 Y-45 E21.41402
G1 X26.4 Y-36.994 E21.81344
G1 X26.99 Y-36.769 E21.84495
G1 X27.676 Y-36.422 E21.8833
G1 X28.323 Y-36.006 E21.92168
G1 X28.923 Y-35.525 E21.96004
G1 X29.47 Y-34.984 E21.99843
G1 X29.958 Y-34.389 E22.03682
G1 X30.381 Y-33.747 E22.07517
G1 X30.736 Y-33.064 E22.11358
G1 X31.017 Y-32.349 E22.1519
G1 X31.223 Y-31.607 E22.19032
G1 X31.351 Y-30.849 E22.22867
G1 X31.4 Y-30 E22.2711
G1 X31.4 Y45 E26.01287
G1 X31.36 Y45.768 E26.05123
G1 X31.241 Y46.528 E26.08961
G1 X31.043 Y47.271 E26.12798
G1 X30.769 Y47.99 E26.16636
G1 X30.422 Y48.676 E26.20472
G1 X30.006 Y49.323 E26.24309
G1 X29.525 Y49.923 E26.28146
G1 X28.984 Y50.47 E26.31984
G1 X28.389 Y50.958 E26.35823
G1 X27.747 Y51.381 E26.39659
G1 X27.064 Y51.736 E26.43499
G1 X26.349 Y52.017 E26.47332
G1 X25.607 Y52.223 E26.51174
G1 X24.849 Y52.351 E26.55009
G1 X24 Y52.4 E26.59252
G1 X14 Y52.4 E27.09142
G1 X13.232 Y52.36 E27.12979
G1 X12.487 Y52.243 E27.16741
G1 X11.849 Y52.351 E27.19969
G1 X11 Y52.4 E27.24212
G1 X1 Y52.4 E27.74102
G1 X0.232 Y52.36 E27.77939
G1 X-.528 Y52.241 E27.81777
G1 X-1.271 Y52.043 E27.85613
G1 X-1.99 Y51.769 E27.89452
G1 X-2.676 Y51.422 E27.93287
G1 X-3.323 Y51.006 E27.97125
G1 X-3.923 Y50.525 E28.00961
G1 X-4.47 Y49.984 E28.048
G1 X-4.958 Y49.389 E28.08639
G1 X-5.381 Y48.747 E28.12475
G1 X-5.736 Y48.064 E28.16315
G1 X-6.017 Y47.349 E28.20148
G1 X-6.223 Y46.607 E28.23989
G1 X-6.351 Y45.849 E28.27825
G1 X-6.4 Y45 E28.32067
G1 X-6.4 Y-22.6 E31.69325
G0 F3600 X-6 Y-23
G1 F1800 X-24 Y-23 E32.59128
G1 X-24.747 Y-23.04 E32.6286
G1 X-25.485 Y-23.159 E32.66589
G1 X-26.207 Y-23.357 E32.70324
G1 X-26.903 Y-23.63 E32.74054
G1 X-27.566 Y-23.977 E32.77787
G1 X-28.189 Y-24.392 E32.81522
G1 X-28.763 Y-24.871 E32.85252
G1 X-29.284 Y-25.408 E32.88985
G1 X-29.743 Y-25.998 E32.92714
G1 X-30.138 Y-26.634 E32.96449
G1 X-30.462 Y-27.308 E33.0018
G1 X-30.712 Y-28.013 E33.03912
G1 X-30.886 Y-28.741 E33.07646
G1 X-30.981 Y-29.483 E33.11378
G1 X-31 Y-30 E33.1396
G1 X-31 Y-45 E33.88795
G1 X-30.96 Y-45.747 E33.92527
G1 X-30.841 Y-46.485 E33.96256
G1 X-30.643 Y-47.207 E33.99992
G1 X-30.37 Y-47.903 E34.03721
G1 X-30.023 Y-48.566 E34.07455
G1 X-29.608 Y-49.189 E34.11189
G1 X-29.129 Y-49.763 E34.14919
G1 X-28.592 Y-50.284 E34.18652
G1 X-28.002 Y-50.743 E34.22381
G1 X-27.366 Y-51.138 E34.26117
G1 X-26.692 Y-51.462 E34.29848
G1 X-25.987 Y-51.712 E34.33579
G1 X-25.259 Y-51.886 E34.37314
G1 X-24.517 Y-51.981 E34.41046
G1 X-24 Y-52 E34.43627
G1 X19 Y-52 E36.58155
G1 X19.747 Y-51.96 E36.61887
G1 X20.485 Y-51.841 E36.65616
G1 X21.207 Y-51.643 E36.69351
G1 X21.903 Y-51.37 E36.73081
G1 X22.566 Y-51.023 E36.76815
G1 X23.189 Y-50.608 E36.80549
G1 X23.763 Y-50.129 E36.84279
G1 X24.284 Y-49.592 E36.88012
G1 X24.743 Y-49.002 E36.91741
G1 X25.138 Y-48.366 E36.95476
G1 X25.462 Y-47.692 E36.99207
G1 X25.712 Y-46.987 E37.02939
G1 X25.886 Y-46.259 E37.06674
G1 X25.981 Y-45.517 E37.10406
G1 X26 Y-45 E37.12987
G1 X26 Y-36.7 E37.54396
G1 X26.207 Y-36.643 E37.55467
G1 X26.903 Y-36.37 E37.59197
G1 X27.566 Y-36.023 E37.6293
G1 X28.189 Y-35.608 E37.66665
G1 X28.763 Y-35.129 E37.70395
G1 X29.284 Y-34.592 E37.74127
G1 X29.743 Y-34.002 E37.77857
G1 X30.138 Y-33.366 E37.81592
G1 X30.462 Y-32.692 E37.85323
G1 X30.712 Y-31.987 E37.89055
G1 X30.886 Y-31.259 E37.92789
G1 X30.981 Y-30.517 E37.96521
G1 X31 Y-30 E37.99102
G1 X31 Y45 E41.73279
G1 X30.96 Y45.747 E41.77011
G1 X30.841 Y46.485 E41.8074
G1 X30.643 Y47.207 E41.84475
G1 X30.37 Y47.903 E41.88205
G1 X30.023 Y48.566 E41.91939
G1 X29.608 Y49.189 E41.95673
G1 X29.129 Y49.763 E41.99403
G1 X28.592 Y50.284 E42.03136
G1 X28.002 Y50.743 E42.06865
G1 X27.366 Y51.138 E42.106
G1 X26.692 Y51.462 E42.14331
G1 X25.987 Y51.712 E42.18063
G1 X25.259 Y51.886 E42.21797
G1 X24.517 Y51.981 E42.2553
G1 X24 Y52 E42.28111
G1 X14 Y52 E42.78001
G1 X13.253 Y51.96 E42.81733
G1 X12.515 Y51.841 E42.85462
G1 X12.259 Y51.886 E42.86759
G1 X11.517 Y51.981 E42.90491
G1 X11 Y52 E42.93072
G1 X1 Y52 E43.42963
G1 X0.253 Y51.96 E43.46695
G1 X-.485 Y51.841 E43.50424
G1 X-1.207 Y51.643 E43.54159
G1 X-1.903 Y51.37 E43.57889
G1 X-2.566 Y51.023 E43.61622
G1 X-3.189 Y50.608 E43.65357
G1 X-3.763 Y50.129 E43.69087
G1 X-4.284 Y49.592 E43.7282
G1 X-4.743 Y49.002 E43.76549
G1 X-5.138 Y48.366 E43.80284
G1 X-5.462 Y47.692 E43.84015
G1 X-5.712 Y46.987 E43.87747
G1 X-5.886 Y46.259 E43.91481
G1 X-5.981 Y45.517 E43.95213
G1 X-6 Y45 E43.97795
G1 X-6 Y-23 E47.37048
G0 F3600 X-5.6 Y-23.4
G1 F1800 X-24 Y-23.4 E48.28846
G1 X-24.725 Y-23.44 E48.32468
G1 X-25.442 Y-23.559 E48.36094
G1 X-26.141 Y-23.757 E48.39719
G1 X-26.814 Y-24.03 E48.43342
G1 X-27.453 Y-24.375 E48.46965
G1 X-28.05 Y-24.789 E48.5059
G1 X-28.598 Y-25.265 E48.54211
G1 X-29.091 Y-25.799 E48.57837
G1 X-29.521 Y-26.384 E48.61459
G1 X-29.885 Y-27.013 E48.65085
G1 X-30.178 Y-27.678 E48.6871
G1 X-30.396 Y-28.371 E48.72335
G1 X-30.536 Y-29.083 E48.75955
G1 X-30.6 Y-30 E48.80541
G1 X-30.6 Y-45 E49.55376
G1 X-30.56 Y-45.725 E49.58999
G1 X-30.441 Y-46.442 E49.62625
G1 X-30.243 Y-47.141 E49.6625
G1 X-29.97 Y-47.814 E49.69873
G1 X-29.625 Y-48.453 E49.73496
G1 X-29.211 Y-49.05 E49.7712
G1 X-28.735 Y-49.598 E49.80742
G1 X-28.201 Y-50.091 E49.84368
G1 X-27.616 Y-50.521 E49.8799
G1 X-26.987 Y-50.885 E49.91616
G1 X-26.322 Y-51.178 E49.95241
G1 X-25.629 Y-51.396 E49.98865
G1 X-24.917 Y-51.536 E50.02486
G1 X-24 Y-51.6 E50.07072
G1 X19 Y-51.6 E52.216
G1 X19.725 Y-51.56 E52.25222
G1 X20.442 Y-51.441 E52.28848
G1 X21.141 Y-51.243 E52.32473
G1 X21.814 Y-50.97 E52.36096
G1 X22.453 Y-50.625 E52.39719
G1 X23.05 Y-50.211 E52.43343
G1 X23.598 Y-49.735 E52.46965
G1 X24.091 Y-49.201 E52.50591
G1 X24.521 Y-48.616 E52.54213
G1 X24.885 Y-47.987 E52.57839
G1 X25.178 Y-47.322 E52.61464
G1 X25.396 Y-46.629 E52.65089
G1 X25.536 Y-45.917 E52.68709
G1 X25.6 Y-45 E52.73295
G1 X25.6 Y-36.396 E53.1622
G1 X26.141 Y-36.243 E53.19025
G1 X26.814 Y-35.97 E53.22649
G1 X27.453 Y-35.625 E53.26272
G1 X28.05 Y-35.211 E53.29896
G1 X28.598 Y-34.735 E53.33517
G1 X29.091 Y-34.201 E53.37143
G1 X29.521 Y-33.616 E53.40766
G1 X29.885 Y-32.987 E53.44391
G1 X30.178 Y-32.322 E53.48017
G1 X30.396 Y-31.629 E53.51641
G1 X30.536 Y-30.917 E53.55261
G1 X30.6 Y-30 E53.59847
G1 X30.6 Y45 E57.34024
G1 X30.56 Y45.725 E57.37646
G1 X30.441 Y46.442 E57.41272
G1 X30.243 Y47.141 E57.44897
G1 X29.97 Y47.814 E57.4852
G1 X29.625 Y48.453 E57.52143
G1 X29.211 Y49.05 E57.55768
G1 X28.735 Y49.598 E57.59389
G1 X28.201 Y50.091 E57.63015
G1 X27.616 Y50.521 E57.66637
G1 X26.987 Y50.885 E57.70263
G1 X26.322 Y51.178 E57.73888
G1 X25.629 Y51.396 E57.77513
G1 X24.917 Y51.536 E57.81133
G1 X24 Y51.6 E57.85719
G1 X14 Y51.6 E58.35609
G1 X13.275 Y51.56 E58.39232
G1 X12.558 Y51.441 E58.42858
G1 X12.493 Y51.423 E58.43194
G1 X11.917 Y51.536 E58.46123
G1 X11 Y51.6 E58.50709
G1 X1 Y51.6 E59.00599
G1 X0.275 Y51.56 E59.04222
G1 X-.442 Y51.441 E59.07848
G1 X-1.141 Y51.243 E59.11472
G1 X-1.814 Y50.97 E59.15096
G1 X-2.453 Y50.625 E59.18719
G1 X-3.05 Y50.211 E59.22343
G1 X-3.598 Y49.735 E59.25964
G1 X-4.091 Y49.201 E59.2959
G1 X-4.521 Y48.616 E59.33213
G1 X-4.885 Y47.987 E59.36838
G1 X-5.178 Y47.322 E59.40464
G1 X-5.396 Y46.629 E59.44088
G1 X-5.536 Y45.917 E59.47708
G1 X-5.6 Y45 E59.52294
G1 X-5.6 Y-23.4 E62.93543
G0 F3600 X-5.2 Y-23.8
G1 F1800 X-24 Y-23.8 E63.87337
G1 X-24.703 Y-23.84 E63.9085
G1 X-25.397 Y-23.959 E63.94363
G1 X-26.072 Y-24.157 E63.97872
G1 X-26.721 Y-24.429 E64.01383
G1 X-27.335 Y-24.774 E64.04897
G1 X-27.906 Y-25.185 E64.08407
G1 X-28.427 Y-25.659 E64.11921
G1 X-28.891 Y-26.189 E64.15435
G1 X-29.291 Y-26.768 E64.18946
G1 X-29.623 Y-27.389 E64.22459
G1 X-29.883 Y-28.043 E64.2597
G1 X-30.067 Y-28.723 E64.29485
G1 X-30.173 Y-29.419 E64.32997
G1 X-30.2 Y-30 E64.35899
G1 X-30.2 Y-45 E65.10734
G1 X-30.16 Y-45.703 E65.14247
G1 X-30.041 Y-46.397 E65.1776
G1 X-29.843 Y-47.072 E65.2127
G1 X-29.571 Y-47.721 E65.2478
G1 X-29.226 Y-48.335 E65.28294
G1 X-28.815 Y-48.906 E65.31804
G1 X-28.341 Y-49.427 E65.35318
G1 X-27.811 Y-49.891 E65.38832
G1 X-27.232 Y-50.291 E65.42343
G1 X-26.611 Y-50.623 E65.45856
G1 X-25.957 Y-50.883 E65.49368
G1 X-25.277 Y-51.067 E65.52882
G1 X-24.581 Y-51.173 E65.56395
G1 X-24 Y-51.2 E65.59296
G1 X19 Y-51.2 E67.73824
G1 X19.703 Y-51.16 E67.77337
G1 X20.397 Y-51.041 E67.8085
G1 X21.072 Y-50.843 E67.8436
G1 X21.721 Y-50.571 E67.8787
G1 X22.335 Y-50.226 E67.91384
G1 X22.906 Y-49.815 E67.94894
G1 X23.427 Y-49.341 E67.98408
G1 X23.891 Y-48.811 E68.01922
G1 X24.291 Y-48.232 E68.05433
G1 X24.623 Y-47.611 E68.08946
G1 X24.883 Y-46.957 E68.12458
G1 X25.067 Y-46.277 E68.15972
G1 X25.173 Y-45.581 E68.19485
G1 X25.2 Y-45 E68.22386
G1 X25.2 Y-36.075 E68.66913
G1 X25.397 Y-36.041 E68.67911
G1 X26.072 Y-35.843 E68.7142
G1 X26.721 Y-35.571 E68.74931
G1 X27.335 Y-35.226 E68.78445
G1 X27.906 Y-34.815 E68.81955
G1 X28.427 Y-34.341 E68.85469
G1 X28.891 Y-33.811 E68.88983
G1 X29.291 Y-33.232 E68.92494
G1 X29.623 Y-32.611 E68.96007
G1 X29.883 Y-31.957 E68.99518
G1 X30.067 Y-31.277 E69.03033
G1 X30.173 Y-30.581 E69.06545
G1 X30.2 Y-30 E69.09447
G1 X30.2 Y45 E72.83623
G1 X30.16 Y45.703 E72.87136
G1 X30.041 Y46.397 E72.90649
G1 X29.843 Y47.072 E72.94159
G1 X29.571 Y47.721 E72.9767
G1 X29.226 Y48.335 E73.01183
G1 X28.815 Y48.906 E73.04693
G1 X28.341 Y49.427 E73.08207
G1 X27.811 Y49.891 E73.11722
G1 X27.232 Y50.291 E73.15233
G1 X26.611 Y50.623 E73.18746
G1 X25.957 Y50.883 E73.22257
G1 X25.277 Y51.067 E73.25771
G1 X24.581 Y51.173 E73.29284
G1 X24 Y51.2 E73.32186
G1 X14 Y51.2 E73.82076
G1 X13.297 Y51.16 E73.85589
G1 X12.603 Y51.041 E73.89102
G1 X12.493 Y51.009 E73.89673
G1 X12.277 Y51.067 E73.90789
G1 X11.581 Y51.173 E73.94301
G1 X11 Y51.2 E73.97203
G1 X1 Y51.2 E74.47093
G1 X0.297 Y51.16 E74.50606
G1 X-.397 Y51.041 E74.54119
G1 X-1.072 Y50.843 E74.57629
G1 X-1.721 Y50.571 E74.61139
G1 X-2.335 Y50.226 E74.64653
G1 X-2.906 Y49.815 E74.68163
G1 X-3.427 Y49.341 E74.71677
G1 X-3.891 Y48.811 E74.75191
G1 X-4.291 Y48.232 E74.78702
G1 X-4.623 Y47.611 E74.82216
G1 X-4.883 Y46.957 E74.85727
G1 X-5.067 Y46.277 E74.89241
G1 X-5.173 Y45.581 E74.92754
G1 X-5.2 Y45 E74.95655
G1 X-5.2 Y-23.8 E78.389
G0 F3600 X-4.8 Y-24.2
G1 F1800 X-24 Y-24.2 E79.34689
G1 X-24.68 Y-24.24 E79.38088
G1 X-25.35 Y-24.359 E79.41483
G1 X-26.002 Y-24.556 E79.44881
G1 X-26.626 Y-24.828 E79.48277
G1 X-27.214 Y-25.172 E79.51675
G1 X-27.758 Y-25.582 E79.55074
G1 X-28.249 Y-26.053 E79.58468
G1 X-28.683 Y-26.578 E79.61867
G1 X-29.052 Y-27.15 E79.65263
G1 X-29.351 Y-27.762 E79.68661
G1 X-29.576 Y-28.404 E79.72055
G1 X-29.725 Y-29.069 E79.75455
G1 X-29.8 Y-30 E79.80115
G1 X-29.8 Y-45 E80.5495
G1 X-29.76 Y-45.68 E80.58348
G1 X-29.641 Y-46.35 E80.61743
G1 X-29.444 Y-47.002 E80.65141
G1 X-29.172 Y-47.626 E80.68537
G1 X-28.828 Y-48.214 E80.71936
G1 X-28.418 Y-48.758 E80.75335
G1 X-27.947 Y-49.249 E80.78729
G1 X-27.422 Y-49.683 E80.82127
G1 X-26.85 Y-50.052 E80.85523
G1 X-26.238 Y-50.351 E80.88922
G1 X-25.596 Y-50.576 E80.92316
G1 X-24.931 Y-50.725 E80.95716
G1 X-24 Y-50.8 E81.00375
G1 X19 Y-50.8 E83.14903
G1 X19.68 Y-50.76 E83.18302
G1 X20.35 Y-50.641 E83.21697
G1 X21.002 Y-50.444 E83.25095
G1 X21.626 Y-50.172 E83.28491
G1 X22.214 Y-49.828 E83.31889
G1 X22.758 Y-49.418 E83.35288
G1 X23.249 Y-48.947 E83.38682
G1 X23.683 Y-48.422 E83.42081
G1 X24.052 Y-47.85 E83.45477
