;FLAVOR:Marlin
;TIME:12180
;Filament used: 26.7291m
;Layer height: 0.3
;MINX:-56.8
;MINY:-57.8
;MINZ:0.3
;MAXX:56.8
;MAXY:57.8
;MAXZ:63.9
;Generated with Cura_SteamEngine 4.7.1
M140 S50
M105
M190 S50
M104 S250
M105
M109 S250
M82 ;absolute extrusion mode
G28 ;Home
G1 Z15.0 F6000 ;Move the platform down 15mm
;Prime the extruder
G92 E0
G1 F200 E3
G92 E0
G92 E0
G92 E0
G1 F1500 E-6.5
;LAYER_COUNT:213
;LAYER:0
M107
G0 F3600 X6.8 Y2.8 Z0.3
;TYPE:SKIRT
G1 F1500 E0
G1 F1800 X6.8 Y50 E2.35482
G1 X6.76 Y50.789 E2.39423
G1 X6.641 Y51.569 E2.4336
G1 X6.443 Y52.334 E2.47302
G1 X6.169 Y53.074 E2.51239
G1 X5.821 Y53.783 E2.55179
G1 X5.403 Y54.454 E2.59123
G1 X4.92 Y55.078 E2.6306
G1 X4.377 Y55.651 E2.66998
G1 X3.778 Y56.166 E2.70939
G1 X3.13 Y56.617 E2.74878
G1 X2.439 Y57.001 E2.78822
G1 X1.714 Y57.313 E2.8276
G1 X0.961 Y57.55 E2.86698
G1 X0.187 Y57.709 E2.90641
G1 X-.598 Y57.79 E2.94578
G1 X-1 Y57.8 E2.96584
G1 X-11 Y57.8 E3.46474
G1 X-11.789 Y57.76 E3.50416
G1 X-12.519 Y57.649 E3.54099
G1 X-12.813 Y57.709 E3.55596
G1 X-13.598 Y57.79 E3.59534
G1 X-14 Y57.8 E3.6154
G1 X-24 Y57.8 E4.1143
G1 X-24.789 Y57.76 E4.15371
G1 X-25.569 Y57.641 E4.19308
G1 X-26.334 Y57.443 E4.2325
G1 X-27.074 Y57.169 E4.27187
G1 X-27.783 Y56.821 E4.31127
G1 X-28.454 Y56.403 E4.35071
G1 X-29.078 Y55.92 E4.39008
G1 X-29.651 Y55.377 E4.42947
G1 X-30.166 Y54.778 E4.46888
G1 X-30.617 Y54.13 E4.50827
G1 X-31.001 Y53.439 E4.54771
G1 X-31.313 Y52.714 E4.58708
G1 X-31.55 Y51.961 E4.62647
G1 X-31.709 Y51.187 E4.66589
G1 X-31.79 Y50.402 E4.70526
G1 X-31.8 Y50 E4.72532
G1 X-31.8 Y2.8 E7.08014
G1 X-49 Y2.8 E7.93825
G1 X-49.789 Y2.76 E7.97766
G1 X-50.569 Y2.641 E8.01703
G1 X-51.334 Y2.443 E8.05645
G1 X-52.074 Y2.169 E8.09582
G1 X-52.783 Y1.821 E8.13522
G1 X-53.454 Y1.403 E8.17467
G1 X-54.078 Y0.92 E8.21403
G1 X-54.651 Y0.377 E8.25342
G1 X-55.166 Y-.222 E8.29283
G1 X-55.617 Y-.87 E8.33222
G1 X-56.001 Y-1.561 E8.37166
G1 X-56.313 Y-2.286 E8.41103
G1 X-56.55 Y-3.039 E8.45042
G1 X-56.709 Y-3.813 E8.48984
G1 X-56.79 Y-4.598 E8.52921
G1 X-56.8 Y-5 E8.54927
G1 X-56.8 Y-50 E10.79433
G1 X-56.76 Y-50.789 E10.83375
G1 X-56.641 Y-51.569 E10.87311
G1 X-56.443 Y-52.334 E10.91253
G1 X-56.169 Y-53.074 E10.9519
G1 X-55.821 Y-53.783 E10.99131
G1 X-55.403 Y-54.454 E11.03075
G1 X-54.92 Y-55.078 E11.07011
G1 X-54.377 Y-55.651 E11.1095
G1 X-53.778 Y-56.166 E11.14891
G1 X-53.13 Y-56.617 E11.1883
G1 X-52.439 Y-57.001 E11.22774
G1 X-51.714 Y-57.313 E11.26711
G1 X-50.961 Y-57.55 E11.3065
G1 X-50.187 Y-57.709 E11.34592
G1 X-49.402 Y-57.79 E11.38529
G1 X-49 Y-57.8 E11.40535
G1 X-34 Y-57.8 E12.15371
G1 X-33.211 Y-57.76 E12.19312
G1 X-32.431 Y-57.641 E12.23249
G1 X-31.666 Y-57.443 E12.27191
G1 X-30.926 Y-57.169 E12.31128
G1 X-30.217 Y-56.821 E12.35068
G1 X-29.546 Y-56.403 E12.39012
G1 X-28.922 Y-55.92 E12.42949
G1 X-28.349 Y-55.377 E12.46887
G1 X-27.834 Y-54.778 E12.50828
G1 X-27.383 Y-54.13 E12.54767
G1 X-26.999 Y-53.439 E12.58711
G1 X-26.687 Y-52.714 E12.62649
G1 X-26.45 Y-51.961 E12.66587
G1 X-26.291 Y-51.187 E12.7053
G1 X-26.21 Y-50.402 E12.74467
G1 X-26.2 Y-50 E12.76473
G1 X-26.2 Y-22.8 E14.12174
G1 X26.2 Y-22.8 E16.73599
G1 X26.2 Y-50 E18.093
G1 X26.24 Y-50.789 E18.13242
G1 X26.359 Y-51.569 E18.17178
G1 X26.557 Y-52.334 E18.2112
G1 X26.831 Y-53.074 E18.25057
G1 X27.179 Y-53.783 E18.28998
G1 X27.597 Y-54.454 E18.32942
G1 X28.08 Y-55.078 E18.36879
G1 X28.623 Y-55.651 E18.40817
G1 X29.222 Y-56.166 E18.44758
G1 X29.87 Y-56.617 E18.48697
G1 X30.561 Y-57.001 E18.52641
G1 X31.286 Y-57.313 E18.56579
G1 X32.039 Y-57.55 E18.60517
G1 X32.813 Y-57.709 E18.64459
G1 X33.598 Y-57.79 E18.68396
G1 X34 Y-57.8 E18.70402
G1 X49 Y-57.8 E19.45238
G1 X49.789 Y-57.76 E19.49179
G1 X50.569 Y-57.641 E19.53116
G1 X51.334 Y-57.443 E19.57058
G1 X52.074 Y-57.169 E19.60995
G1 X52.783 Y-56.821 E19.64935
G1 X53.454 Y-56.403 E19.68879
G1 X54.078 Y-55.92 E19.72816
G1 X54.651 Y-55.377 E19.76754
G1 X55.166 Y-54.778 E19.80696
G1 X55.617 Y-54.13 E19.84634
G1 X56.001 Y-53.439 E19.88578
G1 X56.313 Y-52.714 E19.92516
G1 X56.55 Y-51.961 E19.96454
G1 X56.709 Y-51.187 E20.00397
G1 X56.79 Y-50.402 E20.04334
G1 X56.8 Y-50 E20.0634
G1 X56.8 Y-5 E22.30846
G1 X56.76 Y-4.211 E22.34787
G1 X56.641 Y-3.431 E22.38724
G1 X56.443 Y-2.666 E22.42666
G1 X56.169 Y-1.926 E22.46603
G1 X55.821 Y-1.217 E22.50543
G1 X55.403 Y-.546 E22.54487
G1 X54.92 Y0.078 E22.58424
G1 X54.377 Y0.651 E22.62363
G1 X53.778 Y1.166 E22.66304
G1 X53.13 Y1.617 E22.70242
G1 X52.439 Y2.001 E22.74186
G1 X51.714 Y2.313 E22.78124
G1 X50.961 Y2.55 E22.82063
G1 X50.187 Y2.709 E22.86005
G1 X49.402 Y2.79 E22.89942
G1 X49 Y2.8 E22.91948
G1 X6.8 Y2.8 E25.02485
G0 F3600 X6.4 Y2.4
G1 F1800 X6.4 Y50 E27.39962
G1 X6.36 Y50.768 E27.43799
G1 X6.241 Y51.528 E27.47637
G1 X6.043 Y52.271 E27.51473
G1 X5.769 Y52.99 E27.55312
G1 X5.422 Y53.676 E27.59147
G1 X5.006 Y54.323 E27.62985
G1 X4.525 Y54.923 E27.66821
G1 X3.984 Y55.47 E27.70659
G1 X3.389 Y55.958 E27.74499
G1 X2.747 Y56.381 E27.78334
G1 X2.064 Y56.736 E27.82175
G1 X1.349 Y57.017 E27.86007
G1 X0.607 Y57.223 E27.89849
G1 X-.151 Y57.351 E27.93684
G1 X-1 Y57.4 E27.97927
G1 X-11 Y57.4 E28.47817
G1 X-11.768 Y57.36 E28.51654
G1 X-12.513 Y57.243 E28.55417
G1 X-13.151 Y57.351 E28.58645
G1 X-14 Y57.4 E28.62888
G1 X-24 Y57.4 E29.12778
G1 X-24.768 Y57.36 E29.16614
G1 X-25.528 Y57.241 E29.20452
G1 X-26.271 Y57.043 E29.24289
G1 X-26.99 Y56.769 E29.28127
G1 X-27.676 Y56.422 E29.31963
G1 X-28.323 Y56.006 E29.358
G1 X-28.923 Y55.525 E29.39637
G1 X-29.47 Y54.984 E29.43475
G1 X-29.958 Y54.389 E29.47314
G1 X-30.381 Y53.747 E29.5115
G1 X-30.736 Y53.064 E29.5499
G1 X-31.017 Y52.349 E29.58823
G1 X-31.223 Y51.607 E29.62665
G1 X-31.351 Y50.849 E29.665
G1 X-31.4 Y50 E29.70743
G1 X-31.4 Y2.4 E32.0822
G1 X-49 Y2.4 E32.96027
G1 X-49.768 Y2.36 E32.99864
G1 X-50.528 Y2.241 E33.03702
G1 X-51.271 Y2.043 E33.07538
G1 X-51.99 Y1.769 E33.11376
G1 X-52.676 Y1.422 E33.15212
G1 X-53.323 Y1.006 E33.19049
G1 X-53.923 Y0.525 E33.22886
G1 X-54.47 Y-0.016 E33.26724
G1 X-54.958 Y-.611 E33.30563
G1 X-55.381 Y-1.253 E33.34399
G1 X-55.736 Y-1.936 E33.38239
G1 X-56.017 Y-2.651 E33.42072
G1 X-56.223 Y-3.393 E33.45914
G1 X-56.351 Y-4.151 E33.49749
G1 X-56.4 Y-5 E33.53992
G1 X-56.4 Y-50 E35.78498
G1 X-56.36 Y-50.768 E35.82335
G1 X-56.241 Y-51.528 E35.86172
G1 X-56.043 Y-52.271 E35.90009
G1 X-55.769 Y-52.99 E35.93847
G1 X-55.422 Y-53.676 E35.97683
G1 X-55.006 Y-54.323 E36.0152
G1 X-54.525 Y-54.923 E36.05357
G1 X-53.984 Y-55.47 E36.09195
G1 X-53.389 Y-55.958 E36.13034
G1 X-52.747 Y-56.381 E36.1687
G1 X-52.064 Y-56.736 E36.2071
G1 X-51.349 Y-57.017 E36.24543
G1 X-50.607 Y-57.223 E36.28385
G1 X-49.849 Y-57.351 E36.3222
G1 X-49 Y-57.4 E36.36463
G1 X-34 Y-57.4 E37.11298
G1 X-33.232 Y-57.36 E37.15135
G1 X-32.472 Y-57.241 E37.18973
G1 X-31.729 Y-57.043 E37.22809
G1 X-31.01 Y-56.769 E37.26648
G1 X-30.324 Y-56.422 E37.30483
G1 X-29.677 Y-56.006 E37.34321
G1 X-29.077 Y-55.525 E37.38157
G1 X-28.53 Y-54.984 E37.41996
G1 X-28.042 Y-54.389 E37.45835
G1 X-27.619 Y-53.747 E37.4967
G1 X-27.264 Y-53.064 E37.53511
G1 X-26.983 Y-52.349 E37.57343
G1 X-26.777 Y-51.607 E37.61185
G1 X-26.649 Y-50.849 E37.65021
G1 X-26.6 Y-50 E37.69263
G1 X-26.6 Y-22.4 E39.0696
G1 X26.6 Y-22.4 E41.72376
G1 X26.6 Y-50 E43.10073
G1 X26.64 Y-50.768 E43.1391
G1 X26.759 Y-51.528 E43.17748
G1 X26.957 Y-52.271 E43.21584
G1 X27.231 Y-52.99 E43.25423
G1 X27.578 Y-53.676 E43.29258
G1 X27.994 Y-54.323 E43.33096
G1 X28.475 Y-54.923 E43.36932
G1 X29.016 Y-55.47 E43.4077
G1 X29.611 Y-55.958 E43.4461
G1 X30.253 Y-56.381 E43.48445
G1 X30.936 Y-56.736 E43.52286
G1 X31.651 Y-57.017 E43.56118
G1 X32.393 Y-57.223 E43.5996
G1 X33.151 Y-57.351 E43.63795
G1 X34 Y-57.4 E43.68038
G1 X49 Y-57.4 E44.42873
G1 X49.768 Y-57.36 E44.4671
G1 X50.528 Y-57.241 E44.50548
G1 X51.271 Y-57.043 E44.54384
G1 X51.99 Y-56.769 E44.58223
G1 X52.676 Y-56.422 E44.62058
G1 X53.323 Y-56.006 E44.65896
G1 X53.923 Y-55.525 E44.69733
G1 X54.47 Y-54.984 E44.73571
G1 X54.958 Y-54.389 E44.7741
G1 X55.381 Y-53.747 E44.81246
G1 X55.736 Y-53.064 E44.85086
G1 X56.017 Y-52.349 E44.88919
G1 X56.223 Y-51.607 E44.92761
G1 X56.351 Y-50.849 E44.96596
G1 X56.4 Y-50 E45.00839
G1 X56.4 Y-5 E47.25344
G1 X56.36 Y-4.232 E47.29181
G1 X56.241 Y-3.472 E47.33019
G1 X56.043 Y-2.729 E47.36855
G1 X55.769 Y-2.01 E47.40694
G1 X55.422 Y-1.324 E47.44529
G1 X55.006 Y-.677 E47.48367
G1 X54.525 Y-0.077 E47.52203
G1 X53.984 Y0.47 E47.56042
G1 X53.389 Y0.958 E47.59881
G1 X52.747 Y1.381 E47.63717
G1 X52.064 Y1.736 E47.67557
G1 X51.349 Y2.017 E47.7139
G1 X50.607 Y2.223 E47.75232
G1 X49.849 Y2.351 E47.79067
G1 X49 Y2.4 E47.83309
G1 X6.4 Y2.4 E49.95842
G0 F3600 X6 Y2
G1 F1800 X6 Y50 E52.35315
G1 X5.96 Y50.747 E52.39047
G1 X5.841 Y51.485 E52.42776
G1 X5.643 Y52.207 E52.46511
G1 X5.37 Y52.903 E52.50241
G1 X5.023 Y53.566 E52.53975
G1 X4.608 Y54.189 E52.57709
G1 X4.129 Y54.763 E52.61439
G1 X3.592 Y55.284 E52.65172
G1 X3.002 Y55.743 E52.68901
G1 X2.366 Y56.138 E52.72636
G1 X1.692 Y56.462 E52.76367
G1 X0.987 Y56.712 E52.80099
G1 X0.259 Y56.886 E52.83834
G1 X-.483 Y56.981 E52.87566
G1 X-1 Y57 E52.90147
G1 X-11 Y57 E53.40037
G1 X-11.747 Y56.96 E53.43769
G1 X-12.485 Y56.841 E53.47499
G1 X-12.741 Y56.886 E53.48795
G1 X-13.483 Y56.981 E53.52527
G1 X-14 Y57 E53.55108
G1 X-24 Y57 E54.04999
G1 X-24.747 Y56.96 E54.08731
G1 X-25.485 Y56.841 E54.1246
G1 X-26.207 Y56.643 E54.16195
G1 X-26.903 Y56.37 E54.19925
G1 X-27.566 Y56.023 E54.23659
G1 X-28.189 Y55.608 E54.27393
G1 X-28.763 Y55.129 E54.31123
G1 X-29.284 Y54.592 E54.34856
G1 X-29.743 Y54.002 E54.38585
G1 X-30.138 Y53.366 E54.4232
G1 X-30.462 Y52.692 E54.46051
G1 X-30.712 Y51.987 E54.49783
G1 X-30.886 Y51.259 E54.53517
G1 X-30.981 Y50.517 E54.5725
G1 X-31 Y50 E54.59831
G1 X-31 Y2 E56.99304
G1 X-49 Y2 E57.89106
G1 X-49.747 Y1.96 E57.92838
G1 X-50.485 Y1.841 E57.96568
G1 X-51.207 Y1.643 E58.00303
G1 X-51.903 Y1.37 E58.04033
G1 X-52.566 Y1.023 E58.07766
G1 X-53.189 Y0.608 E58.11501
G1 X-53.763 Y0.129 E58.1523
G1 X-54.284 Y-.408 E58.18963
G1 X-54.743 Y-.998 E58.22693
G1 X-55.138 Y-1.634 E58.26428
G1 X-55.462 Y-2.308 E58.30159
G1 X-55.712 Y-3.013 E58.33891
G1 X-55.886 Y-3.741 E58.37625
G1 X-55.981 Y-4.483 E58.41357
G1 X-56 Y-5 E58.43938
G1 X-56 Y-50 E60.68444
G1 X-55.96 Y-50.747 E60.72176
G1 X-55.841 Y-51.485 E60.75905
G1 X-55.643 Y-52.207 E60.79641
G1 X-55.37 Y-52.903 E60.8337
G1 X-55.023 Y-53.566 E60.87104
G1 X-54.608 Y-54.189 E60.90838
G1 X-54.129 Y-54.763 E60.94568
G1 X-53.592 Y-55.284 E60.98301
G1 X-53.002 Y-55.743 E61.0203
G1 X-52.366 Y-56.138 E61.05766
G1 X-51.692 Y-56.462 E61.09497
G1 X-50.987 Y-56.712 E61.13228
G1 X-50.259 Y-56.886 E61.16963
G1 X-49.517 Y-56.981 E61.20695
G1 X-49 Y-57 E61.23276
G1 X-34 Y-57 E61.98111
G1 X-33.253 Y-56.96 E62.01843
G1 X-32.515 Y-56.841 E62.05573
G1 X-31.793 Y-56.643 E62.09308
G1 X-31.097 Y-56.37 E62.13038
G1 X-30.434 Y-56.023 E62.16771
G1 X-29.811 Y-55.608 E62.20506
G1 X-29.237 Y-55.129 E62.24236
G1 X-28.716 Y-54.592 E62.27968
G1 X-28.257 Y-54.002 E62.31698
G1 X-27.862 Y-53.366 E62.35433
G1 X-27.538 Y-52.692 E62.39164
G1 X-27.288 Y-51.987 E62.42896
G1 X-27.114 Y-51.259 E62.4663
G1 X-27.019 Y-50.517 E62.50362
G1 X-27 Y-50 E62.52943
G1 X-27 Y-22 E63.92636
G1 X27 Y-22 E66.62043
G1 X27 Y-50 E68.01735
G1 X27.04 Y-50.747 E68.05468
G1 X27.159 Y-51.485 E68.09197
G1 X27.357 Y-52.207 E68.12932
G1 X27.63 Y-52.903 E68.16662
G1 X27.977 Y-53.566 E68.20395
G1 X28.392 Y-54.189 E68.2413
G1 X28.871 Y-54.763 E68.2786
G1 X29.408 Y-55.284 E68.31593
G1 X29.998 Y-55.743 E68.35322
G1 X30.634 Y-56.138 E68.39057
G1 X31.308 Y-56.462 E68.42788
G1 X32.013 Y-56.712 E68.4652
G1 X32.741 Y-56.886 E68.50254
G1 X33.483 Y-56.981 E68.53986
G1 X34 Y-57 E68.56567
G1 X49 Y-57 E69.31403
G1 X49.747 Y-56.96 E69.35135
G1 X50.485 Y-56.841 E69.38864
G1 X51.207 Y-56.643 E69.42599
G1 X51.903 Y-56.37 E69.46329
G1 X52.566 Y-56.023 E69.50063
G1 X53.189 Y-55.608 E69.53797
G1 X53.763 Y-55.129 E69.57527
G1 X54.284 Y-54.592 E69.6126
G1 X54.743 Y-54.002 E69.64989
G1 X55.138 Y-53.366 E69.68724
G1 X55.462 Y-52.692 E69.72455
G1 X55.712 Y-51.987 E69.76187
G1 X55.886 Y-51.259 E69.79922
G1 X55.981 Y-50.517 E69.83654
G1 X56 Y-50 E69.86235
G1 X56 Y-5 E72.10741
G1 X55.96 Y-4.253 E72.14473
G1 X55.841 Y-3.515 E72.18202
G1 X55.643 Y-2.793 E72.21937
G1 X55.37 Y-2.097 E72.25667
G1 X55.023 Y-1.434 E72.29401
G1 X54.608 Y-.811 E72.33135
G1 X54.129 Y-.237 E72.36865
G1 X53.592 Y0.284 E72.40598
G1 X53.002 Y0.743 E72.44327
G1 X52.366 Y1.138 E72.48062
G1 X51.692 Y1.462 E72.51793
G1 X50.987 Y1.712 E72.55525
G1 X50.259 Y1.886 E72.5926
G1 X49.517 Y1.981 E72.62992
G1 X49 Y2 E72.65573
G1 X6 Y2 E74.80101
G0 F3600 X5.6 Y1.6
G1 F1800 X5.6 Y50 E77.21569
G1 X5.56 Y50.725 E77.25192
G1 X5.441 Y51.442 E77.28818
G1 X5.243 Y52.141 E77.32442
G1 X4.97 Y52.814 E77.36066
G1 X4.625 Y53.453 E77.39689
G1 X4.211 Y54.05 E77.43313
G1 X3.735 Y54.598 E77.46934
G1 X3.201 Y55.091 E77.5056
G1 X2.616 Y55.521 E77.54183
G1 X1.987 Y55.885 E77.57808
G1 X1.322 Y56.178 E77.61434
G1 X0.629 Y56.396 E77.65058
G1 X-0.083 Y56.536 E77.68678
G1 X-1 Y56.6 E77.73264
G1 X-11 Y56.6 E78.23155
G1 X-11.725 Y56.56 E78.26777
G1 X-12.442 Y56.441 E78.30403
G1 X-12.507 Y56.423 E78.3074
G1 X-13.083 Y56.536 E78.33668
G1 X-14 Y56.6 E78.38254
G1 X-24 Y56.6 E78.88144
G1 X-24.725 Y56.56 E78.91767
G1 X-25.442 Y56.441 E78.95393
G1 X-26.141 Y56.243 E78.99017
G1 X-26.814 Y55.97 E79.02641
G1 X-27.453 Y55.625 E79.06264
G1 X-28.05 Y55.211 E79.09888
G1 X-28.598 Y54.735 E79.1351
G1 X-29.091 Y54.201 E79.17136
G1 X-29.521 Y53.616 E79.20758
G1 X-29.885 Y52.987 E79.24383
G1 X-30.178 Y52.322 E79.28009
G1 X-30.396 Y51.629 E79.31633
G1 X-30.536 Y50.917 E79.35254
G1 X-30.6 Y50 E79.3984
G1 X-30.6 Y1.6 E81.81308
G1 X-49 Y1.6 E82.73106
G1 X-49.725 Y1.56 E82.76729
G1 X-50.442 Y1.441 E82.80355
G1 X-51.141 Y1.243 E82.83979
G1 X-51.814 Y0.97 E82.87603
G1 X-52.453 Y0.625 E82.91226
G1 X-53.05 Y0.211 E82.9485
G1 X-53.598 Y-.265 E82.98471
G1 X-54.091 Y-.799 E83.02097
G1 X-54.521 Y-1.384 E83.0572
G1 X-54.885 Y-2.013 E83.09345
G1 X-55.178 Y-2.678 E83.12971
G1 X-55.396 Y-3.371 E83.16595
G1 X-55.536 Y-4.083 E83.20215
G1 X-55.6 Y-5 E83.24801
G1 X-55.6 Y-50 E85.49307
G1 X-55.56 Y-50.725 E85.5293
G1 X-55.441 Y-51.442 E85.56556
G1 X-55.243 Y-52.141 E85.6018
G1 X-54.97 Y-52.814 E85.63804
G1 X-54.625 Y-53.453 E85.67427
G1 X-54.211 Y-54.05 E85.71051
G1 X-53.735 Y-54.598 E85.74673
G1 X-53.201 Y-55.091 E85.78299
G1 X-52.616 Y-55.521 E85.81921
G1 X-51.987 Y-55.885 E85.85546
G1 X-51.322 Y-56.178 E85.89172
G1 X-50.629 Y-56.396 E85.92796
G1 X-49.917 Y-56.536 E85.96416
G1 X-49 Y-56.6 E86.01003
G1 X-34 Y-56.6 E86.75838
G1 X-33.275 Y-56.56 E86.7946
G1 X-32.558 Y-56.441 E86.83086
G1 X-31.859 Y-56.243 E86.86711
G1 X-31.186 Y-55.97 E86.90334
G1 X-30.547 Y-55.625 E86.93957
G1 X-29.95 Y-55.211 E86.97582
G1 X-29.402 Y-54.735 E87.01203
G1 X-28.909 Y-54.201 E87.04829
G1 X-28.479 Y-53.616 E87.08451
G1 X-28.115 Y-52.987 E87.12077
G1 X-27.822 Y-52.322 E87.15702
G1 X-27.604 Y-51.629 E87.19327
G1 X-27.464 Y-50.917 E87.22947
G1 X-27.4 Y-50 E87.27533
G1 X-27.4 Y-21.6 E88.69221
G1 X27.4 Y-21.6 E91.4262
G1 X27.4 Y-50 E92.84308
G1 X27.44 Y-50.725 E92.8793
G1 X27.559 Y-51.442 E92.91556
G1 X27.757 Y-52.141 E92.95181
G1 X28.03 Y-52.814 E92.98804
G1 X28.375 Y-53.453 E93.02427
G1 X28.789 Y-54.05 E93.06052
G1 X29.265 Y-54.598 E93.09673
G1 X29.799 Y-55.091 E93.13299
G1 X30.384 Y-55.521 E93.16921
G1 X31.013 Y-55.885 E93.20547
G1 X31.678 Y-56.178 E93.24172
G1 X32.371 Y-56.396 E93.27797
G1 X33.083 Y-56.536 E93.31417
G1 X34 Y-56.6 E93.36003
G1 X49 Y-56.6 E94.10838
G1 X49.725 Y-56.56 E94.14461
G1 X50.442 Y-56.441 E94.18087
G1 X51.141 Y-56.243 E94.21711
G1 X51.814 Y-55.97 E94.25335
G1 X52.453 Y-55.625 E94.28958
G1 X53.05 Y-55.211 E94.32582
G1 X53.598 Y-54.735 E94.36204
G1 X54.091 Y-54.201 E94.39829
G1 X54.521 Y-53.616 E94.43452
G1 X54.885 Y-52.987 E94.47077
G1 X55.178 Y-52.322 E94.50703
G1 X55.396 Y-51.629 E94.54327
G1 X55.536 Y-50.917 E94.57947
G1 X55.6 Y-50 E94.62533
G1 X55.6 Y-5 E96.87039
G1 X55.56 Y-4.275 E96.90662
G1 X55.441 Y-3.558 E96.94288
G1 X55.243 Y-2.859 E96.97913
G1 X54.97 Y-2.186 E97.01536
G1 X54.625 Y-1.547 E97.05159
G1 X54.211 Y-.95 E97.08783
G1 X53.735 Y-.402 E97.12405
G1 X53.201 Y0.091 E97.16031
G1 X52.616 Y0.521 E97.19653
