;FLAVOR:Marlin
;TIME:2069
;Filament used: 5.55612m
;Layer height: 0.6
;MINX:-57.227
;MINY:-40.224
;MINZ:0.3
;MAXX:76.48
;MAXY:35.621
;MAXZ:9.9
;Generated with Cura_SteamEngine 4.7.1
M140 S50
M105
M190 S50
M104 S255
M105
M109 S255
M82 ;absolute extrusion mode
G28 ;Home
G1 Z15.0 F6000 ;Move the platform down 15mm
;Prime the extruder
G92 E0
G1 F200 E3
G92 E0
G92 E0
G92 E0
G1 F1500 E-6.5
;LAYER_COUNT:17
;LAYER:0
M107
G0 F3600 X9.826 Y34.353 Z0.3
;TYPE:SKIRT
G1 F1500 E0
G1 F1800 X9.703 Y34.438 E0.00746
G1 X9.012 Y34.822 E0.0469
G1 X8.287 Y35.134 E0.08628
G1 X7.534 Y35.371 E0.12566
G1 X6.76 Y35.53 E0.16508
G1 X5.975 Y35.611 E0.20445
G1 X5.573 Y35.621 E0.22452
G1 X-49.427 Y35.621 E2.96848
G1 X-50.216 Y35.581 E3.00789
G1 X-50.996 Y35.462 E3.04726
G1 X-51.761 Y35.264 E3.08668
G1 X-52.501 Y34.99 E3.12605
G1 X-53.21 Y34.642 E3.16545
G1 X-53.881 Y34.224 E3.20489
G1 X-54.505 Y33.741 E3.24426
G1 X-55.078 Y33.198 E3.28364
G1 X-55.593 Y32.599 E3.32305
G1 X-56.044 Y31.951 E3.36244
G1 X-56.428 Y31.26 E3.40188
G1 X-56.74 Y30.535 E3.44126
G1 X-56.977 Y29.782 E3.48064
G1 X-57.136 Y29.008 E3.52007
G1 X-57.217 Y28.223 E3.55944
G1 X-57.227 Y27.821 E3.5795
G1 X-57.227 Y-32.179 E6.57291
G1 X-57.187 Y-32.968 E6.61232
G1 X-57.068 Y-33.748 E6.65169
G1 X-56.87 Y-34.513 E6.69111
G1 X-56.596 Y-35.253 E6.73048
G1 X-56.248 Y-35.962 E6.76988
G1 X-55.83 Y-36.633 E6.80933
G1 X-55.347 Y-37.257 E6.84869
G1 X-54.804 Y-37.83 E6.88808
G1 X-54.205 Y-38.345 E6.92749
G1 X-53.557 Y-38.796 E6.96688
G1 X-52.866 Y-39.18 E7.00632
G1 X-52.141 Y-39.492 E7.04569
G1 X-51.388 Y-39.729 E7.08508
G1 X-50.614 Y-39.888 E7.1245
G1 X-49.829 Y-39.969 E7.16387
G1 X-49.427 Y-39.979 E7.18393
G1 X5.573 Y-39.979 E9.92789
G1 X6.362 Y-39.939 E9.96731
G1 X7.142 Y-39.82 E10.00667
G1 X7.907 Y-39.622 E10.0461
G1 X8.647 Y-39.348 E10.08546
G1 X9.356 Y-39 E10.12487
G1 X9.427 Y-38.956 E10.12904
G1 X9.55 Y-39.041 E10.13649
G1 X10.241 Y-39.425 E10.17593
G1 X10.966 Y-39.737 E10.21531
G1 X11.719 Y-39.974 E10.2547
G1 X12.493 Y-40.133 E10.29412
G1 X13.278 Y-40.214 E10.33349
G1 X13.68 Y-40.224 E10.35355
G1 X68.68 Y-40.224 E13.09751
G1 X69.469 Y-40.184 E13.13693
G1 X70.249 Y-40.065 E13.17629
G1 X71.014 Y-39.867 E13.21571
G1 X71.754 Y-39.593 E13.25508
G1 X72.463 Y-39.245 E13.29449
G1 X73.134 Y-38.827 E13.33393
G1 X73.758 Y-38.344 E13.37329
G1 X74.331 Y-37.801 E13.41268
G1 X74.846 Y-37.202 E13.45209
G1 X75.297 Y-36.554 E13.49148
G1 X75.681 Y-35.863 E13.53092
G1 X75.993 Y-35.138 E13.57029
G1 X76.23 Y-34.385 E13.60968
G1 X76.389 Y-33.611 E13.6491
G1 X76.47 Y-32.826 E13.68847
G1 X76.48 Y-32.424 E13.70853
G1 X76.48 Y27.576 E16.70195
G1 X76.44 Y28.365 E16.74136
G1 X76.321 Y29.145 E16.78072
G1 X76.123 Y29.91 E16.82015
G1 X75.849 Y30.65 E16.85952
G1 X75.501 Y31.359 E16.89892
G1 X75.083 Y32.03 E16.93836
G1 X74.6 Y32.654 E16.97773
G1 X74.057 Y33.227 E17.01711
G1 X73.458 Y33.742 E17.05652
G1 X72.81 Y34.193 E17.09591
G1 X72.119 Y34.577 E17.13535
G1 X71.394 Y34.889 E17.17473
G1 X70.641 Y35.126 E17.21411
G1 X69.867 Y35.285 E17.25353
G1 X69.082 Y35.366 E17.29291
G1 X68.68 Y35.376 E17.31297
G1 X13.68 Y35.376 E20.05693
G1 X12.891 Y35.336 E20.09634
G1 X12.111 Y35.217 E20.13571
G1 X11.346 Y35.019 E20.17513
G1 X10.606 Y34.745 E20.2145
G1 X9.897 Y34.397 E20.2539
G1 X9.826 Y34.353 E20.25807
G0 F3600 X10.004 Y33.998
G1 F1800 X9.815 Y33.876 E20.26929
G1 X9.32 Y34.202 E20.29886
G1 X8.637 Y34.557 E20.33727
G1 X7.922 Y34.838 E20.37559
G1 X7.18 Y35.044 E20.41401
G1 X6.422 Y35.172 E20.45237
G1 X5.573 Y35.221 E20.49479
G1 X-49.427 Y35.221 E23.23875
G1 X-50.195 Y35.181 E23.27712
G1 X-50.955 Y35.062 E23.3155
G1 X-51.698 Y34.864 E23.35386
G1 X-52.417 Y34.59 E23.39225
G1 X-53.103 Y34.243 E23.4306
G1 X-53.75 Y33.827 E23.46898
G1 X-54.35 Y33.346 E23.50734
G1 X-54.897 Y32.805 E23.54573
G1 X-55.385 Y32.21 E23.58412
G1 X-55.808 Y31.568 E23.62248
G1 X-56.163 Y30.885 E23.66088
G1 X-56.444 Y30.17 E23.69921
G1 X-56.65 Y29.428 E23.73762
G1 X-56.778 Y28.67 E23.77598
G1 X-56.827 Y27.821 E23.8184
G1 X-56.827 Y-32.179 E26.81182
G1 X-56.787 Y-32.947 E26.85018
G1 X-56.668 Y-33.707 E26.88856
G1 X-56.47 Y-34.45 E26.92692
G1 X-56.196 Y-35.169 E26.96531
G1 X-55.849 Y-35.855 E27.00367
G1 X-55.433 Y-36.502 E27.04204
G1 X-54.952 Y-37.102 E27.08041
G1 X-54.411 Y-37.649 E27.11879
G1 X-53.816 Y-38.137 E27.15718
G1 X-53.174 Y-38.56 E27.19554
G1 X-52.491 Y-38.915 E27.23394
G1 X-51.776 Y-39.196 E27.27227
G1 X-51.034 Y-39.402 E27.31069
G1 X-50.276 Y-39.53 E27.34904
G1 X-49.427 Y-39.579 E27.39147
G1 X5.573 Y-39.579 E30.13543
G1 X6.341 Y-39.539 E30.1738
G1 X7.101 Y-39.42 E30.21217
G1 X7.844 Y-39.222 E30.25054
G1 X8.563 Y-38.948 E30.28892
G1 X9.249 Y-38.601 E30.32728
G1 X9.438 Y-38.479 E30.3385
G1 X9.933 Y-38.805 E30.36807
G1 X10.616 Y-39.16 E30.40647
G1 X11.331 Y-39.441 E30.4448
G1 X12.073 Y-39.647 E30.48322
G1 X12.831 Y-39.775 E30.52157
G1 X13.68 Y-39.824 E30.564
G1 X68.68 Y-39.824 E33.30796
G1 X69.448 Y-39.784 E33.34633
G1 X70.208 Y-39.665 E33.38471
G1 X70.951 Y-39.467 E33.42307
G1 X71.67 Y-39.193 E33.46146
G1 X72.356 Y-38.846 E33.49981
G1 X73.003 Y-38.43 E33.53819
G1 X73.603 Y-37.949 E33.57655
G1 X74.15 Y-37.408 E33.61493
G1 X74.638 Y-36.813 E33.65333
G1 X75.061 Y-36.171 E33.69168
G1 X75.416 Y-35.488 E33.73009
G1 X75.697 Y-34.773 E33.76841
G1 X75.903 Y-34.031 E33.80683
G1 X76.031 Y-33.273 E33.84518
G1 X76.08 Y-32.424 E33.88761
G1 X76.08 Y27.576 E36.88102
G1 X76.04 Y28.344 E36.91939
G1 X75.921 Y29.104 E36.95777
G1 X75.723 Y29.847 E36.99613
G1 X75.449 Y30.566 E37.03452
G1 X75.102 Y31.252 E37.07287
G1 X74.686 Y31.899 E37.11125
G1 X74.205 Y32.499 E37.14961
G1 X73.664 Y33.046 E37.188
G1 X73.069 Y33.534 E37.22639
G1 X72.427 Y33.957 E37.26475
G1 X71.744 Y34.312 E37.30315
G1 X71.029 Y34.593 E37.34148
G1 X70.287 Y34.799 E37.37989
G1 X69.529 Y34.927 E37.41825
G1 X68.68 Y34.976 E37.46067
G1 X13.68 Y34.976 E40.20464
G1 X12.912 Y34.936 E40.243
G1 X12.152 Y34.817 E40.28138
G1 X11.409 Y34.619 E40.31974
G1 X10.69 Y34.345 E40.35813
G1 X10.004 Y33.998 E40.39648
G0 F3600 X10.114 Y33.599
G1 F1800 X9.799 Y33.389 E40.41537
G1 X9.575 Y33.564 E40.42955
G1 X8.939 Y33.959 E40.46691
G1 X8.265 Y34.283 E40.50422
G1 X7.56 Y34.533 E40.54153
G1 X6.832 Y34.707 E40.57888
G1 X6.09 Y34.802 E40.6162
G1 X5.573 Y34.821 E40.64201
G1 X-49.427 Y34.821 E43.38597
G1 X-50.174 Y34.781 E43.42329
G1 X-50.912 Y34.662 E43.46059
G1 X-51.634 Y34.464 E43.49794
G1 X-52.33 Y34.191 E43.53524
G1 X-52.993 Y33.844 E43.57257
G1 X-53.616 Y33.429 E43.60992
G1 X-54.19 Y32.95 E43.64721
G1 X-54.711 Y32.413 E43.68454
G1 X-55.17 Y31.823 E43.72184
G1 X-55.565 Y31.187 E43.75919
G1 X-55.889 Y30.513 E43.7965
G1 X-56.139 Y29.808 E43.83381
G1 X-56.313 Y29.08 E43.87116
G1 X-56.408 Y28.338 E43.90848
G1 X-56.427 Y27.821 E43.93429
G1 X-56.427 Y-32.179 E46.9277
G1 X-56.387 Y-32.926 E46.96502
G1 X-56.268 Y-33.664 E47.00232
G1 X-56.07 Y-34.386 E47.03967
G1 X-55.797 Y-35.082 E47.07697
G1 X-55.45 Y-35.745 E47.1143
G1 X-55.035 Y-36.368 E47.15165
G1 X-54.556 Y-36.942 E47.18895
G1 X-54.019 Y-37.463 E47.22627
G1 X-53.429 Y-37.922 E47.26357
G1 X-52.793 Y-38.317 E47.30092
G1 X-52.119 Y-38.641 E47.33823
G1 X-51.414 Y-38.891 E47.37555
G1 X-50.686 Y-39.065 E47.41289
G1 X-49.944 Y-39.16 E47.45021
G1 X-49.427 Y-39.179 E47.47602
G1 X5.573 Y-39.179 E50.21998
G1 X6.32 Y-39.139 E50.2573
G1 X7.058 Y-39.02 E50.2946
G1 X7.78 Y-38.822 E50.33195
G1 X8.476 Y-38.549 E50.36925
G1 X9.139 Y-38.202 E50.40658
G1 X9.454 Y-37.992 E50.42547
G1 X9.678 Y-38.167 E50.43965
G1 X10.314 Y-38.562 E50.477
G1 X10.988 Y-38.886 E50.51431
G1 X11.693 Y-39.136 E50.55163
G1 X12.421 Y-39.31 E50.58897
G1 X13.163 Y-39.405 E50.62629
G1 X13.68 Y-39.424 E50.65211
G1 X68.68 Y-39.424 E53.39607
G1 X69.427 Y-39.384 E53.43339
G1 X70.165 Y-39.265 E53.47068
G1 X70.887 Y-39.067 E53.50803
G1 X71.583 Y-38.794 E53.54533
G1 X72.246 Y-38.447 E53.58267
G1 X72.869 Y-38.032 E53.62001
G1 X73.443 Y-37.553 E53.65731
G1 X73.964 Y-37.016 E53.69464
G1 X74.423 Y-36.426 E53.73193
G1 X74.818 Y-35.79 E53.76928
G1 X75.142 Y-35.116 E53.80659
G1 X75.392 Y-34.411 E53.84391
G1 X75.566 Y-33.683 E53.88126
G1 X75.661 Y-32.941 E53.91858
G1 X75.68 Y-32.424 E53.94439
G1 X75.68 Y27.576 E56.9378
G1 X75.64 Y28.323 E56.97512
G1 X75.521 Y29.061 E57.01241
G1 X75.323 Y29.783 E57.04977
G1 X75.05 Y30.479 E57.08706
G1 X74.703 Y31.142 E57.1244
G1 X74.288 Y31.765 E57.16174
G1 X73.809 Y32.339 E57.19904
G1 X73.272 Y32.86 E57.23637
G1 X72.682 Y33.319 E57.27366
G1 X72.046 Y33.714 E57.31102
G1 X71.372 Y34.038 E57.34833
G1 X70.667 Y34.288 E57.38564
G1 X69.939 Y34.462 E57.42299
G1 X69.197 Y34.557 E57.46031
G1 X68.68 Y34.576 E57.48612
G1 X13.68 Y34.576 E60.23008
G1 X12.933 Y34.536 E60.2674
G1 X12.195 Y34.417 E60.3047
G1 X11.473 Y34.219 E60.34205
G1 X10.777 Y33.946 E60.37935
G1 X10.114 Y33.599 E60.41668
G0 F3600 X9.189 Y33.342
G1 F1800 X8.56 Y33.706 E60.45294
G1 X7.895 Y33.999 E60.48919
G1 X7.202 Y34.217 E60.52544
G1 X6.49 Y34.357 E60.56164
G1 X5.573 Y34.421 E60.6075
G1 X-49.427 Y34.421 E63.35146
G1 X-50.152 Y34.381 E63.38768
G1 X-50.869 Y34.262 E63.42394
G1 X-51.568 Y34.064 E63.46019
G1 X-52.241 Y33.791 E63.49642
G1 X-52.88 Y33.446 E63.53265
G1 X-53.477 Y33.032 E63.5689
G1 X-54.025 Y32.556 E63.60511
G1 X-54.518 Y32.022 E63.64137
G1 X-54.948 Y31.437 E63.67759
G1 X-55.312 Y30.808 E63.71385
G1 X-55.605 Y30.143 E63.7501
G1 X-55.823 Y29.45 E63.78635
G1 X-55.963 Y28.738 E63.82255
G1 X-56.027 Y27.821 E63.86841
G1 X-56.027 Y-32.179 E66.86182
G1 X-55.987 Y-32.904 E66.89805
G1 X-55.868 Y-33.621 E66.93431
G1 X-55.67 Y-34.32 E66.97055
G1 X-55.397 Y-34.993 E67.00679
G1 X-55.052 Y-35.632 E67.04302
G1 X-54.638 Y-36.229 E67.07926
G1 X-54.162 Y-36.777 E67.11548
G1 X-53.628 Y-37.27 E67.15174
G1 X-53.043 Y-37.7 E67.18796
G1 X-52.414 Y-38.064 E67.22421
G1 X-51.749 Y-38.357 E67.26047
G1 X-51.056 Y-38.575 E67.29671
G1 X-50.344 Y-38.715 E67.33292
G1 X-49.427 Y-38.779 E67.37878
G1 X5.573 Y-38.779 E70.12274
G1 X6.298 Y-38.739 E70.15896
G1 X7.015 Y-38.62 E70.19522
G1 X7.714 Y-38.422 E70.23147
G1 X8.387 Y-38.149 E70.2677
G1 X9.026 Y-37.804 E70.30393
G1 X9.463 Y-37.501 E70.33046
G1 X9.479 Y-37.515 E70.33152
G1 X10.064 Y-37.945 E70.36774
G1 X10.693 Y-38.309 E70.404
G1 X11.358 Y-38.602 E70.44026
G1 X12.051 Y-38.82 E70.4765
G1 X12.763 Y-38.96 E70.5127
G1 X13.68 Y-39.024 E70.55856
G1 X68.68 Y-39.024 E73.30252
G1 X69.405 Y-38.984 E73.33875
G1 X70.122 Y-38.865 E73.37501
G1 X70.821 Y-38.667 E73.41125
G1 X71.494 Y-38.394 E73.44749
G1 X72.133 Y-38.049 E73.48372
G1 X72.73 Y-37.635 E73.51996
G1 X73.278 Y-37.159 E73.55618
G1 X73.771 Y-36.625 E73.59244
G1 X74.201 Y-36.04 E73.62866
G1 X74.565 Y-35.411 E73.66491
G1 X74.858 Y-34.746 E73.70117
G1 X75.076 Y-34.053 E73.73741
G1 X75.216 Y-33.341 E73.77361
G1 X75.28 Y-32.424 E73.81948
G1 X75.28 Y27.576 E76.81289
G1 X75.24 Y28.301 E76.84911
G1 X75.121 Y29.018 E76.88537
G1 X74.923 Y29.717 E76.92162
G1 X74.65 Y30.39 E76.95785
G1 X74.305 Y31.029 E76.99408
G1 X73.891 Y31.626 E77.03033
G1 X73.415 Y32.174 E77.06654
G1 X72.881 Y32.667 E77.1028
G1 X72.296 Y33.097 E77.13902
G1 X71.667 Y33.461 E77.17528
G1 X71.002 Y33.754 E77.21153
G1 X70.309 Y33.972 E77.24778
G1 X69.597 Y34.112 E77.28398
G1 X68.68 Y34.176 E77.32984
G1 X13.68 Y34.176 E80.0738
G1 X12.955 Y34.136 E80.11003
G1 X12.238 Y34.017 E80.14629
G1 X11.539 Y33.819 E80.18253
G1 X10.866 Y33.546 E80.21877
G1 X10.227 Y33.201 E80.255
G1 X9.79 Y32.898 E80.28153
G1 X9.774 Y32.912 E80.28259
G1 X9.189 Y33.342 E80.31881
G0 F3600 X8.805 Y33.112
G1 F1800 X8.184 Y33.444 E80.35394
G1 X7.53 Y33.704 E80.38905
G1 X6.85 Y33.888 E80.4242
G1 X6.154 Y33.994 E80.45932
G1 X5.573 Y34.021 E80.48834
G1 X-49.427 Y34.021 E83.2323
G1 X-50.13 Y33.981 E83.26743
G1 X-50.824 Y33.862 E83.30256
G1 X-51.499 Y33.664 E83.33765
G1 X-52.148 Y33.392 E83.37276
G1 X-52.762 Y33.047 E83.4079
G1 X-53.333 Y32.636 E83.443
G1 X-53.854 Y32.162 E83.47814
G1 X-54.318 Y31.632 E83.51328
G1 X-54.718 Y31.053 E83.54839
G1 X-55.05 Y30.432 E83.58352
G1 X-55.31 Y29.778 E83.61863
G1 X-55.494 Y29.098 E83.65378
G1 X-55.6 Y28.402 E83.6889
G1 X-55.627 Y27.821 E83.71792
G1 X-55.627 Y-32.179 E86.71133
G1 X-55.587 Y-32.882 E86.74646
G1 X-55.468 Y-33.576 E86.78159
G1 X-55.27 Y-34.251 E86.81669
G1 X-54.998 Y-34.9 E86.85179
G1 X-54.653 Y-35.514 E86.88693
G1 X-54.242 Y-36.085 E86.92203
G1 X-53.768 Y-36.606 E86.95717
G1 X-53.238 Y-37.07 E86.99231
G1 X-52.659 Y-37.47 E87.02742
G1 X-52.038 Y-37.802 E87.06255
G1 X-51.384 Y-38.062 E87.09767
G1 X-50.704 Y-38.246 E87.13281
G1 X-50.008 Y-38.352 E87.16794
G1 X-49.427 Y-38.379 E87.19695
G1 X5.573 Y-38.379 E89.94092
G1 X6.276 Y-38.339 E89.97604
G1 X6.97 Y-38.22 E90.01117
G1 X7.645 Y-38.022 E90.04627
G1 X8.294 Y-37.75 E90.08138
G1 X8.908 Y-37.405 E90.11651
G1 X9.479 Y-36.994 E90.15161
G1 X9.49 Y-36.984 E90.15235
G1 X9.869 Y-37.315 E90.17746
G1 X10.448 Y-37.715 E90.21257
G1 X11.069 Y-38.047 E90.2477
G1 X11.723 Y-38.307 E90.28281
G1 X12.403 Y-38.491 E90.31796
G1 X13.099 Y-38.597 E90.35308
G1 X13.68 Y-38.624 E90.3821
G1 X68.68 Y-38.624 E93.12606
G1 X69.383 Y-38.584 E93.16119
G1 X70.077 Y-38.465 E93.19632
G1 X70.752 Y-38.267 E93.23141
G1 X71.401 Y-37.995 E93.26652
G1 X72.015 Y-37.65 E93.30166
G1 X72.586 Y-37.239 E93.33676
G1 X73.107 Y-36.765 E93.3719
G1 X73.571 Y-36.235 E93.40704
G1 X73.971 Y-35.656 E93.44215
G1 X74.303 Y-35.035 E93.47728
G1 X74.563 Y-34.381 E93.51239
G1 X74.747 Y-33.701 E93.54754
G1 X74.853 Y-33.005 E93.58266
G1 X74.88 Y-32.424 E93.61168
G1 X74.88 Y27.576 E96.60509
G1 X74.84 Y28.279 E96.64022
G1 X74.721 Y28.973 E96.67535
G1 X74.523 Y29.648 E96.71045
G1 X74.251 Y30.297 E96.74555
G1 X73.906 Y30.911 E96.78069
G1 X73.495 Y31.482 E96.81579
G1 X73.021 Y32.003 E96.85093
G1 X72.491 Y32.467 E96.88607
G1 X71.912 Y32.867 E96.92118
G1 X71.291 Y33.199 E96.95631
G1 X70.637 Y33.459 E96.99143
G1 X69.957 Y33.643 E97.02657
G1 X69.261 Y33.749 E97.0617
G1 X68.68 Y33.776 E97.09071
G1 X13.68 Y33.776 E99.83467
G1 X12.977 Y33.736 E99.8698
G1 X12.283 Y33.617 E99.90493
G1 X11.608 Y33.419 E99.94003
G1 X10.959 Y33.147 E99.97514
G1 X10.345 Y32.802 E100.01027
G1 X9.774 Y32.391 E100.04537
G1 X9.763 Y32.381 E100.04611
G1 X9.384 Y32.712 E100.07122
G1 X8.805 Y33.112 E100.10633
G0 F3600 X8.608 Y32.287
G1 F1800 X8.044 Y32.623 E100.13908
G1 X7.442 Y32.887 E100.17188
G1 X6.813 Y33.077 E100.20466
G1 X6.166 Y33.188 E100.23741
G1 X5.573 Y33.221 E100.26704
G1 X-49.427 Y33.221 E103.011
G1 X-50.083 Y33.181 E103.04379
G1 X-50.729 Y33.062 E103.07656
G1 X-51.356 Y32.865 E103.10935
G1 X-51.954 Y32.593 E103.14212
G1 X-52.515 Y32.251 E103.1749
G1 X-53.03 Y31.843 E103.20768
G1 X-53.492 Y31.376 E103.24046
G1 X-53.893 Y30.856 E103.27322
G1 X-54.229 Y30.292 E103.30597
G1 X-54.493 Y29.69 E103.33876
G1 X-54.683 Y29.061 E103.37155
G1 X-54.794 Y28.414 E103.4043
G1 X-54.827 Y27.821 E103.43393
G1 X-54.827 Y-32.179 E106.42734
G1 X-54.787 Y-32.835 E106.46013
G1 X-54.668 Y-33.481 E106.4929
G1 X-54.471 Y-34.108 E106.52569
G1 X-54.199 Y-34.706 E106.55846
G1 X-53.857 Y-35.267 E106.59124
G1 X-53.449 Y-35.782 E106.62402
G1 X-52.982 Y-36.244 E106.6568
G1 X-52.462 Y-36.645 E106.68956
G1 X-51.898 Y-36.981 E106.72231
G1 X-51.296 Y-37.245 E106.7551
G1 X-50.667 Y-37.435 E106.78789
G1 X-50.02 Y-37.546 E106.82064
G1 X-49.427 Y-37.579 E106.85027
G1 X5.573 Y-37.579 E109.59423
G1 X6.229 Y-37.539 E109.62702
G1 X6.875 Y-37.42 E109.65979
G1 X7.502 Y-37.223 E109.69258
G1 X8.1 Y-36.951 E109.72535
G1 X8.661 Y-36.609 E109.75813
G1 X9.176 Y-36.201 E109.79091
G1 X9.52 Y-35.853 E109.81532
G1 X9.658 Y-36.027 E109.8264
G1 X10.125 Y-36.489 E109.85918
G1 X10.645 Y-36.89 E109.89194
G1 X11.209 Y-37.226 E109.92469
G1 X11.811 Y-37.49 E109.95749
G1 X12.44 Y-37.68 E109.99027
G1 X13.087 Y-37.791 E110.02302
G1 X13.68 Y-37.824 E110.05265
G1 X68.68 Y-37.824 E112.79661
G1 X69.336 Y-37.784 E112.8294
G1 X69.982 Y-37.665 E112.86217
G1 X70.609 Y-37.468 E112.89496
G1 X71.207 Y-37.196 E112.92773
G1 X71.768 Y-36.854 E112.96051
G1 X72.283 Y-36.446 E112.99329
G1 X72.745 Y-35.979 E113.02607
G1 X73.146 Y-35.459 E113.05883
G1 X73.482 Y-34.895 E113.09158
G1 X73.746 Y-34.293 E113.12437
G1 X73.936 Y-33.664 E113.15716
G1 X74.047 Y-33.017 E113.18991
G1 X74.08 Y-32.424 E113.21954
G1 X74.08 Y27.576 E116.21295
G1 X74.04 Y28.232 E116.24574
G1 X73.921 Y28.878 E116.27851
G1 X73.724 Y29.505 E116.3113
