;FLAVOR:Marlin
;TIME:13707
;Filament used: 19.1892m
;Layer height: 0.3
;MINX:-107.8
;MINY:-52.288
;MINZ:0.3
;MAXX:107.8
;MAXY:52.763
;MAXZ:45
;Generated with Cura_SteamEngine 4.7.1
M140 S50
M105
M190 S50
M104 S250
M105
M109 S250
M82 ;absolute extrusion mode
G28 ;Home
G1 Z15.0 F6000 ;Move the platform down 15mm
;Prime the extruder
G92 E0
G1 F200 E3
G92 E0
G92 E0
G92 E0
G1 F1500 E-6.5
;LAYER_COUNT:150
;LAYER:0
M107
G0 F3600 X-13.8 Y23.163 Z0.3
;TYPE:SKIRT
G1 F1500 E0
G1 F1800 X-13.8 Y-44.444 E3.37293
G1 X-13.76 Y-45.233 E3.41234
G1 X-13.641 Y-46.013 E3.45171
G1 X-13.443 Y-46.778 E3.49113
G1 X-13.169 Y-47.518 E3.5305
G1 X-12.821 Y-48.227 E3.5699
G1 X-12.403 Y-48.898 E3.60934
G1 X-11.92 Y-49.522 E3.64871
G1 X-11.377 Y-50.095 E3.68809
G1 X-10.778 Y-50.61 E3.7275
G1 X-10.13 Y-51.061 E3.76689
G1 X-9.439 Y-51.445 E3.80633
G1 X-8.714 Y-51.757 E3.84571
G1 X-7.961 Y-51.994 E3.88509
G1 X-7.187 Y-52.153 E3.92452
G1 X-6.719 Y-52.204 E3.948
G1 X-5.933 Y-52.28 E3.9874
G1 X-5.144 Y-52.276 E4.02676
G1 X-4.797 Y-52.239 E4.04417
G1 X2.917 Y-52.238 E4.42903
G1 X3.018 Y-52.253 E4.43412
G1 X3.807 Y-52.288 E4.47352
G1 X4.456 Y-52.251 E4.50595
G1 X24 Y-52.25 E5.48101
G1 X24.789 Y-52.21 E5.52042
G1 X25.57 Y-52.09 E5.55984
G1 X26.334 Y-51.893 E5.59921
G1 X27.075 Y-51.618 E5.63864
G1 X27.784 Y-51.271 E5.67802
G1 X28.454 Y-50.853 E5.71742
G1 X29.079 Y-50.37 E5.75682
G1 X29.651 Y-49.826 E5.79621
G1 X30.166 Y-49.227 E5.83562
G1 X30.617 Y-48.579 E5.87501
G1 X31.001 Y-47.889 E5.9144
G1 X31.313 Y-47.164 E5.95378
G1 X31.55 Y-46.41 E5.99321
G1 X31.709 Y-45.637 E6.03258
G1 X31.79 Y-44.851 E6.07201
G1 X31.8 Y-44.45 E6.09202
G1 X31.8 Y23.162 E9.46519
G1 X82.2 Y23.163 E11.97966
G1 X82.2 Y-44.45 E15.35289
G1 X82.24 Y-45.239 E15.3923
G1 X82.359 Y-46.019 E15.43167
G1 X82.557 Y-46.784 E15.47109
G1 X82.831 Y-47.524 E15.51046
G1 X83.179 Y-48.233 E15.54986
G1 X83.597 Y-48.904 E15.5893
G1 X84.08 Y-49.528 E15.62867
G1 X84.623 Y-50.101 E15.66805
G1 X85.222 Y-50.616 E15.70746
G1 X85.87 Y-51.067 E15.74685
G1 X86.561 Y-51.451 E15.78629
G1 X87.286 Y-51.763 E15.82567
G1 X88.039 Y-52 E15.86505
G1 X88.813 Y-52.159 E15.90447
G1 X89.598 Y-52.24 E15.94385
G1 X90 Y-52.25 E15.96391
G1 X100 Y-52.25 E16.46281
G1 X100.789 Y-52.21 E16.50222
G1 X101.569 Y-52.091 E16.54159
G1 X102.334 Y-51.893 E16.58101
G1 X103.074 Y-51.619 E16.62038
G1 X103.783 Y-51.271 E16.65978
G1 X104.454 Y-50.853 E16.69922
G1 X105.078 Y-50.37 E16.73859
G1 X105.651 Y-49.827 E16.77798
G1 X106.166 Y-49.228 E16.81739
G1 X106.617 Y-48.58 E16.85678
G1 X107.001 Y-47.889 E16.89622
G1 X107.313 Y-47.164 E16.93559
G1 X107.55 Y-46.411 E16.97498
G1 X107.709 Y-45.637 E17.0144
G1 X107.79 Y-44.852 E17.05377
G1 X107.8 Y-44.45 E17.07383
G1 X107.8 Y44.962 E21.53462
G1 X107.76 Y45.751 E21.57403
G1 X107.641 Y46.531 E21.61339
G1 X107.443 Y47.296 E21.65282
G1 X107.169 Y48.036 E21.69219
G1 X106.821 Y48.745 E21.73159
G1 X106.403 Y49.416 E21.77103
G1 X105.92 Y50.04 E21.8104
G1 X105.377 Y50.613 E21.84978
G1 X104.778 Y51.128 E21.88919
G1 X104.13 Y51.579 E21.92858
G1 X103.439 Y51.963 E21.96802
G1 X102.714 Y52.275 E22.0074
G1 X101.961 Y52.512 E22.04678
G1 X101.187 Y52.671 E22.0862
G1 X100.402 Y52.752 E22.12558
G1 X100 Y52.762 E22.14564
G1 X-93.999 Y52.763 E31.82429
G1 X-100.001 Y52.762 E32.12373
G1 X-100.79 Y52.722 E32.16314
G1 X-101.571 Y52.602 E32.20256
G1 X-102.335 Y52.404 E32.24194
G1 X-103.076 Y52.13 E32.28135
G1 X-103.785 Y51.782 E32.32076
G1 X-104.455 Y51.365 E32.36013
G1 X-105.079 Y50.881 E32.39953
G1 X-105.652 Y50.338 E32.43891
G1 X-106.166 Y49.739 E32.47829
G1 X-106.618 Y49.091 E32.51771
G1 X-107.001 Y48.4 E32.55712
G1 X-107.313 Y47.675 E32.5965
G1 X-107.55 Y46.921 E32.63593
G1 X-107.709 Y46.148 E32.6753
G1 X-107.79 Y45.362 E32.71473
G1 X-107.8 Y44.962 E32.73469
G1 X-107.8 Y-44.442 E37.19507
G1 X-107.76 Y-45.231 E37.23448
G1 X-107.641 Y-46.011 E37.27385
G1 X-107.443 Y-46.776 E37.31327
G1 X-107.169 Y-47.516 E37.35264
G1 X-106.821 Y-48.225 E37.39204
G1 X-106.403 Y-48.896 E37.43149
G1 X-105.92 Y-49.52 E37.47085
G1 X-105.377 Y-50.093 E37.51024
G1 X-104.778 Y-50.608 E37.54965
G1 X-104.13 Y-51.059 E37.58904
G1 X-103.439 Y-51.443 E37.62848
G1 X-102.714 Y-51.755 E37.66785
G1 X-101.961 Y-51.992 E37.70724
G1 X-101.187 Y-52.151 E37.74666
G1 X-100.784 Y-52.189 E37.76685
G1 X-100.122 Y-52.269 E37.80012
G1 X-99.332 Y-52.284 E37.83954
G1 X-98.949 Y-52.244 E37.85875
G1 X-89.176 Y-52.244 E38.34633
G1 X-89 Y-52.266 E38.35518
G1 X-88.211 Y-52.285 E38.39455
G1 X-87.423 Y-52.224 E38.43399
G1 X-87.34 Y-52.217 E38.43814
G1 X-86.557 Y-52.11 E38.47757
G1 X-85.79 Y-51.925 E38.51693
G1 X-85.045 Y-51.663 E38.55633
G1 X-84.33 Y-51.328 E38.59572
G1 X-83.653 Y-50.921 E38.63513
G1 X-83.02 Y-50.448 E38.67456
G1 X-82.439 Y-49.914 E38.71393
G1 X-81.914 Y-49.324 E38.75333
G1 X-81.452 Y-48.683 E38.79275
G1 X-81.057 Y-48 E38.83211
G1 X-80.733 Y-47.279 E38.87155
G1 X-80.484 Y-46.53 E38.91093
G1 X-80.312 Y-45.76 E38.95029
G1 X-80.218 Y-44.975 E38.98973
G1 X-80.2 Y-44.445 E39.01619
G1 X-80.2 Y23.162 E42.38912
G1 X-13.8 Y23.163 E45.70182
G0 F3600 X-13.4 Y23.563
G1 F1800 X-13.4 Y-44.444 E49.09471
G1 X-13.36 Y-45.212 E49.13308
G1 X-13.241 Y-45.972 E49.17145
G1 X-13.043 Y-46.715 E49.20982
G1 X-12.769 Y-47.434 E49.2482
G1 X-12.422 Y-48.12 E49.28656
G1 X-12.006 Y-48.767 E49.32493
G1 X-11.525 Y-49.367 E49.3633
G1 X-10.984 Y-49.914 E49.40168
G1 X-10.389 Y-50.402 E49.44007
G1 X-9.747 Y-50.825 E49.47843
G1 X-9.064 Y-51.18 E49.51683
G1 X-8.349 Y-51.461 E49.55516
G1 X-7.607 Y-51.667 E49.59358
G1 X-6.849 Y-51.795 E49.63193
G1 X-6.482 Y-51.833 E49.65034
G1 X-5.715 Y-51.887 E49.6887
G1 X-4.946 Y-51.861 E49.72709
G1 X-4.786 Y-51.839 E49.73514
G1 X2.953 Y-51.838 E50.12124
G1 X3.076 Y-51.856 E50.12745
G1 X3.845 Y-51.888 E50.16585
G1 X4.425 Y-51.851 E50.19484
G1 X24 Y-51.85 E51.17144
G1 X24.768 Y-51.81 E51.20981
G1 X25.528 Y-51.69 E51.2482
G1 X26.272 Y-51.493 E51.28659
G1 X26.99 Y-51.219 E51.32493
G1 X27.677 Y-50.872 E51.36333
G1 X28.324 Y-50.456 E51.40171
G1 X28.924 Y-49.974 E51.4401
G1 X29.47 Y-49.433 E51.47845
G1 X29.958 Y-48.839 E51.5168
G1 X30.381 Y-48.197 E51.55516
G1 X30.736 Y-47.514 E51.59356
G1 X31.018 Y-46.798 E51.63196
G1 X31.223 Y-46.057 E51.67031
G1 X31.351 Y-45.299 E51.70867
G1 X31.4 Y-44.45 E51.75109
G1 X31.4 Y23.562 E55.14423
G1 X82.6 Y23.563 E57.6986
G1 X82.6 Y-44.45 E61.09179
G1 X82.64 Y-45.218 E61.13015
G1 X82.759 Y-45.978 E61.16853
G1 X82.957 Y-46.721 E61.20689
G1 X83.231 Y-47.44 E61.24528
G1 X83.578 Y-48.126 E61.28364
G1 X83.994 Y-48.773 E61.32201
G1 X84.475 Y-49.373 E61.36038
G1 X85.016 Y-49.92 E61.39876
G1 X85.611 Y-50.408 E61.43715
G1 X86.253 Y-50.831 E61.47551
G1 X86.936 Y-51.186 E61.51391
G1 X87.651 Y-51.467 E61.55224
G1 X88.393 Y-51.673 E61.59066
G1 X89.151 Y-51.801 E61.62901
G1 X90 Y-51.85 E61.67144
G1 X100 Y-51.85 E62.17034
G1 X100.768 Y-51.81 E62.20871
G1 X101.528 Y-51.691 E62.24709
G1 X102.271 Y-51.493 E62.28545
G1 X102.99 Y-51.219 E62.32383
G1 X103.676 Y-50.872 E62.36219
G1 X104.323 Y-50.456 E62.40056
G1 X104.923 Y-49.975 E62.43893
G1 X105.47 Y-49.434 E62.47731
G1 X105.958 Y-48.839 E62.5157
G1 X106.381 Y-48.197 E62.55406
G1 X106.736 Y-47.514 E62.59246
G1 X107.017 Y-46.799 E62.63079
G1 X107.223 Y-46.057 E62.66921
G1 X107.351 Y-45.299 E62.70756
G1 X107.4 Y-44.45 E62.74999
G1 X107.4 Y44.962 E67.21077
G1 X107.36 Y45.73 E67.24914
G1 X107.241 Y46.49 E67.28752
G1 X107.043 Y47.233 E67.32588
G1 X106.769 Y47.952 E67.36427
G1 X106.422 Y48.638 E67.40262
G1 X106.006 Y49.285 E67.441
G1 X105.525 Y49.885 E67.47936
G1 X104.984 Y50.432 E67.51775
G1 X104.389 Y50.92 E67.55614
G1 X103.747 Y51.343 E67.59449
G1 X103.064 Y51.698 E67.6329
G1 X102.349 Y51.979 E67.67122
G1 X101.607 Y52.185 E67.70964
G1 X100.849 Y52.313 E67.748
G1 X100 Y52.362 E67.79042
G1 X-93.999 Y52.363 E77.46907
G1 X-100.001 Y52.362 E77.76851
G1 X-100.769 Y52.322 E77.80688
G1 X-101.529 Y52.202 E77.84527
G1 X-102.272 Y52.004 E77.88363
G1 X-102.991 Y51.731 E77.922
G1 X-103.678 Y51.383 E77.96042
G1 X-104.324 Y50.967 E77.99875
G1 X-104.924 Y50.486 E78.03712
G1 X-105.471 Y49.945 E78.0755
G1 X-105.959 Y49.35 E78.11389
G1 X-106.382 Y48.708 E78.15225
G1 X-106.736 Y48.025 E78.19063
G1 X-107.018 Y47.309 E78.22902
G1 X-107.224 Y46.568 E78.26739
G1 X-107.351 Y45.81 E78.30574
G1 X-107.4 Y44.962 E78.34811
G1 X-107.4 Y-44.442 E82.8085
G1 X-107.36 Y-45.21 E82.84687
G1 X-107.241 Y-45.97 E82.88524
G1 X-107.043 Y-46.713 E82.92361
G1 X-106.769 Y-47.432 E82.96199
G1 X-106.422 Y-48.118 E83.00035
G1 X-106.006 Y-48.765 E83.03872
G1 X-105.525 Y-49.365 E83.07709
G1 X-104.984 Y-49.912 E83.11547
G1 X-104.389 Y-50.4 E83.15386
G1 X-103.747 Y-50.823 E83.19222
G1 X-103.064 Y-51.178 E83.23062
G1 X-102.349 Y-51.459 E83.26895
G1 X-101.607 Y-51.665 E83.30737
G1 X-100.849 Y-51.793 E83.34572
G1 X-100.66 Y-51.809 E83.35518
G1 X-99.894 Y-51.881 E83.39357
G1 X-99.125 Y-51.874 E83.43194
G1 X-98.874 Y-51.844 E83.44455
G1 X-89.151 Y-51.844 E83.92963
G1 X-88.95 Y-51.869 E83.93974
G1 X-88.181 Y-51.884 E83.97811
G1 X-87.418 Y-51.819 E84.01631
G1 X-87.354 Y-51.817 E84.01951
G1 X-86.592 Y-51.71 E84.0579
G1 X-85.845 Y-51.524 E84.0963
G1 X-85.122 Y-51.263 E84.13465
G1 X-84.43 Y-50.927 E84.17303
G1 X-83.777 Y-50.521 E84.21139
G1 X-83.169 Y-50.05 E84.24976
G1 X-82.613 Y-49.518 E84.28815
G1 X-82.115 Y-48.932 E84.32652
G1 X-81.681 Y-48.297 E84.36489
G1 X-81.316 Y-47.62 E84.40326
G1 X-81.022 Y-46.909 E84.44165
G1 X-80.804 Y-46.172 E84.47999
G1 X-80.664 Y-45.415 E84.5184
G1 X-80.6 Y-44.445 E84.5669
G1 X-80.6 Y23.562 E87.95978
G1 X-13.4 Y23.563 E91.3124
G0 F3600 X-13 Y23.963
G1 F1800 X-13 Y-44.444 E94.72524
G1 X-12.96 Y-45.191 E94.76256
G1 X-12.841 Y-45.929 E94.79986
G1 X-12.643 Y-46.651 E94.83721
G1 X-12.37 Y-47.347 E94.87451
G1 X-12.023 Y-48.01 E94.91184
G1 X-11.608 Y-48.633 E94.94919
G1 X-11.129 Y-49.207 E94.98649
G1 X-10.592 Y-49.728 E95.02381
G1 X-10.002 Y-50.187 E95.06111
G1 X-9.366 Y-50.582 E95.09846
G1 X-8.692 Y-50.906 E95.13577
G1 X-7.987 Y-51.156 E95.17309
G1 X-7.259 Y-51.33 E95.21043
G1 X-6.675 Y-51.392 E95.23973
G1 X-6.25 Y-51.456 E95.26117
G1 X-5.503 Y-51.488 E95.29848
G1 X-4.75 Y-51.439 E95.33612
G1 X2.982 Y-51.438 E95.72187
G1 X3.134 Y-51.46 E95.72954
G1 X3.881 Y-51.487 E95.76683
G1 X4.389 Y-51.451 E95.79224
G1 X24 Y-51.45 E96.77063
G1 X24.747 Y-51.41 E96.80795
G1 X25.486 Y-51.29 E96.84531
G1 X26.207 Y-51.093 E96.8826
G1 X26.904 Y-50.819 E96.91996
G1 X27.567 Y-50.473 E96.95727
G1 X28.189 Y-50.058 E96.99457
G1 X28.764 Y-49.579 E97.03191
G1 X29.284 Y-49.041 E97.06924
G1 X29.744 Y-48.451 E97.10656
G1 X30.138 Y-47.816 E97.14385
G1 X30.462 Y-47.141 E97.1812
G1 X30.712 Y-46.436 E97.21852
G1 X30.886 Y-45.709 E97.25582
G1 X30.981 Y-44.967 E97.29314
G1 X31 Y-44.45 E97.31895
G1 X31 Y23.962 E100.73204
G1 X83 Y23.963 E103.32633
G1 X83 Y-44.45 E106.73946
G1 X83.04 Y-45.197 E106.77679
G1 X83.159 Y-45.935 E106.81408
G1 X83.357 Y-46.657 E106.85143
G1 X83.63 Y-47.353 E106.88873
G1 X83.977 Y-48.016 E106.92606
G1 X84.392 Y-48.639 E106.96341
G1 X84.871 Y-49.213 E107.00071
G1 X85.408 Y-49.734 E107.03804
G1 X85.998 Y-50.193 E107.07533
G1 X86.634 Y-50.588 E107.11268
G1 X87.308 Y-50.912 E107.14999
G1 X88.013 Y-51.162 E107.18731
G1 X88.741 Y-51.336 E107.22465
G1 X89.483 Y-51.431 E107.26197
G1 X90 Y-51.45 E107.28778
G1 X100 Y-51.45 E107.78669
G1 X100.747 Y-51.41 E107.82401
G1 X101.485 Y-51.291 E107.8613
G1 X102.207 Y-51.093 E107.89865
G1 X102.903 Y-50.82 E107.93595
G1 X103.566 Y-50.473 E107.97329
G1 X104.189 Y-50.058 E108.01063
G1 X104.763 Y-49.579 E108.04793
G1 X105.284 Y-49.042 E108.08526
G1 X105.743 Y-48.452 E108.12255
G1 X106.138 Y-47.816 E108.1599
G1 X106.462 Y-47.142 E108.19721
G1 X106.712 Y-46.437 E108.23453
G1 X106.886 Y-45.709 E108.27188
G1 X106.981 Y-44.967 E108.3092
G1 X107 Y-44.45 E108.33501
G1 X107 Y44.962 E112.79579
G1 X106.96 Y45.709 E112.83311
G1 X106.841 Y46.447 E112.87041
G1 X106.643 Y47.169 E112.90776
G1 X106.37 Y47.865 E112.94505
G1 X106.023 Y48.528 E112.98239
G1 X105.608 Y49.151 E113.01973
G1 X105.129 Y49.725 E113.05703
G1 X104.592 Y50.246 E113.09436
G1 X104.002 Y50.705 E113.13165
G1 X103.366 Y51.1 E113.16901
G1 X102.692 Y51.424 E113.20632
G1 X101.987 Y51.674 E113.24363
G1 X101.259 Y51.848 E113.28098
G1 X100.517 Y51.943 E113.3183
G1 X100 Y51.962 E113.34411
G1 X-93.999 Y51.963 E123.02276
G1 X-100.001 Y51.962 E123.3222
G1 X-100.748 Y51.922 E123.35952
G1 X-101.487 Y51.802 E123.39687
G1 X-102.208 Y51.605 E123.43416
G1 X-102.904 Y51.331 E123.47148
G1 X-103.567 Y50.985 E123.50879
G1 X-104.19 Y50.57 E123.54614
G1 X-104.764 Y50.091 E123.58343
G1 X-105.284 Y49.553 E123.62076
G1 X-105.744 Y48.963 E123.65809
G1 X-106.138 Y48.327 E123.69541
G1 X-106.462 Y47.653 E123.73272
G1 X-106.712 Y46.948 E123.77004
G1 X-106.886 Y46.22 E123.80738
G1 X-106.981 Y45.478 E123.84471
G1 X-107 Y44.962 E123.87047
G1 X-107 Y-44.442 E128.33085
G1 X-106.96 Y-45.189 E128.36817
G1 X-106.841 Y-45.927 E128.40547
G1 X-106.643 Y-46.649 E128.44282
G1 X-106.37 Y-47.345 E128.48012
G1 X-106.023 Y-48.008 E128.51745
G1 X-105.608 Y-48.631 E128.5548
G1 X-105.129 Y-49.205 E128.59209
G1 X-104.592 Y-49.726 E128.62942
G1 X-104.002 Y-50.185 E128.66672
G1 X-103.366 Y-50.58 E128.70407
G1 X-102.692 Y-50.904 E128.74138
G1 X-101.987 Y-51.154 E128.7787
G1 X-101.259 Y-51.328 E128.81604
G1 X-100.688 Y-51.39 E128.84469
G1 X-100.418 Y-51.437 E128.85837
G1 X-99.672 Y-51.487 E128.89567
G1 X-98.925 Y-51.457 E128.93297
G1 X-98.828 Y-51.444 E128.93785
G1 X-89.121 Y-51.444 E129.42213
G1 X-88.901 Y-51.471 E129.43319
G1 X-88.153 Y-51.483 E129.47051
G1 X-87.471 Y-51.42 E129.50468
G1 X-87.368 Y-51.416 E129.50983
G1 X-86.628 Y-51.309 E129.54713
G1 X-85.903 Y-51.124 E129.58446
G1 X-85.202 Y-50.862 E129.62179
G1 X-84.534 Y-50.526 E129.6591
G1 X-83.904 Y-50.122 E129.69644
G1 X-83.322 Y-49.652 E129.73376
G1 X-82.793 Y-49.123 E129.77108
G1 X-82.324 Y-48.541 E129.80837
G1 X-81.919 Y-47.912 E129.8457
G1 X-81.584 Y-47.243 E129.88302
G1 X-81.322 Y-46.542 E129.92036
G1 X-81.136 Y-45.818 E129.95765
G1 X-81.029 Y-45.078 E129.99496
G1 X-81 Y-44.445 E130.02657
G1 X-81 Y23.962 E133.43941
G1 X-13 Y23.963 E136.83194
G0 F3600 X-12.6 Y24.363
G1 F1800 X-12.6 Y-44.444 E140.26474
G1 X-12.56 Y-45.169 E140.30096
G1 X-12.441 Y-45.886 E140.33722
G1 X-12.243 Y-46.585 E140.37347
G1 X-11.97 Y-47.258 E140.4097
G1 X-11.625 Y-47.897 E140.44593
G1 X-11.211 Y-48.494 E140.48218
G1 X-10.735 Y-49.042 E140.51839
G1 X-10.201 Y-49.535 E140.55465
G1 X-9.616 Y-49.965 E140.59087
G1 X-8.987 Y-50.329 E140.62713
G1 X-8.322 Y-50.622 E140.66338
G1 X-7.629 Y-50.84 E140.69963
G1 X-6.917 Y-50.98 E140.73583
G1 X-6.023 Y-51.073 E140.78067
G1 X-5.296 Y-51.082 E140.81695
G1 X-4.858 Y-51.039 E140.8389
G1 X3.015 Y-51.038 E141.23169
G1 X3.191 Y-51.063 E141.24056
G1 X3.917 Y-51.086 E141.2768
G1 X4.362 Y-51.051 E141.29906
G1 X24 Y-51.05 E142.27881
G1 X24.726 Y-51.01 E142.31508
G1 X25.442 Y-50.891 E142.3513
G1 X26.141 Y-50.693 E142.38754
G1 X26.814 Y-50.42 E142.42377
G1 X27.453 Y-50.075 E142.46
G1 X28.05 Y-49.661 E142.49625
G1 X28.598 Y-49.184 E142.5325
G1 X29.091 Y-48.65 E142.56875
G1 X29.522 Y-48.066 E142.60497
G1 X29.885 Y-47.437 E142.6412
G1 X30.178 Y-46.772 E142.67745
G1 X30.396 Y-46.079 E142.7137
G1 X30.536 Y-45.366 E142.74995
G1 X30.6 Y-44.45 E142.79576
G1 X30.6 Y24.362 E146.2288
G1 X83.4 Y24.363 E148.86301
G1 X83.4 Y-44.45 E152.2961
G1 X83.44 Y-45.175 E152.33233
G1 X83.559 Y-45.892 E152.36859
G1 X83.757 Y-46.591 E152.40483
G1 X84.03 Y-47.264 E152.44106
G1 X84.375 Y-47.903 E152.47729
G1 X84.789 Y-48.5 E152.51354
G1 X85.265 Y-49.048 E152.54975
G1 X85.799 Y-49.541 E152.58601
G1 X86.384 Y-49.971 E152.62223
G1 X87.013 Y-50.335 E152.65849
G1 X87.678 Y-50.628 E152.69475
G1 X88.371 Y-50.846 E152.73099
G1 X89.083 Y-50.986 E152.76719
G1 X90 Y-51.05 E152.81305
G1 X100 Y-51.05 E153.31195
G1 X100.725 Y-51.01 E153.34818
G1 X101.442 Y-50.891 E153.38444
G1 X102.141 Y-50.693 E153.42069
G1 X102.814 Y-50.42 E153.45692
G1 X103.453 Y-50.075 E153.49315
G1 X104.05 Y-49.661 E153.52939
G1 X104.598 Y-49.185 E153.56561
G1 X105.091 Y-48.651 E153.60187
G1 X105.521 Y-48.066 E153.63809
G1 X105.885 Y-47.437 E153.67435
G1 X106.178 Y-46.772 E153.7106
G1 X106.396 Y-46.079 E153.74684
G1 X106.536 Y-45.367 E153.78305
G1 X106.6 Y-44.45 E153.82891
G1 X106.6 Y44.962 E158.28969
