;FLAVOR:Marlin
;TIME:10000
;Filament used: 14.4108m
;Layer height: 0.3
;MINX:-85.8
;MINY:-63.646
;MINZ:0.3
;MAXX:85.8
;MAXY:41.954
;MAXZ:19.8
;Generated with Cura_SteamEngine 4.7.1
M140 S50
M105
M190 S50
M104 S250
M105
M109 S250
M82 ;absolute extrusion mode
G28 ;Home
G1 Z15.0 F6000 ;Move the platform down 15mm
;Prime the extruder
G92 E0
G1 F200 E3
G92 E0
G92 E0
G92 E0
G1 F1500 E-6.5
;LAYER_COUNT:66
;LAYER:0
M107
G0 F3600 X60.2 Y34.154 Z0.3
;TYPE:SKIRT
G1 F1500 E0
G1 F1800 X60.2 Y-38.046 E3.60207
G1 X-60.2 Y-38.046 E9.60885
G1 X-60.2 Y34.154 E13.21093
G1 X-60.24 Y34.943 E13.25034
G1 X-60.359 Y35.723 E13.2897
G1 X-60.557 Y36.488 E13.32913
G1 X-60.831 Y37.228 E13.3685
G1 X-61.179 Y37.937 E13.4079
G1 X-61.597 Y38.608 E13.44734
G1 X-62.08 Y39.232 E13.48671
G1 X-62.623 Y39.805 E13.52609
G1 X-63.222 Y40.32 E13.5655
G1 X-63.87 Y40.771 E13.60489
G1 X-64.561 Y41.155 E13.64433
G1 X-65.286 Y41.467 E13.68371
G1 X-66.039 Y41.704 E13.72309
G1 X-66.813 Y41.863 E13.76251
G1 X-67.598 Y41.944 E13.80189
G1 X-68 Y41.954 E13.82195
G1 X-78 Y41.954 E14.32085
G1 X-78.789 Y41.914 E14.36026
G1 X-79.569 Y41.795 E14.39963
G1 X-80.334 Y41.597 E14.43905
G1 X-81.074 Y41.323 E14.47842
G1 X-81.783 Y40.975 E14.51782
G1 X-82.454 Y40.557 E14.55726
G1 X-83.078 Y40.074 E14.59663
G1 X-83.651 Y39.531 E14.63602
G1 X-84.166 Y38.932 E14.67543
G1 X-84.617 Y38.284 E14.71482
G1 X-85.001 Y37.593 E14.75425
G1 X-85.313 Y36.868 E14.79363
G1 X-85.55 Y36.115 E14.83302
G1 X-85.709 Y35.341 E14.87244
G1 X-85.79 Y34.556 E14.91181
G1 X-85.8 Y34.154 E14.93187
G1 X-85.8 Y-55.846 E19.42199
G1 X-85.76 Y-56.635 E19.4614
G1 X-85.641 Y-57.415 E19.50077
G1 X-85.443 Y-58.18 E19.54019
G1 X-85.169 Y-58.92 E19.57956
G1 X-84.821 Y-59.629 E19.61896
G1 X-84.403 Y-60.3 E19.6584
G1 X-83.92 Y-60.924 E19.69777
G1 X-83.377 Y-61.497 E19.73716
G1 X-82.778 Y-62.012 E19.77657
G1 X-82.13 Y-62.463 E19.81596
G1 X-81.439 Y-62.847 E19.8554
G1 X-80.714 Y-63.159 E19.89477
G1 X-79.961 Y-63.396 E19.93416
G1 X-79.187 Y-63.555 E19.97358
G1 X-78.402 Y-63.636 E20.01295
G1 X-78 Y-63.646 E20.03301
G1 X78 Y-63.646 E27.81588
G1 X78.789 Y-63.606 E27.8553
G1 X79.569 Y-63.487 E27.89466
G1 X80.334 Y-63.289 E27.93409
G1 X81.074 Y-63.015 E27.97345
G1 X81.783 Y-62.667 E28.01286
G1 X82.454 Y-62.249 E28.0523
G1 X83.078 Y-61.766 E28.09167
G1 X83.651 Y-61.223 E28.13105
G1 X84.166 Y-60.624 E28.17046
G1 X84.617 Y-59.976 E28.20985
G1 X85.001 Y-59.285 E28.24929
G1 X85.313 Y-58.56 E28.28867
G1 X85.55 Y-57.807 E28.32805
G1 X85.709 Y-57.033 E28.36747
G1 X85.79 Y-56.248 E28.40684
G1 X85.8 Y-55.846 E28.42691
G1 X85.8 Y34.154 E32.91702
G1 X85.76 Y34.943 E32.95644
G1 X85.641 Y35.723 E32.9958
G1 X85.443 Y36.488 E33.03523
G1 X85.169 Y37.228 E33.07459
G1 X84.821 Y37.937 E33.114
G1 X84.403 Y38.608 E33.15344
G1 X83.92 Y39.232 E33.19281
G1 X83.377 Y39.805 E33.23219
G1 X82.778 Y40.32 E33.2716
G1 X82.13 Y40.771 E33.31099
G1 X81.439 Y41.155 E33.35043
G1 X80.714 Y41.467 E33.38981
G1 X79.961 Y41.704 E33.42919
G1 X79.187 Y41.863 E33.46861
G1 X78.402 Y41.944 E33.50798
G1 X78 Y41.954 E33.52805
G1 X68 Y41.954 E34.02695
G1 X67.211 Y41.914 E34.06636
G1 X66.431 Y41.795 E34.10573
G1 X65.666 Y41.597 E34.14515
G1 X64.926 Y41.323 E34.18452
G1 X64.217 Y40.975 E34.22392
G1 X63.546 Y40.557 E34.26336
G1 X62.922 Y40.074 E34.30273
G1 X62.349 Y39.531 E34.34211
G1 X61.834 Y38.932 E34.38153
G1 X61.383 Y38.284 E34.42091
G1 X60.999 Y37.593 E34.46035
G1 X60.687 Y36.868 E34.49973
G1 X60.45 Y36.115 E34.53911
G1 X60.291 Y35.341 E34.57854
G1 X60.21 Y34.556 E34.61791
G1 X60.2 Y34.154 E34.63797
G0 F3600 X60.6 Y34.154
G1 F1800 X60.6 Y-38.446 E38.26
G1 X-60.6 Y-38.446 E44.30669
G1 X-60.6 Y34.154 E47.92872
G1 X-60.64 Y34.922 E47.96709
G1 X-60.759 Y35.682 E48.00547
G1 X-60.957 Y36.425 E48.04383
G1 X-61.231 Y37.144 E48.08222
G1 X-61.578 Y37.83 E48.12057
G1 X-61.994 Y38.477 E48.15894
G1 X-62.475 Y39.077 E48.19731
G1 X-63.016 Y39.624 E48.23569
G1 X-63.611 Y40.112 E48.27409
G1 X-64.253 Y40.535 E48.31244
G1 X-64.936 Y40.89 E48.35084
G1 X-65.651 Y41.171 E48.38917
G1 X-66.393 Y41.377 E48.42759
G1 X-67.151 Y41.505 E48.46594
G1 X-68 Y41.554 E48.50837
G1 X-78 Y41.554 E49.00727
G1 X-78.768 Y41.514 E49.04564
G1 X-79.528 Y41.395 E49.08402
G1 X-80.271 Y41.197 E49.12238
G1 X-80.99 Y40.923 E49.16077
G1 X-81.676 Y40.576 E49.19912
G1 X-82.323 Y40.16 E49.2375
G1 X-82.923 Y39.679 E49.27586
G1 X-83.47 Y39.138 E49.31425
G1 X-83.958 Y38.543 E49.35264
G1 X-84.381 Y37.901 E49.39099
G1 X-84.736 Y37.218 E49.4294
G1 X-85.017 Y36.503 E49.46772
G1 X-85.223 Y35.761 E49.50614
G1 X-85.351 Y35.003 E49.5445
G1 X-85.4 Y34.154 E49.58692
G1 X-85.4 Y-55.846 E54.07704
G1 X-85.36 Y-56.614 E54.11541
G1 X-85.241 Y-57.374 E54.15379
G1 X-85.043 Y-58.117 E54.19215
G1 X-84.769 Y-58.836 E54.23054
G1 X-84.422 Y-59.522 E54.26889
G1 X-84.006 Y-60.169 E54.30727
G1 X-83.525 Y-60.769 E54.34563
G1 X-82.984 Y-61.316 E54.38401
G1 X-82.389 Y-61.804 E54.42241
G1 X-81.747 Y-62.227 E54.46076
G1 X-81.064 Y-62.582 E54.49917
G1 X-80.349 Y-62.863 E54.53749
G1 X-79.607 Y-63.069 E54.57591
G1 X-78.849 Y-63.197 E54.61426
G1 X-78 Y-63.246 E54.65669
G1 X78 Y-63.246 E62.43956
G1 X78.768 Y-63.206 E62.47793
G1 X79.528 Y-63.087 E62.51631
G1 X80.271 Y-62.889 E62.55467
G1 X80.99 Y-62.615 E62.59306
G1 X81.676 Y-62.268 E62.63141
G1 X82.323 Y-61.852 E62.66979
G1 X82.923 Y-61.371 E62.70815
G1 X83.47 Y-60.83 E62.74654
G1 X83.958 Y-60.235 E62.78493
G1 X84.381 Y-59.593 E62.82329
G1 X84.736 Y-58.91 E62.86169
G1 X85.017 Y-58.195 E62.90002
G1 X85.223 Y-57.453 E62.93843
G1 X85.351 Y-56.695 E62.97679
G1 X85.4 Y-55.846 E63.01921
G1 X85.4 Y34.154 E67.50933
G1 X85.36 Y34.922 E67.5477
G1 X85.241 Y35.682 E67.58608
G1 X85.043 Y36.425 E67.62444
G1 X84.769 Y37.144 E67.66283
G1 X84.422 Y37.83 E67.70118
G1 X84.006 Y38.477 E67.73956
G1 X83.525 Y39.077 E67.77792
G1 X82.984 Y39.624 E67.81631
G1 X82.389 Y40.112 E67.8547
G1 X81.747 Y40.535 E67.89305
G1 X81.064 Y40.89 E67.93146
G1 X80.349 Y41.171 E67.96978
G1 X79.607 Y41.377 E68.0082
G1 X78.849 Y41.505 E68.04656
G1 X78 Y41.554 E68.08898
G1 X68 Y41.554 E68.58788
G1 X67.232 Y41.514 E68.62625
G1 X66.472 Y41.395 E68.66463
G1 X65.729 Y41.197 E68.70299
G1 X65.01 Y40.923 E68.74138
G1 X64.324 Y40.576 E68.77973
G1 X63.677 Y40.16 E68.81811
G1 X63.077 Y39.679 E68.85648
G1 X62.53 Y39.138 E68.89486
G1 X62.042 Y38.543 E68.93325
G1 X61.619 Y37.901 E68.97161
G1 X61.264 Y37.218 E69.01001
G1 X60.983 Y36.503 E69.04834
G1 X60.777 Y35.761 E69.08676
G1 X60.649 Y35.003 E69.12511
G1 X60.6 Y34.154 E69.16754
G0 F3600 X61 Y34.154
G1 F1800 X61 Y-38.846 E72.80952
G1 X-61 Y-38.846 E78.89612
G1 X-61 Y34.154 E82.53811
G1 X-61.04 Y34.901 E82.57543
G1 X-61.159 Y35.639 E82.61273
G1 X-61.357 Y36.361 E82.65008
G1 X-61.63 Y37.057 E82.68738
G1 X-61.977 Y37.72 E82.72471
G1 X-62.392 Y38.343 E82.76206
G1 X-62.871 Y38.917 E82.79935
G1 X-63.408 Y39.438 E82.83668
G1 X-63.998 Y39.897 E82.87398
G1 X-64.634 Y40.292 E82.91133
G1 X-65.308 Y40.616 E82.94864
G1 X-66.013 Y40.866 E82.98596
G1 X-66.741 Y41.04 E83.0233
G1 X-67.483 Y41.135 E83.06062
G1 X-68 Y41.154 E83.08643
G1 X-78 Y41.154 E83.58533
G1 X-78.747 Y41.114 E83.62265
G1 X-79.485 Y40.995 E83.65995
G1 X-80.207 Y40.797 E83.6973
G1 X-80.903 Y40.524 E83.7346
G1 X-81.566 Y40.177 E83.77193
G1 X-82.189 Y39.762 E83.80928
G1 X-82.763 Y39.283 E83.84658
G1 X-83.284 Y38.746 E83.8839
G1 X-83.743 Y38.156 E83.9212
G1 X-84.138 Y37.52 E83.95855
G1 X-84.462 Y36.846 E83.99586
G1 X-84.712 Y36.141 E84.03318
G1 X-84.886 Y35.413 E84.07052
G1 X-84.981 Y34.671 E84.10784
G1 X-85 Y34.154 E84.13365
G1 X-85 Y-55.846 E88.62377
G1 X-84.96 Y-56.593 E88.66109
G1 X-84.841 Y-57.331 E88.69839
G1 X-84.643 Y-58.053 E88.73574
G1 X-84.37 Y-58.749 E88.77304
G1 X-84.023 Y-59.412 E88.81037
G1 X-83.608 Y-60.035 E88.84772
G1 X-83.129 Y-60.609 E88.88501
G1 X-82.592 Y-61.13 E88.92234
G1 X-82.002 Y-61.589 E88.95964
G1 X-81.366 Y-61.984 E88.99699
G1 X-80.692 Y-62.308 E89.0343
G1 X-79.987 Y-62.558 E89.07162
G1 X-79.259 Y-62.732 E89.10896
G1 X-78.517 Y-62.827 E89.14628
G1 X-78 Y-62.846 E89.17209
G1 X78 Y-62.846 E96.95496
G1 X78.747 Y-62.806 E96.99228
G1 X79.485 Y-62.687 E97.02958
G1 X80.207 Y-62.489 E97.06693
G1 X80.903 Y-62.216 E97.10423
G1 X81.566 Y-61.869 E97.14156
G1 X82.189 Y-61.454 E97.17891
G1 X82.763 Y-60.975 E97.21621
G1 X83.284 Y-60.438 E97.25353
G1 X83.743 Y-59.848 E97.29083
G1 X84.138 Y-59.212 E97.32818
G1 X84.462 Y-58.538 E97.36549
G1 X84.712 Y-57.833 E97.40281
G1 X84.886 Y-57.105 E97.44015
G1 X84.981 Y-56.363 E97.47747
G1 X85 Y-55.846 E97.50328
G1 X85 Y34.154 E101.9934
G1 X84.96 Y34.901 E102.03072
G1 X84.841 Y35.639 E102.06802
G1 X84.643 Y36.361 E102.10537
G1 X84.37 Y37.057 E102.14267
G1 X84.023 Y37.72 E102.18
G1 X83.608 Y38.343 E102.21735
G1 X83.129 Y38.917 E102.25464
G1 X82.592 Y39.438 E102.29197
G1 X82.002 Y39.897 E102.32927
G1 X81.366 Y40.292 E102.36662
G1 X80.692 Y40.616 E102.40393
G1 X79.987 Y40.866 E102.44125
G1 X79.259 Y41.04 E102.47859
G1 X78.517 Y41.135 E102.51591
G1 X78 Y41.154 E102.54172
G1 X68 Y41.154 E103.04062
G1 X67.253 Y41.114 E103.07794
G1 X66.515 Y40.995 E103.11524
G1 X65.793 Y40.797 E103.15259
G1 X65.097 Y40.524 E103.18989
G1 X64.434 Y40.177 E103.22722
G1 X63.811 Y39.762 E103.26457
G1 X63.237 Y39.283 E103.30187
G1 X62.716 Y38.746 E103.33919
G1 X62.257 Y38.156 E103.37649
G1 X61.862 Y37.52 E103.41384
G1 X61.538 Y36.846 E103.45115
G1 X61.288 Y36.141 E103.48847
G1 X61.114 Y35.413 E103.52581
G1 X61.019 Y34.671 E103.56313
G1 X61 Y34.154 E103.58894
G0 F3600 X61.4 Y34.154
G1 F1800 X61.4 Y-39.246 E107.25088
G1 X-61.4 Y-39.246 E113.3774
G1 X-61.4 Y34.154 E117.03934
G1 X-61.44 Y34.879 E117.07557
G1 X-61.559 Y35.596 E117.11183
G1 X-61.757 Y36.295 E117.14807
G1 X-62.03 Y36.968 E117.18431
G1 X-62.375 Y37.607 E117.22054
G1 X-62.789 Y38.204 E117.25678
G1 X-63.265 Y38.752 E117.29299
G1 X-63.799 Y39.245 E117.32925
G1 X-64.384 Y39.675 E117.36548
G1 X-65.013 Y40.039 E117.40173
G1 X-65.678 Y40.332 E117.43799
G1 X-66.371 Y40.55 E117.47423
G1 X-67.083 Y40.69 E117.51043
G1 X-68 Y40.754 E117.55629
G1 X-78 Y40.754 E118.0552
G1 X-78.725 Y40.714 E118.09142
G1 X-79.442 Y40.595 E118.12768
G1 X-80.141 Y40.397 E118.16393
G1 X-80.814 Y40.124 E118.20016
G1 X-81.453 Y39.779 E118.23639
G1 X-82.05 Y39.365 E118.27263
G1 X-82.598 Y38.889 E118.30885
G1 X-83.091 Y38.355 E118.34511
G1 X-83.521 Y37.77 E118.38133
G1 X-83.885 Y37.141 E118.41759
G1 X-84.178 Y36.476 E118.45384
G1 X-84.396 Y35.783 E118.49008
G1 X-84.536 Y35.071 E118.52629
G1 X-84.6 Y34.154 E118.57215
G1 X-84.6 Y-55.846 E123.06227
G1 X-84.56 Y-56.571 E123.09849
G1 X-84.441 Y-57.288 E123.13475
G1 X-84.243 Y-57.987 E123.171
G1 X-83.97 Y-58.66 E123.20723
G1 X-83.625 Y-59.299 E123.24346
G1 X-83.211 Y-59.896 E123.27971
G1 X-82.735 Y-60.444 E123.31592
G1 X-82.201 Y-60.937 E123.35218
G1 X-81.616 Y-61.367 E123.3884
G1 X-80.987 Y-61.731 E123.42466
G1 X-80.322 Y-62.024 E123.46091
G1 X-79.629 Y-62.242 E123.49716
G1 X-78.917 Y-62.382 E123.53336
G1 X-78 Y-62.446 E123.57922
G1 X78 Y-62.446 E131.36209
G1 X78.725 Y-62.406 E131.39832
G1 X79.442 Y-62.287 E131.43458
G1 X80.141 Y-62.089 E131.47082
G1 X80.814 Y-61.816 E131.50705
G1 X81.453 Y-61.471 E131.54328
G1 X82.05 Y-61.057 E131.57953
G1 X82.598 Y-60.581 E131.61574
G1 X83.091 Y-60.047 E131.652
G1 X83.521 Y-59.462 E131.68822
G1 X83.885 Y-58.833 E131.72448
G1 X84.178 Y-58.168 E131.76074
G1 X84.396 Y-57.475 E131.79698
G1 X84.536 Y-56.763 E131.83318
G1 X84.6 Y-55.846 E131.87904
G1 X84.6 Y34.154 E136.36916
G1 X84.56 Y34.879 E136.40539
G1 X84.441 Y35.596 E136.44165
G1 X84.243 Y36.295 E136.47789
G1 X83.97 Y36.968 E136.51412
G1 X83.625 Y37.607 E136.55035
G1 X83.211 Y38.204 E136.5866
G1 X82.735 Y38.752 E136.62281
G1 X82.201 Y39.245 E136.65907
G1 X81.616 Y39.675 E136.69529
G1 X80.987 Y40.039 E136.73155
G1 X80.322 Y40.332 E136.76781
G1 X79.629 Y40.55 E136.80405
G1 X78.917 Y40.69 E136.84025
G1 X78 Y40.754 E136.88611
G1 X68 Y40.754 E137.38501
G1 X67.275 Y40.714 E137.42124
G1 X66.558 Y40.595 E137.4575
G1 X65.859 Y40.397 E137.49375
G1 X65.186 Y40.124 E137.52998
G1 X64.547 Y39.779 E137.56621
G1 X63.95 Y39.365 E137.60245
G1 X63.402 Y38.889 E137.63867
G1 X62.909 Y38.355 E137.67493
G1 X62.479 Y37.77 E137.71115
G1 X62.115 Y37.141 E137.74741
G1 X61.822 Y36.476 E137.78366
G1 X61.604 Y35.783 E137.8199
G1 X61.464 Y35.071 E137.85611
G1 X61.4 Y34.154 E137.90197
G0 F3600 X61.8 Y34.154
G1 F1800 X61.8 Y-39.646 E141.58386
G1 X-61.8 Y-39.646 E147.75029
G1 X-61.8 Y34.154 E151.43219
G1 X-61.84 Y34.857 E151.46732
G1 X-61.959 Y35.551 E151.50245
G1 X-62.157 Y36.226 E151.53754
G1 X-62.429 Y36.875 E151.57265
G1 X-62.774 Y37.489 E151.60779
G1 X-63.185 Y38.06 E151.64289
G1 X-63.659 Y38.581 E151.67803
G1 X-64.189 Y39.045 E151.71317
G1 X-64.768 Y39.445 E151.74828
G1 X-65.389 Y39.777 E151.78341
G1 X-66.043 Y40.037 E151.81852
G1 X-66.723 Y40.221 E151.85367
G1 X-67.419 Y40.327 E151.88879
G1 X-68 Y40.354 E151.91781
G1 X-78 Y40.354 E152.41671
G1 X-78.703 Y40.314 E152.45184
G1 X-79.397 Y40.195 E152.48697
G1 X-80.072 Y39.997 E152.52207
G1 X-80.721 Y39.725 E152.55717
G1 X-81.335 Y39.38 E152.59231
G1 X-81.906 Y38.969 E152.62741
G1 X-82.427 Y38.495 E152.66255
G1 X-82.891 Y37.965 E152.69769
G1 X-83.291 Y37.386 E152.7328
G1 X-83.623 Y36.765 E152.76793
G1 X-83.883 Y36.111 E152.80305
G1 X-84.067 Y35.431 E152.83819
G1 X-84.173 Y34.735 E152.87332
G1 X-84.2 Y34.154 E152.90233
G1 X-84.2 Y-55.846 E157.39245
G1 X-84.16 Y-56.549 E157.42758
G1 X-84.041 Y-57.243 E157.46271
G1 X-83.843 Y-57.918 E157.49781
G1 X-83.571 Y-58.567 E157.53291
G1 X-83.226 Y-59.181 E157.56805
G1 X-82.815 Y-59.752 E157.60315
G1 X-82.341 Y-60.273 E157.63829
G1 X-81.811 Y-60.737 E157.67343
G1 X-81.232 Y-61.137 E157.70854
G1 X-80.611 Y-61.469 E157.74367
G1 X-79.957 Y-61.729 E157.77879
G1 X-79.277 Y-61.913 E157.81393
G1 X-78.581 Y-62.019 E157.84906
G1 X-78 Y-62.046 E157.87807
G1 X78 Y-62.046 E165.66094
G1 X78.703 Y-62.006 E165.69607
G1 X79.397 Y-61.887 E165.7312
G1 X80.072 Y-61.689 E165.7663
G1 X80.721 Y-61.417 E165.80141
G1 X81.335 Y-61.072 E165.83654
G1 X81.906 Y-60.661 E165.87164
G1 X82.427 Y-60.187 E165.90678
G1 X82.891 Y-59.657 E165.94193
G1 X83.291 Y-59.078 E165.97704
G1 X83.623 Y-58.457 E166.01217
G1 X83.883 Y-57.803 E166.04728
G1 X84.067 Y-57.123 E166.08242
G1 X84.173 Y-56.427 E166.11755
G1 X84.2 Y-55.846 E166.14657
G1 X84.2 Y34.154 E170.63668
G1 X84.16 Y34.857 E170.67181
G1 X84.041 Y35.551 E170.70694
G1 X83.843 Y36.226 E170.74204
G1 X83.571 Y36.875 E170.77714
G1 X83.226 Y37.489 E170.81228
G1 X82.815 Y38.06 E170.84738
G1 X82.341 Y38.581 E170.88252
G1 X81.811 Y39.045 E170.91767
G1 X81.232 Y39.445 E170.95277
G1 X80.611 Y39.777 E170.98791
G1 X79.957 Y40.037 E171.02302
G1 X79.277 Y40.221 E171.05816
G1 X78.581 Y40.327 E171.09329
G1 X78 Y40.354 E171.1223
G1 X68 Y40.354 E171.62121
G1 X67.297 Y40.314 E171.65634
G1 X66.603 Y40.195 E171.69147
G1 X65.928 Y39.997 E171.72656
G1 X65.279 Y39.725 E171.76167
G1 X64.665 Y39.38 E171.7968
G1 X64.094 Y38.969 E171.8319
G1 X63.573 Y38.495 E171.86704
G1 X63.109 Y37.965 E171.90219
G1 X62.709 Y37.386 E171.9373
G1 X62.377 Y36.765 E171.97243
G1 X62.117 Y36.111 E172.00754
G1 X61.933 Y35.431 E172.04269
G1 X61.827 Y34.735 E172.07781
G1 X61.8 Y34.154 E172.10683
G0 F3600 X62.2 Y34.154
G1 F1800 X62.2 Y-40.046 E175.80868
G1 X-62.2 Y-40.046 E182.01502
G1 X-62.2 Y34.154 E185.71688
G1 X-62.24 Y34.834 E185.75086
G1 X-62.359 Y35.504 E185.78481
G1 X-62.556 Y36.156 E185.81879
G1 X-62.828 Y36.78 E185.85275
G1 X-63.172 Y37.368 E185.88674
G1 X-63.582 Y37.912 E185.92072
G1 X-64.053 Y38.403 E185.95467
G1 X-64.578 Y38.837 E185.98865
G1 X-65.15 Y39.206 E186.02261
G1 X-65.762 Y39.505 E186.05659
G1 X-66.404 Y39.73 E186.09053
G1 X-67.069 Y39.879 E186.12453
G1 X-68 Y39.954 E186.17113
G1 X-78 Y39.954 E186.67003
G1 X-78.68 Y39.914 E186.70402
G1 X-79.35 Y39.795 E186.73797
G1 X-80.002 Y39.598 E186.77195
G1 X-80.626 Y39.326 E186.80591
G1 X-81.214 Y38.982 E186.83989
G1 X-81.758 Y38.572 E186.87388
G1 X-82.249 Y38.101 E186.90782
G1 X-82.683 Y37.576 E186.94181
G1 X-83.052 Y37.004 E186.97577
G1 X-83.351 Y36.392 E187.00975
G1 X-83.576 Y35.75 E187.04369
G1 X-83.725 Y35.085 E187.07769
G1 X-83.8 Y34.154 E187.12429
G1 X-83.8 Y-55.846 E191.6144
G1 X-83.76 Y-56.526 E191.64839
G1 X-83.641 Y-57.196 E191.68234
G1 X-83.444 Y-57.848 E191.71632
