;FLAVOR:Marlin
;TIME:14125
;Filament used: 20.2437m
;Layer height: 0.3
;MINX:-76.706
;MINY:-92.626
;MINZ:0.3
;MAXX:76.917
;MAXY:84.922
;MAXZ:19.8
;Generated with Cura_SteamEngine 4.7.1
M140 S50
M105
M190 S50
M104 S250
M105
M109 S250
M82 ;absolute extrusion mode
G28 ;Home
G1 Z15.0 F6000 ;Move the platform down 15mm
;Prime the extruder
G92 E0
G1 F200 E3
G92 E0
G92 E0
G92 E0
G1 F1500 E-6.5
;LAYER_COUNT:66
;LAYER:0
M107
G0 F3600 X51.083 Y15.456 Z0.3
;TYPE:SKIRT
G1 F1500 E0
G1 F1800 X51.275 Y-66.744 E4.10099
G1 X-53.942 Y-66.991 E9.3503
G1 X-53.693 Y-66.798 E9.36602
G1 X-53.12 Y-66.255 E9.4054
G1 X-52.605 Y-65.656 E9.44481
G1 X-52.154 Y-65.008 E9.4842
G1 X-51.77 Y-64.317 E9.52364
G1 X-51.458 Y-63.592 E9.56302
G1 X-51.221 Y-62.839 E9.6024
G1 X-51.062 Y-62.065 E9.64182
G1 X-50.981 Y-61.28 E9.68119
G1 X-50.971 Y-60.878 E9.70125
G1 X-50.971 Y59.322 E15.69806
G1 X31.229 Y59.322 E19.79903
G1 X32.018 Y59.362 E19.83845
G1 X32.798 Y59.481 E19.87781
G1 X33.563 Y59.679 E19.91723
G1 X34.303 Y59.953 E19.9566
G1 X35.012 Y60.301 E19.99601
G1 X35.683 Y60.719 E20.03545
G1 X36.307 Y61.202 E20.07481
G1 X36.88 Y61.745 E20.1142
G1 X37.395 Y62.344 E20.15361
G1 X37.846 Y62.992 E20.193
G1 X38.23 Y63.683 E20.23244
G1 X38.542 Y64.408 E20.27181
G1 X38.779 Y65.161 E20.3112
G1 X38.938 Y65.935 E20.35062
G1 X39.019 Y66.72 E20.38999
G1 X39.029 Y67.122 E20.41005
G1 X39.029 Y77.122 E20.90896
G1 X38.989 Y77.911 E20.94837
G1 X38.87 Y78.691 E20.98773
G1 X38.672 Y79.456 E21.02716
G1 X38.398 Y80.196 E21.06653
G1 X38.05 Y80.905 E21.10593
G1 X37.632 Y81.576 E21.14537
G1 X37.149 Y82.2 E21.18474
G1 X36.606 Y82.773 E21.22412
G1 X36.007 Y83.288 E21.26353
G1 X35.359 Y83.739 E21.30292
G1 X34.668 Y84.123 E21.34236
G1 X33.943 Y84.435 E21.38174
G1 X33.19 Y84.672 E21.42112
G1 X32.416 Y84.831 E21.46054
G1 X31.631 Y84.912 E21.49992
G1 X31.229 Y84.922 E21.51998
G1 X-68.771 Y84.922 E26.509
G1 X-69.56 Y84.882 E26.54841
G1 X-70.34 Y84.763 E26.58778
G1 X-71.105 Y84.565 E26.6272
G1 X-71.845 Y84.291 E26.66657
G1 X-72.554 Y83.943 E26.70597
G1 X-73.225 Y83.525 E26.74541
G1 X-73.849 Y83.042 E26.78478
G1 X-74.422 Y82.499 E26.82416
G1 X-74.937 Y81.9 E26.86358
G1 X-75.388 Y81.252 E26.90296
G1 X-75.772 Y80.561 E26.9424
G1 X-76.084 Y79.836 E26.98178
G1 X-76.321 Y79.083 E27.02117
G1 X-76.48 Y78.309 E27.06059
G1 X-76.561 Y77.524 E27.09996
G1 X-76.571 Y77.122 E27.12002
G1 X-76.571 Y-60.878 E34.00487
G1 X-76.531 Y-61.667 E34.04428
G1 X-76.412 Y-62.447 E34.08365
G1 X-76.214 Y-63.212 E34.12307
G1 X-75.94 Y-63.952 E34.16244
G1 X-75.592 Y-64.661 E34.20184
G1 X-75.174 Y-65.332 E34.24128
G1 X-74.691 Y-65.956 E34.28065
G1 X-74.148 Y-66.529 E34.32003
G1 X-73.549 Y-67.044 E34.35945
G1 X-72.901 Y-67.495 E34.39883
G1 X-72.314 Y-67.821 E34.43233
G1 X-72.705 Y-68.014 E34.45409
G1 X-73.375 Y-68.433 E34.49351
G1 X-73.998 Y-68.918 E34.5329
G1 X-74.57 Y-69.463 E34.57232
G1 X-75.083 Y-70.063 E34.6117
G1 X-75.533 Y-70.712 E34.6511
G1 X-75.915 Y-71.403 E34.69049
G1 X-76.225 Y-72.129 E34.72988
G1 X-76.46 Y-72.883 E34.76928
G1 X-76.618 Y-73.657 E34.80869
G1 X-76.697 Y-74.443 E34.8481
G1 X-76.706 Y-74.844 E34.86811
G1 X-76.683 Y-84.844 E35.36702
G1 X-76.641 Y-85.633 E35.40644
G1 X-76.52 Y-86.413 E35.44582
G1 X-76.32 Y-87.177 E35.48522
G1 X-76.044 Y-87.917 E35.52462
G1 X-75.695 Y-88.625 E35.564
G1 X-75.276 Y-89.294 E35.60338
G1 X-74.792 Y-89.918 E35.64278
G1 X-74.247 Y-90.489 E35.68216
G1 X-73.646 Y-91.003 E35.72161
G1 X-72.997 Y-91.453 E35.76102
G1 X-72.306 Y-91.835 E35.80041
G1 X-71.58 Y-92.145 E35.83979
G1 X-70.826 Y-92.38 E35.87919
G1 X-70.053 Y-92.538 E35.91856
G1 X-69.267 Y-92.617 E35.95797
G1 X-68.865 Y-92.626 E35.97803
G1 X57.214 Y-92.331 E42.26815
G1 X69.135 Y-92.302 E42.86289
G1 X69.924 Y-92.26 E42.90231
G1 X70.704 Y-92.139 E42.94169
G1 X71.468 Y-91.939 E42.98109
G1 X72.208 Y-91.663 E43.0205
G1 X72.916 Y-91.314 E43.05988
G1 X73.586 Y-90.895 E43.0993
G1 X74.209 Y-90.41 E43.13869
G1 X74.78 Y-89.865 E43.17807
G1 X75.294 Y-89.265 E43.21749
G1 X75.744 Y-88.616 E43.25689
G1 X76.126 Y-87.925 E43.29628
G1 X76.436 Y-87.199 E43.33566
G1 X76.671 Y-86.445 E43.37507
G1 X76.829 Y-85.671 E43.41448
G1 X76.908 Y-84.885 E43.45389
G1 X76.917 Y-84.484 E43.4739
G1 X76.684 Y15.364 E48.45535
G1 X76.683 Y15.549 E48.46458
G1 X76.638 Y16.337 E48.50396
G1 X76.513 Y17.117 E48.54337
G1 X76.31 Y17.88 E48.58276
G1 X76.031 Y18.619 E48.62217
G1 X75.679 Y19.326 E48.66157
G1 X75.257 Y19.993 E48.70095
G1 X74.77 Y20.614 E48.74032
G1 X74.222 Y21.183 E48.77973
G1 X73.62 Y21.694 E48.81913
G1 X72.969 Y22.141 E48.85853
G1 X72.276 Y22.52 E48.89793
G1 X71.548 Y22.827 E48.93735
G1 X70.794 Y23.059 E48.97671
G1 X70.019 Y23.214 E49.01614
G1 X68.865 Y23.297 E49.07386
G1 X58.865 Y23.274 E49.57276
G1 X58.076 Y23.232 E49.61218
G1 X57.296 Y23.111 E49.65156
G1 X56.532 Y22.911 E49.69096
G1 X55.792 Y22.635 E49.73037
G1 X55.084 Y22.286 E49.76975
G1 X54.415 Y21.867 E49.80913
G1 X53.791 Y21.383 E49.84853
G1 X53.22 Y20.838 E49.88791
G1 X52.706 Y20.237 E49.92736
G1 X52.256 Y19.588 E49.96676
G1 X51.874 Y18.897 E50.00615
G1 X51.564 Y18.171 E50.04554
G1 X51.329 Y17.417 E50.08494
G1 X51.171 Y16.644 E50.1243
G1 X51.092 Y15.858 E50.16371
G1 X51.083 Y15.456 E50.18377
G0 F3600 X51.483 Y15.457
G1 F1800 X51.676 Y-67.143 E54.30472
G1 X-55.281 Y-67.394 E59.64084
G1 X-55.095 Y-67.3 E59.65124
G1 X-54.448 Y-66.884 E59.68961
G1 X-53.848 Y-66.403 E59.72798
G1 X-53.301 Y-65.862 E59.76636
G1 X-52.813 Y-65.267 E59.80475
G1 X-52.39 Y-64.625 E59.84311
G1 X-52.035 Y-63.942 E59.88151
G1 X-51.754 Y-63.227 E59.91984
G1 X-51.548 Y-62.485 E59.95826
G1 X-51.42 Y-61.727 E59.99661
G1 X-51.371 Y-60.878 E60.03904
G1 X-51.371 Y59.722 E66.05579
G1 X31.229 Y59.722 E70.17673
G1 X31.997 Y59.762 E70.21509
G1 X32.757 Y59.881 E70.25347
G1 X33.5 Y60.079 E70.29183
G1 X34.219 Y60.353 E70.33022
G1 X34.905 Y60.7 E70.36858
G1 X35.552 Y61.116 E70.40695
G1 X36.152 Y61.597 E70.44532
G1 X36.699 Y62.138 E70.4837
G1 X37.187 Y62.733 E70.52209
G1 X37.61 Y63.375 E70.56045
G1 X37.965 Y64.058 E70.59885
G1 X38.246 Y64.773 E70.63718
G1 X38.452 Y65.515 E70.6756
G1 X38.58 Y66.273 E70.71395
G1 X38.629 Y67.122 E70.75638
G1 X38.629 Y77.122 E71.25528
G1 X38.589 Y77.89 E71.29365
G1 X38.47 Y78.65 E71.33202
G1 X38.272 Y79.393 E71.37039
G1 X37.998 Y80.112 E71.40877
G1 X37.651 Y80.798 E71.44713
G1 X37.235 Y81.445 E71.4855
G1 X36.754 Y82.045 E71.52387
G1 X36.213 Y82.592 E71.56225
G1 X35.618 Y83.08 E71.60064
G1 X34.976 Y83.503 E71.639
G1 X34.293 Y83.858 E71.6774
G1 X33.578 Y84.139 E71.71573
G1 X32.836 Y84.345 E71.75415
G1 X32.078 Y84.473 E71.7925
G1 X31.229 Y84.522 E71.83493
G1 X-68.771 Y84.522 E76.82395
G1 X-69.539 Y84.482 E76.86232
G1 X-70.299 Y84.363 E76.90069
G1 X-71.042 Y84.165 E76.93906
G1 X-71.761 Y83.891 E76.97744
G1 X-72.447 Y83.544 E77.0158
G1 X-73.094 Y83.128 E77.05417
G1 X-73.694 Y82.647 E77.09254
G1 X-74.241 Y82.106 E77.13092
G1 X-74.729 Y81.511 E77.16931
G1 X-75.152 Y80.869 E77.20767
G1 X-75.507 Y80.186 E77.24607
G1 X-75.788 Y79.471 E77.2844
G1 X-75.994 Y78.729 E77.32282
G1 X-76.122 Y77.971 E77.36117
G1 X-76.171 Y77.122 E77.4036
G1 X-76.171 Y-60.878 E84.28845
G1 X-76.131 Y-61.646 E84.32681
G1 X-76.012 Y-62.406 E84.36519
G1 X-75.814 Y-63.149 E84.40356
G1 X-75.54 Y-63.868 E84.44194
G1 X-75.193 Y-64.554 E84.4803
G1 X-74.777 Y-65.201 E84.51867
G1 X-74.296 Y-65.801 E84.55704
G1 X-73.755 Y-66.348 E84.59542
G1 X-73.16 Y-66.836 E84.63381
G1 X-72.518 Y-67.259 E84.67217
G1 X-71.835 Y-67.614 E84.71057
G1 X-71.293 Y-67.827 E84.73963
G1 X-71.912 Y-68.064 E84.77269
G1 X-72.598 Y-68.413 E84.81109
G1 X-73.243 Y-68.83 E84.84941
G1 X-73.842 Y-69.313 E84.8878
G1 X-74.388 Y-69.855 E84.92618
G1 X-74.874 Y-70.451 E84.96455
G1 X-75.296 Y-71.094 E85.00292
G1 X-75.649 Y-71.778 E85.04132
G1 X-75.929 Y-72.494 E85.07968
G1 X-76.133 Y-73.235 E85.11802
G1 X-76.259 Y-73.994 E85.15641
G1 X-76.306 Y-74.843 E85.19883
G1 X-76.283 Y-84.843 E85.69773
G1 X-76.241 Y-85.611 E85.73611
G1 X-76.12 Y-86.371 E85.7745
G1 X-75.921 Y-87.113 E85.81283
G1 X-75.645 Y-87.832 E85.85125
G1 X-75.297 Y-88.517 E85.88958
G1 X-74.879 Y-89.163 E85.92797
G1 X-74.396 Y-89.762 E85.96636
G1 X-73.854 Y-90.308 E86.00474
G1 X-73.258 Y-90.794 E86.04311
G1 X-72.615 Y-91.216 E86.08148
G1 X-71.932 Y-91.569 E86.11984
G1 X-71.215 Y-91.849 E86.15824
G1 X-70.474 Y-92.053 E86.19658
G1 X-69.715 Y-92.179 E86.23497
G1 X-68.866 Y-92.226 E86.27739
G1 X57.213 Y-91.931 E92.56751
G1 X69.134 Y-91.902 E93.16226
G1 X69.902 Y-91.86 E93.20063
G1 X70.662 Y-91.739 E93.23902
G1 X71.405 Y-91.539 E93.27741
G1 X72.123 Y-91.264 E93.31577
G1 X72.809 Y-90.915 E93.35417
G1 X73.454 Y-90.498 E93.39249
G1 X74.053 Y-90.015 E93.43088
G1 X74.599 Y-89.473 E93.46926
G1 X75.085 Y-88.877 E93.50763
G1 X75.507 Y-88.234 E93.546
G1 X75.86 Y-87.55 E93.5844
G1 X76.14 Y-86.834 E93.62275
G1 X76.344 Y-86.093 E93.6611
G1 X76.47 Y-85.334 E93.69948
G1 X76.517 Y-84.485 E93.7419
G1 X76.284 Y15.363 E98.72336
G1 X76.283 Y15.546 E98.73249
G1 X76.238 Y16.314 E98.77087
G1 X76.113 Y17.073 E98.80924
G1 X75.911 Y17.815 E98.84761
G1 X75.632 Y18.532 E98.88599
G1 X75.281 Y19.216 E98.92435
G1 X74.86 Y19.86 E98.96273
G1 X74.375 Y20.457 E99.00111
G1 X73.83 Y21 E99.03949
G1 X73.232 Y21.484 E99.07787
G1 X72.588 Y21.903 E99.1162
G1 X71.903 Y22.253 E99.15458
G1 X71.185 Y22.53 E99.19298
G1 X70.443 Y22.731 E99.23133
G1 X69.683 Y22.854 E99.26974
G1 X68.866 Y22.897 E99.31056
G1 X58.866 Y22.874 E99.80946
G1 X58.098 Y22.832 E99.84783
G1 X57.338 Y22.711 E99.88623
G1 X56.596 Y22.512 E99.92455
G1 X55.877 Y22.236 E99.96298
G1 X55.192 Y21.888 E100.00131
G1 X54.546 Y21.47 E100.0397
G1 X53.947 Y20.987 E100.07808
G1 X53.401 Y20.445 E100.11647
G1 X52.915 Y19.849 E100.15483
G1 X52.493 Y19.206 E100.19321
G1 X52.14 Y18.523 E100.23156
G1 X51.86 Y17.806 E100.26996
G1 X51.656 Y17.065 E100.30831
G1 X51.53 Y16.306 E100.34669
G1 X51.483 Y15.457 E100.38911
G0 F3600 X51.883 Y15.458
G1 F1800 X52.076 Y-67.542 E104.53001
G1 X-57.788 Y-67.8 E110.01117
G1 X-57.286 Y-67.719 E110.03653
G1 X-56.564 Y-67.521 E110.07388
G1 X-55.868 Y-67.248 E110.11118
G1 X-55.205 Y-66.901 E110.14852
G1 X-54.582 Y-66.486 E110.18586
G1 X-54.008 Y-66.007 E110.22316
G1 X-53.487 Y-65.47 E110.26049
G1 X-53.028 Y-64.88 E110.29778
G1 X-52.633 Y-64.244 E110.33514
G1 X-52.309 Y-63.57 E110.37245
G1 X-52.059 Y-62.865 E110.40976
G1 X-51.885 Y-62.137 E110.44711
G1 X-51.79 Y-61.395 E110.48443
G1 X-51.771 Y-60.878 E110.51024
G1 X-51.771 Y60.122 E116.54695
G1 X31.229 Y60.122 E120.68784
G1 X31.976 Y60.162 E120.72516
G1 X32.714 Y60.281 E120.76246
G1 X33.436 Y60.479 E120.79981
G1 X34.132 Y60.752 E120.83711
G1 X34.795 Y61.099 E120.87444
G1 X35.418 Y61.514 E120.91179
G1 X35.992 Y61.993 E120.94908
G1 X36.513 Y62.53 E120.98641
G1 X36.972 Y63.12 E121.02371
G1 X37.367 Y63.756 E121.06106
G1 X37.691 Y64.43 E121.09837
G1 X37.941 Y65.135 E121.13569
G1 X38.115 Y65.863 E121.17303
G1 X38.21 Y66.605 E121.21035
G1 X38.229 Y67.122 E121.23616
G1 X38.229 Y77.122 E121.73506
G1 X38.189 Y77.869 E121.77238
G1 X38.07 Y78.607 E121.80968
G1 X37.872 Y79.329 E121.84703
G1 X37.599 Y80.025 E121.88433
G1 X37.252 Y80.688 E121.92166
G1 X36.837 Y81.311 E121.95901
G1 X36.358 Y81.885 E121.99631
G1 X35.821 Y82.406 E122.03363
G1 X35.231 Y82.865 E122.07093
G1 X34.595 Y83.26 E122.10828
G1 X33.921 Y83.584 E122.14559
G1 X33.216 Y83.834 E122.18291
G1 X32.488 Y84.008 E122.22025
G1 X31.746 Y84.103 E122.25757
G1 X31.229 Y84.122 E122.28338
G1 X-68.771 Y84.122 E127.2724
G1 X-69.518 Y84.082 E127.30972
G1 X-70.256 Y83.963 E127.34702
G1 X-70.978 Y83.765 E127.38437
G1 X-71.674 Y83.492 E127.42167
G1 X-72.337 Y83.145 E127.459
G1 X-72.96 Y82.73 E127.49635
G1 X-73.534 Y82.251 E127.53365
G1 X-74.055 Y81.714 E127.57097
G1 X-74.514 Y81.124 E127.60827
G1 X-74.909 Y80.488 E127.64562
G1 X-75.233 Y79.814 E127.68293
G1 X-75.483 Y79.109 E127.72025
G1 X-75.657 Y78.381 E127.75759
G1 X-75.752 Y77.639 E127.79491
G1 X-75.771 Y77.122 E127.82072
G1 X-75.771 Y-60.878 E134.70557
G1 X-75.731 Y-61.625 E134.74289
G1 X-75.612 Y-62.363 E134.78019
G1 X-75.414 Y-63.085 E134.81754
G1 X-75.141 Y-63.781 E134.85484
G1 X-74.794 Y-64.444 E134.89217
G1 X-74.379 Y-65.067 E134.92952
G1 X-73.9 Y-65.641 E134.96681
G1 X-73.363 Y-66.162 E135.00414
G1 X-72.773 Y-66.621 E135.04144
G1 X-72.137 Y-67.016 E135.07879
G1 X-71.463 Y-67.34 E135.1161
G1 X-70.758 Y-67.59 E135.15342
G1 X-70.03 Y-67.764 E135.19076
G1 X-69.355 Y-67.85 E135.22471
G1 X-69.669 Y-67.868 E135.2404
G1 X-70.407 Y-67.989 E135.27771
G1 X-71.129 Y-68.188 E135.31507
G1 X-71.824 Y-68.463 E135.35236
G1 X-72.487 Y-68.811 E135.38972
G1 X-73.108 Y-69.227 E135.42701
G1 X-73.681 Y-69.708 E135.46433
G1 X-74.2 Y-70.247 E135.50166
G1 X-74.659 Y-70.838 E135.539
G1 X-75.051 Y-71.474 E135.57627
G1 X-75.374 Y-72.149 E135.6136
G1 X-75.623 Y-72.855 E135.65095
G1 X-75.795 Y-73.583 E135.68827
G1 X-75.888 Y-74.325 E135.72558
G1 X-75.906 Y-74.842 E135.75139
G1 X-75.883 Y-84.842 E136.25029
G1 X-75.841 Y-85.589 E136.28762
G1 X-75.72 Y-86.327 E136.32493
G1 X-75.521 Y-87.048 E136.36225
G1 X-75.246 Y-87.744 E136.39958
G1 X-74.898 Y-88.406 E136.43689
G1 X-74.482 Y-89.028 E136.47423
G1 X-74.001 Y-89.601 E136.51155
G1 X-73.463 Y-90.12 E136.54885
G1 X-72.871 Y-90.579 E136.58622
G1 X-72.235 Y-90.971 E136.62349
G1 X-71.56 Y-91.294 E136.66082
G1 X-70.854 Y-91.543 E136.69817
G1 X-70.126 Y-91.715 E136.73549
G1 X-69.384 Y-91.808 E136.7728
G1 X-68.867 Y-91.826 E136.79861
G1 X57.212 Y-91.531 E143.08873
G1 X69.133 Y-91.502 E143.68348
G1 X69.88 Y-91.46 E143.7208
G1 X70.618 Y-91.339 E143.75811
G1 X71.339 Y-91.14 E143.79543
G1 X72.035 Y-90.865 E143.83277
G1 X72.697 Y-90.517 E143.87008
G1 X73.319 Y-90.101 E143.90741
G1 X73.892 Y-89.62 E143.94473
G1 X74.411 Y-89.081 E143.98207
G1 X74.87 Y-88.49 E144.0194
G1 X75.262 Y-87.854 E144.05667
G1 X75.585 Y-87.179 E144.094
G1 X75.834 Y-86.473 E144.13135
G1 X76.006 Y-85.745 E144.16867
G1 X76.099 Y-85.003 E144.20598
G1 X76.117 Y-84.486 E144.23179
G1 X75.884 Y15.362 E149.21324
G1 X75.883 Y15.543 E149.22227
G1 X75.838 Y16.29 E149.25961
G1 X75.714 Y17.028 E149.29694
G1 X75.511 Y17.748 E149.33426
G1 X75.233 Y18.442 E149.37156
G1 X74.883 Y19.103 E149.40888
G1 X74.464 Y19.723 E149.44621
G1 X73.981 Y20.294 E149.48352
G1 X73.44 Y20.811 E149.52086
G1 X72.847 Y21.267 E149.55818
G1 X72.208 Y21.657 E149.59552
G1 X71.532 Y21.976 E149.63282
G1 X70.825 Y22.222 E149.67016
G1 X70.097 Y22.391 E149.70745
G1 X69.354 Y22.481 E149.74479
G1 X68.867 Y22.497 E149.7691
G1 X58.867 Y22.474 E150.268
G1 X58.12 Y22.432 E150.30533
G1 X57.382 Y22.311 E150.34264
G1 X56.661 Y22.112 E150.37995
G1 X55.965 Y21.837 E150.41729
G1 X55.303 Y21.489 E150.4546
G1 X54.681 Y21.073 E150.49194
G1 X54.108 Y20.592 E150.52926
G1 X53.589 Y20.054 E150.56655
G1 X53.13 Y19.462 E150.60393
G1 X52.738 Y18.826 E150.6412
G1 X52.415 Y18.151 E150.67853
G1 X52.166 Y17.445 E150.71588
G1 X51.994 Y16.717 E150.7532
G1 X51.901 Y15.975 E150.79051
G1 X51.883 Y15.458 E150.81632
G0 F3600 X52.283 Y15.459
G1 F1800 X52.477 Y-67.941 E154.97717
G1 X-68.921 Y-68.226 E161.03376
G1 X-69.647 Y-68.268 E161.07004
G1 X-70.363 Y-68.389 E161.10627
G1 X-71.061 Y-68.588 E161.14248
G1 X-71.734 Y-68.862 E161.17873
G1 X-72.372 Y-69.209 E161.21497
G1 X-72.968 Y-69.624 E161.2512
G1 X-73.515 Y-70.102 E161.28744
G1 X-74.006 Y-70.637 E161.32367
G1 X-74.436 Y-71.223 E161.35993
G1 X-74.798 Y-71.853 E161.39618
G1 X-75.089 Y-72.518 E161.43239
G1 X-75.305 Y-73.211 E161.46861
G1 X-75.444 Y-73.925 E161.5049
G1 X-75.506 Y-74.841 E161.5507
G1 X-75.483 Y-84.841 E162.04961
G1 X-75.441 Y-85.566 E162.08584
G1 X-75.32 Y-86.283 E162.12211
G1 X-75.121 Y-86.981 E162.15833
G1 X-74.847 Y-87.654 E162.19458
G1 X-74.5 Y-88.292 E162.23081
G1 X-74.085 Y-88.888 E162.26704
G1 X-73.607 Y-89.435 E162.30329
G1 X-73.072 Y-89.926 E162.33951
G1 X-72.486 Y-90.356 E162.37578
G1 X-71.857 Y-90.718 E162.41198
G1 X-71.191 Y-91.009 E162.44824
G1 X-70.498 Y-91.225 E162.48446
G1 X-69.785 Y-91.364 E162.5207
G1 X-68.868 Y-91.426 E162.56655
G1 X57.211 Y-91.131 E168.85668
G1 X69.132 Y-91.102 E169.45142
G1 X69.858 Y-91.06 E169.4877
G1 X70.574 Y-90.939 E169.52393
G1 X71.272 Y-90.74 E169.56014
G1 X71.945 Y-90.466 E169.59639
G1 X72.583 Y-90.119 E169.63262
G1 X73.179 Y-89.704 E169.66886
G1 X73.726 Y-89.226 E169.7051
G1 X74.217 Y-88.691 E169.74133
G1 X74.647 Y-88.105 E169.77759
