;FLAVOR:Marlin
;TIME:6697
;Filament used: 9.31361m
;Layer height: 0.3
;MINX:-62.8
;MINY:-55.3
;MINZ:0.3
;MAXX:62.8
;MAXY:55.3
;MAXZ:3.9
;Generated with Cura_SteamEngine 4.7.1
M140 S50
M105
M190 S50
M104 S250
M105
M109 S250
M82 ;absolute extrusion mode
G28 ;Home
G1 Z15.0 F6000 ;Move the platform down 15mm
;Prime the extruder
G92 E0
G1 F200 E3
G92 E0
G92 E0
G92 E0
G1 F1500 E-6.5
;LAYER_COUNT:13
;LAYER:0
M107
G0 F3600 X27.8 Y40.3 Z0.3
;TYPE:SKIRT
G1 F1500 E0
G1 F1800 X27.8 Y47.5 E0.35921
G1 X27.76 Y48.289 E0.39862
G1 X27.641 Y49.069 E0.43799
G1 X27.443 Y49.834 E0.47741
G1 X27.169 Y50.574 E0.51678
G1 X26.821 Y51.283 E0.55618
G1 X26.403 Y51.954 E0.59562
G1 X25.92 Y52.578 E0.63499
G1 X25.377 Y53.151 E0.67438
G1 X24.778 Y53.666 E0.71379
G1 X24.13 Y54.117 E0.75317
G1 X23.439 Y54.501 E0.79261
G1 X22.714 Y54.813 E0.83199
G1 X21.961 Y55.05 E0.87138
G1 X21.187 Y55.209 E0.9108
G1 X20.402 Y55.29 E0.95017
G1 X20 Y55.3 E0.97023
G1 X-20 Y55.3 E2.96584
G1 X-20.789 Y55.26 E3.00525
G1 X-21.569 Y55.141 E3.04462
G1 X-22.334 Y54.943 E3.08404
G1 X-23.074 Y54.669 E3.12341
G1 X-23.783 Y54.321 E3.16281
G1 X-24.454 Y53.903 E3.20225
G1 X-25.078 Y53.42 E3.24162
G1 X-25.651 Y52.877 E3.28101
G1 X-26.166 Y52.278 E3.32042
G1 X-26.617 Y51.63 E3.35981
G1 X-27.001 Y50.939 E3.39924
G1 X-27.313 Y50.214 E3.43862
G1 X-27.55 Y49.461 E3.47801
G1 X-27.709 Y48.687 E3.51743
G1 X-27.79 Y47.902 E3.5568
G1 X-27.8 Y47.5 E3.57686
G1 X-27.8 Y40.3 E3.93607
G1 X-40 Y40.3 E4.54473
G1 X-40.789 Y40.26 E4.58415
G1 X-41.569 Y40.141 E4.62351
G1 X-42.334 Y39.943 E4.66293
G1 X-43.074 Y39.669 E4.7023
G1 X-43.783 Y39.321 E4.74171
G1 X-44.454 Y38.903 E4.78115
G1 X-45.078 Y38.42 E4.82051
G1 X-45.651 Y37.877 E4.8599
G1 X-46.166 Y37.278 E4.89931
G1 X-46.617 Y36.63 E4.9387
G1 X-47.001 Y35.939 E4.97814
G1 X-47.313 Y35.214 E5.01751
G1 X-47.55 Y34.461 E5.0569
G1 X-47.583 Y34.3 E5.0651
G1 X-55 Y34.3 E5.43513
G1 X-55.789 Y34.26 E5.47455
G1 X-56.569 Y34.141 E5.51391
G1 X-57.334 Y33.943 E5.55334
G1 X-58.074 Y33.669 E5.5927
G1 X-58.783 Y33.321 E5.63211
G1 X-59.454 Y32.903 E5.67155
G1 X-60.078 Y32.42 E5.71092
G1 X-60.651 Y31.877 E5.7503
G1 X-61.166 Y31.278 E5.78971
G1 X-61.617 Y30.63 E5.8291
G1 X-62.001 Y29.939 E5.86854
G1 X-62.313 Y29.214 E5.90792
G1 X-62.55 Y28.461 E5.9473
G1 X-62.709 Y27.687 E5.98672
G1 X-62.79 Y26.902 E6.02609
G1 X-62.8 Y26.5 E6.04616
G1 X-62.8 Y-41.5 E9.43869
G1 X-62.76 Y-42.289 E9.4781
G1 X-62.641 Y-43.069 E9.51747
G1 X-62.443 Y-43.834 E9.55689
G1 X-62.169 Y-44.574 E9.59626
G1 X-61.821 Y-45.283 E9.63566
G1 X-61.403 Y-45.954 E9.6751
G1 X-60.92 Y-46.578 E9.71447
G1 X-60.377 Y-47.151 E9.75386
G1 X-59.778 Y-47.666 E9.79327
G1 X-59.13 Y-48.117 E9.83265
G1 X-58.439 Y-48.501 E9.87209
G1 X-57.714 Y-48.813 E9.91147
G1 X-56.961 Y-49.05 E9.95086
G1 X-56.187 Y-49.209 E9.99028
G1 X-55.402 Y-49.29 E10.02965
G1 X-55 Y-49.3 E10.04971
G1 X-47.581 Y-49.3 E10.41985
G1 X-47.443 Y-49.834 E10.44736
G1 X-47.169 Y-50.574 E10.48673
G1 X-46.821 Y-51.283 E10.52613
G1 X-46.403 Y-51.954 E10.56558
G1 X-45.92 Y-52.578 E10.60494
G1 X-45.377 Y-53.151 E10.64433
G1 X-44.778 Y-53.666 E10.68374
G1 X-44.13 Y-54.117 E10.72313
G1 X-43.439 Y-54.501 E10.76257
G1 X-42.714 Y-54.813 E10.80194
G1 X-41.961 Y-55.05 E10.84133
G1 X-41.187 Y-55.209 E10.88075
G1 X-40.402 Y-55.29 E10.92012
G1 X-40 Y-55.3 E10.94018
G1 X40 Y-55.3 E14.9314
G1 X40.789 Y-55.26 E14.97081
G1 X41.569 Y-55.141 E15.01018
G1 X42.334 Y-54.943 E15.0496
G1 X43.074 Y-54.669 E15.08897
G1 X43.783 Y-54.321 E15.12837
G1 X44.454 Y-53.903 E15.16781
G1 X45.078 Y-53.42 E15.20718
G1 X45.651 Y-52.877 E15.24657
G1 X46.166 Y-52.278 E15.28598
G1 X46.617 Y-51.63 E15.32536
G1 X47.001 Y-50.939 E15.3648
G1 X47.313 Y-50.214 E15.40418
G1 X47.55 Y-49.461 E15.44357
G1 X47.583 Y-49.3 E15.45177
G1 X55 Y-49.3 E15.8218
G1 X55.789 Y-49.26 E15.86121
G1 X56.569 Y-49.141 E15.90058
G1 X57.334 Y-48.943 E15.94
G1 X58.074 Y-48.669 E15.97937
G1 X58.783 Y-48.321 E16.01877
G1 X59.454 Y-47.903 E16.05822
G1 X60.078 Y-47.42 E16.09758
G1 X60.651 Y-46.877 E16.13697
G1 X61.166 Y-46.278 E16.17638
G1 X61.617 Y-45.63 E16.21577
G1 X62.001 Y-44.939 E16.25521
G1 X62.313 Y-44.214 E16.29458
G1 X62.55 Y-43.461 E16.33397
G1 X62.709 Y-42.687 E16.37339
G1 X62.79 Y-41.902 E16.41276
G1 X62.8 Y-41.5 E16.43282
G1 X62.8 Y26.5 E19.82536
G1 X62.76 Y27.289 E19.86477
G1 X62.641 Y28.069 E19.90414
G1 X62.443 Y28.834 E19.94356
G1 X62.169 Y29.574 E19.98293
G1 X61.821 Y30.283 E20.02233
G1 X61.403 Y30.954 E20.06177
G1 X60.92 Y31.578 E20.10114
G1 X60.377 Y32.151 E20.14052
G1 X59.778 Y32.666 E20.17993
G1 X59.13 Y33.117 E20.21932
G1 X58.439 Y33.501 E20.25876
G1 X57.714 Y33.813 E20.29814
G1 X56.961 Y34.05 E20.33752
G1 X56.187 Y34.209 E20.37694
G1 X55.402 Y34.29 E20.41632
G1 X55 Y34.3 E20.43638
G1 X46.581 Y34.3 E20.8564
G1 X46.443 Y34.834 E20.88392
G1 X46.169 Y35.574 E20.92329
G1 X45.821 Y36.283 E20.96269
G1 X45.403 Y36.954 E21.00213
G1 X44.92 Y37.578 E21.0415
G1 X44.377 Y38.151 E21.08089
G1 X43.778 Y38.666 E21.1203
G1 X43.13 Y39.117 E21.15968
G1 X42.439 Y39.501 E21.19912
G1 X41.714 Y39.813 E21.2385
G1 X40.961 Y40.05 E21.27789
G1 X40.187 Y40.209 E21.31731
G1 X39.402 Y40.29 E21.35668
G1 X39 Y40.3 E21.37674
G1 X27.8 Y40.3 E21.93551
G0 F3600 X27.4 Y39.9
G1 F1800 X27.4 Y47.5 E22.31468
G1 X27.36 Y48.268 E22.35304
G1 X27.241 Y49.028 E22.39142
G1 X27.043 Y49.771 E22.42978
G1 X26.769 Y50.49 E22.46817
G1 X26.422 Y51.176 E22.50653
G1 X26.006 Y51.823 E22.5449
G1 X25.525 Y52.423 E22.58327
G1 X24.984 Y52.97 E22.62165
G1 X24.389 Y53.458 E22.66004
G1 X23.747 Y53.881 E22.6984
G1 X23.064 Y54.236 E22.7368
G1 X22.349 Y54.517 E22.77513
G1 X21.607 Y54.723 E22.81355
G1 X20.849 Y54.851 E22.8519
G1 X20 Y54.9 E22.89433
G1 X-20 Y54.9 E24.88994
G1 X-20.768 Y54.86 E24.9283
G1 X-21.528 Y54.741 E24.96668
G1 X-22.271 Y54.543 E25.00504
G1 X-22.99 Y54.269 E25.04343
G1 X-23.676 Y53.922 E25.08178
G1 X-24.323 Y53.506 E25.12016
G1 X-24.923 Y53.025 E25.15853
G1 X-25.47 Y52.484 E25.19691
G1 X-25.958 Y51.889 E25.2353
G1 X-26.381 Y51.247 E25.27366
G1 X-26.736 Y50.564 E25.31206
G1 X-27.017 Y49.849 E25.35039
G1 X-27.223 Y49.107 E25.38881
G1 X-27.351 Y48.349 E25.42716
G1 X-27.4 Y47.5 E25.46959
G1 X-27.4 Y39.9 E25.84875
G1 X-40 Y39.9 E26.47737
G1 X-40.768 Y39.86 E26.51574
G1 X-41.528 Y39.741 E26.55411
G1 X-42.271 Y39.543 E26.59248
G1 X-42.99 Y39.269 E26.63086
G1 X-43.676 Y38.922 E26.66922
G1 X-44.323 Y38.506 E26.70759
G1 X-44.923 Y38.025 E26.74596
G1 X-45.47 Y37.484 E26.78434
G1 X-45.958 Y36.889 E26.82273
G1 X-46.381 Y36.247 E26.86109
G1 X-46.736 Y35.564 E26.89949
G1 X-47.017 Y34.849 E26.93782
G1 X-47.223 Y34.107 E26.97624
G1 X-47.258 Y33.9 E26.98671
G1 X-55 Y33.9 E27.37296
G1 X-55.768 Y33.86 E27.41133
G1 X-56.528 Y33.741 E27.44971
G1 X-57.271 Y33.543 E27.48807
G1 X-57.99 Y33.269 E27.52646
G1 X-58.676 Y32.922 E27.56481
G1 X-59.323 Y32.506 E27.60319
G1 X-59.923 Y32.025 E27.64155
G1 X-60.47 Y31.484 E27.67994
G1 X-60.958 Y30.889 E27.71833
G1 X-61.381 Y30.247 E27.75668
G1 X-61.736 Y29.564 E27.79509
G1 X-62.017 Y28.849 E27.83342
G1 X-62.223 Y28.107 E27.87183
G1 X-62.351 Y27.349 E27.91019
G1 X-62.4 Y26.5 E27.95261
G1 X-62.4 Y-41.5 E31.34515
G1 X-62.36 Y-42.268 E31.38351
G1 X-62.241 Y-43.028 E31.42189
G1 X-62.043 Y-43.771 E31.46026
G1 X-61.769 Y-44.49 E31.49864
G1 X-61.422 Y-45.176 E31.537
G1 X-61.006 Y-45.823 E31.57537
G1 X-60.525 Y-46.423 E31.61374
G1 X-59.984 Y-46.97 E31.65212
G1 X-59.389 Y-47.458 E31.69051
G1 X-58.747 Y-47.881 E31.72887
G1 X-58.064 Y-48.236 E31.76727
G1 X-57.349 Y-48.517 E31.8056
G1 X-56.607 Y-48.723 E31.84402
G1 X-55.849 Y-48.851 E31.88237
G1 X-55 Y-48.9 E31.9248
G1 X-47.261 Y-48.9 E32.3109
G1 X-47.241 Y-49.028 E32.31736
G1 X-47.043 Y-49.771 E32.35572
G1 X-46.769 Y-50.49 E32.39411
G1 X-46.422 Y-51.176 E32.43247
G1 X-46.006 Y-51.823 E32.47084
G1 X-45.525 Y-52.423 E32.50921
G1 X-44.984 Y-52.97 E32.54759
G1 X-44.389 Y-53.458 E32.58598
G1 X-43.747 Y-53.881 E32.62434
G1 X-43.064 Y-54.236 E32.66274
G1 X-42.349 Y-54.517 E32.70107
G1 X-41.607 Y-54.723 E32.73949
G1 X-40.849 Y-54.851 E32.77784
G1 X-40 Y-54.9 E32.82027
G1 X40 Y-54.9 E36.81148
G1 X40.768 Y-54.86 E36.84985
G1 X41.528 Y-54.741 E36.88823
G1 X42.271 Y-54.543 E36.92659
G1 X42.99 Y-54.269 E36.96498
G1 X43.676 Y-53.922 E37.00333
G1 X44.323 Y-53.506 E37.04171
G1 X44.923 Y-53.025 E37.08007
G1 X45.47 Y-52.484 E37.11846
G1 X45.958 Y-51.889 E37.15685
G1 X46.381 Y-51.247 E37.1952
G1 X46.736 Y-50.564 E37.23361
G1 X47.017 Y-49.849 E37.27193
G1 X47.223 Y-49.107 E37.31035
G1 X47.258 Y-48.9 E37.32083
G1 X55 Y-48.9 E37.70708
G1 X55.768 Y-48.86 E37.74544
G1 X56.528 Y-48.741 E37.78382
G1 X57.271 Y-48.543 E37.82219
G1 X57.99 Y-48.269 E37.86057
G1 X58.676 Y-47.922 E37.89893
G1 X59.323 Y-47.506 E37.9373
G1 X59.923 Y-47.025 E37.97567
G1 X60.47 Y-46.484 E38.01405
G1 X60.958 Y-45.889 E38.05244
G1 X61.381 Y-45.247 E38.0908
G1 X61.736 Y-44.564 E38.1292
G1 X62.017 Y-43.849 E38.16753
G1 X62.223 Y-43.107 E38.20595
G1 X62.351 Y-42.349 E38.2443
G1 X62.4 Y-41.5 E38.28673
G1 X62.4 Y26.5 E41.67926
G1 X62.36 Y27.268 E41.71763
G1 X62.241 Y28.028 E41.75601
G1 X62.043 Y28.771 E41.79437
G1 X61.769 Y29.49 E41.83276
G1 X61.422 Y30.176 E41.87111
G1 X61.006 Y30.823 E41.90949
G1 X60.525 Y31.423 E41.94785
G1 X59.984 Y31.97 E41.98623
G1 X59.389 Y32.458 E42.02463
G1 X58.747 Y32.881 E42.06298
G1 X58.064 Y33.236 E42.10139
G1 X57.349 Y33.517 E42.13971
G1 X56.607 Y33.723 E42.17813
G1 X55.849 Y33.851 E42.21648
G1 X55 Y33.9 E42.25891
G1 X46.261 Y33.9 E42.6949
G1 X46.241 Y34.028 E42.70137
G1 X46.043 Y34.771 E42.73973
G1 X45.769 Y35.49 E42.77812
G1 X45.422 Y36.176 E42.81647
G1 X45.006 Y36.823 E42.85484
G1 X44.525 Y37.423 E42.89321
G1 X43.984 Y37.97 E42.93159
G1 X43.389 Y38.458 E42.96998
G1 X42.747 Y38.881 E43.00834
G1 X42.064 Y39.236 E43.04674
G1 X41.349 Y39.517 E43.08507
G1 X40.607 Y39.723 E43.12349
G1 X39.849 Y39.851 E43.16184
G1 X39 Y39.9 E43.20427
G1 X27.4 Y39.9 E43.783
G0 F3600 X27 Y39.5
G1 F1800 X27 Y47.5 E44.18212
G1 X26.96 Y48.247 E44.21944
G1 X26.841 Y48.985 E44.25673
G1 X26.643 Y49.707 E44.29408
G1 X26.37 Y50.403 E44.33138
G1 X26.023 Y51.066 E44.36872
G1 X25.608 Y51.689 E44.40606
G1 X25.129 Y52.263 E44.44336
G1 X24.592 Y52.784 E44.48069
G1 X24.002 Y53.243 E44.51798
G1 X23.366 Y53.638 E44.55534
G1 X22.692 Y53.962 E44.59265
G1 X21.987 Y54.212 E44.62996
G1 X21.259 Y54.386 E44.66731
G1 X20.517 Y54.481 E44.70463
G1 X20 Y54.5 E44.73044
G1 X-20 Y54.5 E46.72605
G1 X-20.747 Y54.46 E46.76337
G1 X-21.485 Y54.341 E46.80066
G1 X-22.207 Y54.143 E46.83801
G1 X-22.903 Y53.87 E46.87531
G1 X-23.566 Y53.523 E46.91265
G1 X-24.189 Y53.108 E46.94999
G1 X-24.763 Y52.629 E46.98729
G1 X-25.284 Y52.092 E47.02462
G1 X-25.743 Y51.502 E47.06191
G1 X-26.138 Y50.866 E47.09926
G1 X-26.462 Y50.192 E47.13657
G1 X-26.712 Y49.487 E47.17389
G1 X-26.886 Y48.759 E47.21124
G1 X-26.981 Y48.017 E47.24856
G1 X-27 Y47.5 E47.27437
G1 X-27 Y39.5 E47.67349
G1 X-40 Y39.5 E48.32206
G1 X-40.747 Y39.46 E48.35938
G1 X-41.485 Y39.341 E48.39668
G1 X-42.207 Y39.143 E48.43403
G1 X-42.903 Y38.87 E48.47133
G1 X-43.566 Y38.523 E48.50866
G1 X-44.189 Y38.108 E48.54601
G1 X-44.763 Y37.629 E48.5833
G1 X-45.284 Y37.092 E48.62063
G1 X-45.743 Y36.502 E48.65793
G1 X-46.138 Y35.866 E48.69528
G1 X-46.462 Y35.192 E48.73259
G1 X-46.712 Y34.487 E48.76991
G1 X-46.886 Y33.759 E48.80725
G1 X-46.919 Y33.5 E48.82028
G1 X-55 Y33.5 E49.22344
G1 X-55.747 Y33.46 E49.26076
G1 X-56.485 Y33.341 E49.29805
G1 X-57.207 Y33.143 E49.3354
G1 X-57.903 Y32.87 E49.3727
G1 X-58.566 Y32.523 E49.41004
G1 X-59.189 Y32.108 E49.44738
G1 X-59.763 Y31.629 E49.48468
G1 X-60.284 Y31.092 E49.52201
G1 X-60.743 Y30.502 E49.5593
G1 X-61.138 Y29.866 E49.59666
G1 X-61.462 Y29.192 E49.63397
G1 X-61.712 Y28.487 E49.67128
G1 X-61.886 Y27.759 E49.70863
G1 X-61.981 Y27.017 E49.74595
G1 X-62 Y26.5 E49.77176
G1 X-62 Y-41.5 E53.16429
G1 X-61.96 Y-42.247 E53.20161
G1 X-61.841 Y-42.985 E53.23891
G1 X-61.643 Y-43.707 E53.27626
G1 X-61.37 Y-44.403 E53.31356
G1 X-61.023 Y-45.066 E53.35089
G1 X-60.608 Y-45.689 E53.38824
G1 X-60.129 Y-46.263 E53.42554
G1 X-59.592 Y-46.784 E53.46286
G1 X-59.002 Y-47.243 E53.50016
G1 X-58.366 Y-47.638 E53.53751
G1 X-57.692 Y-47.962 E53.57482
G1 X-56.987 Y-48.212 E53.61214
G1 X-56.259 Y-48.386 E53.64948
G1 X-55.517 Y-48.481 E53.6868
G1 X-55 Y-48.5 E53.71261
G1 X-46.919 Y-48.5 E54.11577
G1 X-46.841 Y-48.985 E54.14028
G1 X-46.643 Y-49.707 E54.17763
G1 X-46.37 Y-50.403 E54.21493
G1 X-46.023 Y-51.066 E54.25227
G1 X-45.608 Y-51.689 E54.28961
G1 X-45.129 Y-52.263 E54.32691
G1 X-44.592 Y-52.784 E54.36424
G1 X-44.002 Y-53.243 E54.40153
G1 X-43.366 Y-53.638 E54.43888
G1 X-42.692 Y-53.962 E54.47619
G1 X-41.987 Y-54.212 E54.51351
G1 X-41.259 Y-54.386 E54.55086
G1 X-40.517 Y-54.481 E54.58818
G1 X-40 Y-54.5 E54.61399
G1 X40 Y-54.5 E58.6052
G1 X40.747 Y-54.46 E58.64252
G1 X41.485 Y-54.341 E58.67982
G1 X42.207 Y-54.143 E58.71717
G1 X42.903 Y-53.87 E58.75447
G1 X43.566 Y-53.523 E58.7918
G1 X44.189 Y-53.108 E58.82915
G1 X44.763 Y-52.629 E58.86645
G1 X45.284 Y-52.092 E58.90377
G1 X45.743 Y-51.502 E58.94107
G1 X46.138 Y-50.866 E58.97842
G1 X46.462 Y-50.192 E59.01573
G1 X46.712 Y-49.487 E59.05305
G1 X46.886 Y-48.759 E59.09039
G1 X46.919 Y-48.5 E59.10342
G1 X55 Y-48.5 E59.50658
G1 X55.747 Y-48.46 E59.5439
G1 X56.485 Y-48.341 E59.5812
G1 X57.207 Y-48.143 E59.61855
G1 X57.903 Y-47.87 E59.65585
G1 X58.566 Y-47.523 E59.69318
G1 X59.189 Y-47.108 E59.73053
G1 X59.763 Y-46.629 E59.76782
G1 X60.284 Y-46.092 E59.80515
G1 X60.743 Y-45.502 E59.84245
G1 X61.138 Y-44.866 E59.8798
G1 X61.462 Y-44.192 E59.91711
G1 X61.712 Y-43.487 E59.95443
G1 X61.886 Y-42.759 E59.99177
G1 X61.981 Y-42.017 E60.02909
G1 X62 Y-41.5 E60.0549
G1 X62 Y26.5 E63.44743
G1 X61.96 Y27.247 E63.48476
G1 X61.841 Y27.985 E63.52205
G1 X61.643 Y28.707 E63.5594
G1 X61.37 Y29.403 E63.5967
G1 X61.023 Y30.066 E63.63403
G1 X60.608 Y30.689 E63.67138
G1 X60.129 Y31.263 E63.70868
G1 X59.592 Y31.784 E63.74601
G1 X59.002 Y32.243 E63.7833
G1 X58.366 Y32.638 E63.82065
G1 X57.692 Y32.962 E63.85796
G1 X56.987 Y33.212 E63.89528
G1 X56.259 Y33.386 E63.93262
G1 X55.517 Y33.481 E63.96994
G1 X55 Y33.5 E63.99575
G1 X45.919 Y33.5 E64.44881
G1 X45.841 Y33.985 E64.47331
G1 X45.643 Y34.707 E64.51067
G1 X45.37 Y35.403 E64.54796
G1 X45.023 Y36.066 E64.5853
G1 X44.608 Y36.689 E64.62264
G1 X44.129 Y37.263 E64.65994
G1 X43.592 Y37.784 E64.69727
G1 X43.002 Y38.243 E64.73456
G1 X42.366 Y38.638 E64.77192
G1 X41.692 Y38.962 E64.80923
G1 X40.987 Y39.212 E64.84654
G1 X40.259 Y39.386 E64.88389
G1 X39.517 Y39.481 E64.92121
G1 X39 Y39.5 E64.94702
G1 X27 Y39.5 E65.5457
G0 F3600 X26.6 Y39.1
G1 F1800 X26.6 Y47.5 E65.96478
G1 X26.56 Y48.225 E66.001
G1 X26.441 Y48.942 E66.03727
G1 X26.243 Y49.641 E66.07351
G1 X25.97 Y50.314 E66.10974
G1 X25.625 Y50.953 E66.14597
G1 X25.211 Y51.55 E66.18222
G1 X24.735 Y52.098 E66.21843
G1 X24.201 Y52.591 E66.25469
G1 X23.616 Y53.021 E66.29091
G1 X22.987 Y53.385 E66.32717
G1 X22.322 Y53.678 E66.36342
G1 X21.629 Y53.896 E66.39967
G1 X20.917 Y54.036 E66.43587
G1 X20 Y54.1 E66.48173
G1 X-20 Y54.1 E68.47734
G1 X-20.725 Y54.06 E68.51356
G1 X-21.442 Y53.941 E68.54983
G1 X-22.141 Y53.743 E68.58607
G1 X-22.814 Y53.47 E68.6223
G1 X-23.453 Y53.125 E68.65853
G1 X-24.05 Y52.711 E68.69478
G1 X-24.598 Y52.235 E68.73099
G1 X-25.091 Y51.701 E68.76725
G1 X-25.521 Y51.116 E68.80347
G1 X-25.885 Y50.487 E68.83973
G1 X-26.178 Y49.822 E68.87599
G1 X-26.396 Y49.129 E68.91223
G1 X-26.536 Y48.417 E68.94843
G1 X-26.6 Y47.5 E68.99429
G1 X-26.6 Y39.1 E69.41337
G1 X-40 Y39.1 E70.0819
G1 X-40.725 Y39.06 E70.11812
G1 X-41.442 Y38.941 E70.15438
G1 X-42.141 Y38.743 E70.19063
G1 X-42.814 Y38.47 E70.22686
G1 X-43.453 Y38.125 E70.26309
G1 X-44.05 Y37.711 E70.29934
G1 X-44.598 Y37.235 E70.33555
G1 X-45.091 Y36.701 E70.37181
G1 X-45.521 Y36.116 E70.40803
G1 X-45.885 Y35.487 E70.44429
G1 X-46.178 Y34.822 E70.48054
G1 X-46.396 Y34.129 E70.51679
G1 X-46.536 Y33.417 E70.55299
G1 X-46.558 Y33.1 E70.56884
G1 X-55 Y33.1 E70.99002
G1 X-55.725 Y33.06 E71.02624
G1 X-56.442 Y32.941 E71.0625
G1 X-57.141 Y32.743 E71.09875
G1 X-57.814 Y32.47 E71.13498
G1 X-58.453 Y32.125 E71.17121
G1 X-59.05 Y31.711 E71.20746
G1 X-59.598 Y31.235 E71.24367
G1 X-60.091 Y30.701 E71.27993
G1 X-60.521 Y30.116 E71.31615
G1 X-60.885 Y29.487 E71.35241
