;FLAVOR:Marlin
;TIME:10141
;Filament used: 14.2284m
;Layer height: 0.3
;MINX:-84.337
;MINY:-91.374
;MINZ:0.3
;MAXX:76.8
;MAXY:44.706
;MAXZ:9.9
;Generated with Cura_SteamEngine 4.7.1
M140 S50
M105
M190 S50
M104 S250
M105
M109 S250
M82 ;absolute extrusion mode
G28 ;Home
G1 Z15.0 F6000 ;Move the platform down 15mm
;Prime the extruder
G92 E0
G1 F200 E3
G92 E0
G92 E0
G92 E0
G1 F1500 E-6.5
;LAYER_COUNT:33
;LAYER:0
M107
G0 F3600 X-2.996 Y43.15 Z0.3
;TYPE:SKIRT
G1 F1500 E0
G1 F1800 X-3.361 Y43.418 E0.02259
G1 X-4.041 Y43.819 E0.06198
G1 X-4.759 Y44.149 E0.1014
G1 X-5.506 Y44.404 E0.14078
G1 X-6.275 Y44.583 E0.18017
G1 X-7.059 Y44.683 E0.2196
G1 X-7.654 Y44.706 E0.24931
G1 X-75.42 Y44.706 E3.63017
G1 X-76.209 Y44.666 E3.66958
G1 X-76.989 Y44.547 E3.70895
G1 X-77.754 Y44.349 E3.74837
G1 X-78.494 Y44.075 E3.78774
G1 X-79.203 Y43.727 E3.82714
G1 X-79.874 Y43.309 E3.86658
G1 X-80.498 Y42.826 E3.90595
G1 X-80.935 Y42.421 E3.93568
G1 X-81.052 Y42.304 E3.94393
G1 X-81.582 Y41.718 E3.98335
G1 X-82.049 Y41.082 E4.02272
G1 X-82.45 Y40.402 E4.0621
G1 X-82.78 Y39.684 E4.10152
G1 X-83.035 Y38.937 E4.1409
G1 X-83.214 Y38.168 E4.18029
G1 X-83.314 Y37.384 E4.21973
G1 X-83.337 Y36.789 E4.24943
G1 X-83.337 Y28.594 E4.65828
G1 X-83.45 Y28.402 E4.6694
G1 X-83.78 Y27.684 E4.70882
G1 X-84.035 Y26.937 E4.7482
G1 X-84.214 Y26.168 E4.78759
G1 X-84.314 Y25.384 E4.82702
G1 X-84.337 Y24.789 E4.85673
G1 X-84.337 Y-10.977 E6.6411
G1 X-84.297 Y-11.766 E6.68052
G1 X-84.178 Y-12.546 E6.71988
G1 X-83.98 Y-13.311 E6.7593
G1 X-83.706 Y-14.051 E6.79867
G1 X-83.358 Y-14.76 E6.83808
G1 X-83.337 Y-14.794 E6.84007
G1 X-83.337 Y-22.977 E7.24832
G1 X-83.297 Y-23.766 E7.28773
G1 X-83.178 Y-24.546 E7.3271
G1 X-82.98 Y-25.311 E7.36652
G1 X-82.706 Y-26.051 E7.40589
G1 X-82.358 Y-26.76 E7.44529
G1 X-81.94 Y-27.431 E7.48474
G1 X-81.457 Y-28.055 E7.5241
G1 X-81.052 Y-28.492 E7.55383
G1 X-80.935 Y-28.609 E7.56208
G1 X-80.349 Y-29.139 E7.6015
G1 X-79.713 Y-29.606 E7.64087
G1 X-79.033 Y-30.007 E7.68025
G1 X-78.315 Y-30.337 E7.71968
G1 X-77.568 Y-30.592 E7.75906
G1 X-76.799 Y-30.771 E7.79845
G1 X-76.015 Y-30.871 E7.83788
G1 X-75.42 Y-30.894 E7.86759
G1 X-62.276 Y-30.894 E8.52334
G1 X-62.498 Y-31.543 E8.55756
G1 X-62.677 Y-32.312 E8.59695
G1 X-62.777 Y-33.096 E8.63638
G1 X-62.8 Y-33.691 E8.66609
G1 X-62.8 Y-43.457 E9.15332
G1 X-62.76 Y-44.246 E9.19273
G1 X-62.641 Y-45.026 E9.2321
G1 X-62.443 Y-45.791 E9.27152
G1 X-62.169 Y-46.531 E9.31089
G1 X-61.821 Y-47.24 E9.35029
G1 X-61.403 Y-47.911 E9.38973
G1 X-60.92 Y-48.535 E9.4291
G1 X-60.515 Y-48.972 E9.45883
G1 X-60.398 Y-49.089 E9.46708
G1 X-59.812 Y-49.619 E9.5065
G1 X-59.176 Y-50.086 E9.54587
G1 X-58.496 Y-50.487 E9.58525
G1 X-57.778 Y-50.817 E9.62467
G1 X-57.031 Y-51.072 E9.66405
G1 X-56.262 Y-51.251 E9.70345
G1 X-55.478 Y-51.351 E9.74288
G1 X-54.883 Y-51.374 E9.77258
G1 X-12.8 Y-51.374 E11.87211
G1 X-12.8 Y-63.774 E12.49075
G1 X-54.883 Y-63.774 E14.59028
G1 X-55.672 Y-63.814 E14.62969
G1 X-56.452 Y-63.933 E14.66906
G1 X-57.217 Y-64.131 E14.70848
G1 X-57.957 Y-64.405 E14.74785
G1 X-58.666 Y-64.753 E14.78725
G1 X-59.337 Y-65.171 E14.82669
G1 X-59.961 Y-65.654 E14.86606
G1 X-60.398 Y-66.059 E14.89579
G1 X-60.515 Y-66.176 E14.90404
G1 X-61.045 Y-66.762 E14.94346
G1 X-61.512 Y-67.398 E14.98283
G1 X-61.913 Y-68.078 E15.02221
G1 X-62.243 Y-68.796 E15.06164
G1 X-62.498 Y-69.543 E15.10102
G1 X-62.677 Y-70.312 E15.14041
G1 X-62.777 Y-71.096 E15.17984
G1 X-62.8 Y-71.691 E15.20954
G1 X-62.8 Y-81.457 E15.69677
G1 X-62.76 Y-82.246 E15.73619
G1 X-62.641 Y-83.026 E15.77555
G1 X-62.443 Y-83.791 E15.81497
G1 X-62.169 Y-84.531 E15.85434
G1 X-61.821 Y-85.24 E15.89375
G1 X-61.403 Y-85.911 E15.93319
G1 X-60.92 Y-86.535 E15.97255
G1 X-60.515 Y-86.972 E16.00228
G1 X-60.398 Y-87.089 E16.01053
G1 X-59.812 Y-87.619 E16.04995
G1 X-59.176 Y-88.086 E16.08932
G1 X-58.496 Y-88.487 E16.1287
G1 X-57.778 Y-88.817 E16.16813
G1 X-57.031 Y-89.072 E16.20751
G1 X-56.262 Y-89.251 E16.2469
G1 X-55.478 Y-89.351 E16.28633
G1 X-54.883 Y-89.374 E16.31604
G1 X-10.083 Y-89.374 E18.55112
G1 X-9.812 Y-89.619 E18.56934
G1 X-9.176 Y-90.086 E18.60871
G1 X-8.496 Y-90.487 E18.64809
G1 X-7.778 Y-90.817 E18.68752
G1 X-7.031 Y-91.072 E18.7269
G1 X-6.262 Y-91.251 E18.76629
G1 X-5.478 Y-91.351 E18.80572
G1 X-4.883 Y-91.374 E18.83543
G1 X4.883 Y-91.374 E19.32265
G1 X5.672 Y-91.334 E19.36207
G1 X6.452 Y-91.215 E19.40143
G1 X7.217 Y-91.017 E19.44086
G1 X7.957 Y-90.743 E19.48022
G1 X8.666 Y-90.395 E19.51963
G1 X9.337 Y-89.977 E19.55907
G1 X9.961 Y-89.494 E19.59844
G1 X10.09 Y-89.374 E19.60723
G1 X54.883 Y-89.374 E21.84196
G1 X55.672 Y-89.334 E21.88137
G1 X56.452 Y-89.215 E21.92074
G1 X57.217 Y-89.017 E21.96016
G1 X57.957 Y-88.743 E21.99953
G1 X58.666 Y-88.395 E22.03893
G1 X59.337 Y-87.977 E22.07837
G1 X59.961 Y-87.494 E22.11774
G1 X60.398 Y-87.089 E22.14747
G1 X60.515 Y-86.972 E22.15572
G1 X61.045 Y-86.386 E22.19514
G1 X61.512 Y-85.75 E22.23451
G1 X61.913 Y-85.07 E22.27389
G1 X62.243 Y-84.352 E22.31331
G1 X62.498 Y-83.605 E22.35269
G1 X62.677 Y-82.836 E22.39208
G1 X62.777 Y-82.052 E22.43152
G1 X62.8 Y-81.457 E22.46122
G1 X62.8 Y-71.691 E22.94845
G1 X62.76 Y-70.902 E22.98786
G1 X62.641 Y-70.122 E23.02723
G1 X62.443 Y-69.357 E23.06665
G1 X62.169 Y-68.617 E23.10602
G1 X61.821 Y-67.908 E23.14542
G1 X61.403 Y-67.237 E23.18486
G1 X60.92 Y-66.613 E23.22423
G1 X60.515 Y-66.176 E23.25396
G1 X60.398 Y-66.059 E23.26221
G1 X59.812 Y-65.529 E23.30163
G1 X59.176 Y-65.062 E23.341
G1 X58.496 Y-64.661 E23.38038
G1 X57.778 Y-64.331 E23.41981
G1 X57.031 Y-64.076 E23.45919
G1 X56.262 Y-63.897 E23.49858
G1 X55.478 Y-63.797 E23.53801
G1 X54.883 Y-63.774 E23.56771
G1 X12.8 Y-63.774 E25.66724
G1 X12.8 Y-51.374 E26.28588
G1 X54.883 Y-51.374 E28.38541
G1 X55.672 Y-51.334 E28.42483
G1 X56.452 Y-51.215 E28.46419
G1 X57.217 Y-51.017 E28.50361
G1 X57.957 Y-50.743 E28.54298
G1 X58.666 Y-50.395 E28.58239
G1 X59.337 Y-49.977 E28.62183
G1 X59.961 Y-49.494 E28.66119
G1 X60.398 Y-49.089 E28.69092
G1 X60.515 Y-48.972 E28.69917
G1 X61.045 Y-48.386 E28.73859
G1 X61.512 Y-47.75 E28.77796
G1 X61.913 Y-47.07 E28.81734
G1 X62.243 Y-46.352 E28.85677
G1 X62.498 Y-45.605 E28.89615
G1 X62.677 Y-44.836 E28.93554
G1 X62.777 Y-44.052 E28.97497
G1 X62.8 Y-43.457 E29.00468
G1 X62.8 Y-33.691 E29.4919
G1 X62.76 Y-32.902 E29.53132
G1 X62.641 Y-32.122 E29.57068
G1 X62.558 Y-31.8 E29.58727
G1 X67.883 Y-31.8 E29.85294
G1 X68.672 Y-31.76 E29.89235
G1 X69.452 Y-31.641 E29.93172
G1 X70.217 Y-31.443 E29.97114
G1 X70.957 Y-31.169 E30.01051
G1 X71.666 Y-30.821 E30.04991
G1 X72.337 Y-30.403 E30.08935
G1 X72.961 Y-29.92 E30.12872
G1 X73.398 Y-29.515 E30.15844
G1 X73.515 Y-29.398 E30.1667
G1 X74.045 Y-28.812 E30.20612
G1 X74.512 Y-28.176 E30.24548
G1 X74.913 Y-27.496 E30.28487
G1 X75.243 Y-26.778 E30.32429
G1 X75.498 Y-26.031 E30.36367
G1 X75.677 Y-25.262 E30.40306
G1 X75.777 Y-24.478 E30.44249
G1 X75.8 Y-23.883 E30.4722
G1 X75.8 Y-15.688 E30.88105
G1 X75.913 Y-15.496 E30.89217
G1 X76.243 Y-14.778 E30.93159
G1 X76.498 Y-14.031 E30.97097
G1 X76.677 Y-13.262 E31.01036
G1 X76.777 Y-12.478 E31.04979
G1 X76.8 Y-11.883 E31.0795
G1 X76.8 Y23.883 E32.86387
G1 X76.76 Y24.672 E32.90328
G1 X76.641 Y25.452 E32.94265
G1 X76.443 Y26.217 E32.98207
G1 X76.169 Y26.957 E33.02144
G1 X75.821 Y27.666 E33.06084
G1 X75.8 Y27.7 E33.06284
G1 X75.8 Y35.883 E33.47109
G1 X75.76 Y36.672 E33.5105
G1 X75.641 Y37.452 E33.54987
G1 X75.443 Y38.217 E33.58929
G1 X75.169 Y38.957 E33.62866
G1 X74.821 Y39.666 E33.66806
G1 X74.403 Y40.337 E33.7075
G1 X73.92 Y40.961 E33.74687
G1 X73.515 Y41.398 E33.7766
G1 X73.398 Y41.515 E33.78485
G1 X72.812 Y42.045 E33.82427
G1 X72.176 Y42.512 E33.86364
G1 X71.496 Y42.913 E33.90302
G1 X70.778 Y43.243 E33.94245
G1 X70.031 Y43.498 E33.98183
G1 X69.262 Y43.677 E34.02122
G1 X68.478 Y43.777 E34.06065
G1 X67.883 Y43.8 E34.09035
G1 X0.117 Y43.8 E37.47121
G1 X-.672 Y43.76 E37.51063
G1 X-1.452 Y43.641 E37.54999
G1 X-2.217 Y43.443 E37.58942
G1 X-2.957 Y43.169 E37.62878
G1 X-2.996 Y43.15 E37.63095
G0 F3600 X-2.873 Y42.769
G1 F1800 X-3.038 Y42.686 E37.64016
G1 X-3.615 Y43.106 E37.67577
G1 X-4.28 Y43.492 E37.71413
G1 X-4.982 Y43.807 E37.75252
G1 X-5.713 Y44.047 E37.7909
G1 X-6.464 Y44.21 E37.82924
G1 X-7.229 Y44.294 E37.86764
G1 X-7.654 Y44.306 E37.88885
G1 X-75.42 Y44.306 E41.26971
G1 X-76.188 Y44.266 E41.30808
G1 X-76.948 Y44.147 E41.34645
G1 X-77.691 Y43.949 E41.38482
G1 X-78.41 Y43.675 E41.4232
G1 X-79.096 Y43.328 E41.46156
G1 X-79.743 Y42.912 E41.49993
G1 X-80.343 Y42.431 E41.5383
G1 X-80.77 Y42.022 E41.5678
G1 X-81.284 Y41.45 E41.60616
G1 X-81.737 Y40.828 E41.64455
G1 X-82.123 Y40.163 E41.68291
G1 X-82.438 Y39.461 E41.7213
G1 X-82.678 Y38.73 E41.75969
G1 X-82.841 Y37.979 E41.79803
G1 X-82.925 Y37.214 E41.83642
G1 X-82.937 Y36.789 E41.85763
G1 X-82.937 Y28.483 E42.27202
G1 X-83.123 Y28.163 E42.29049
G1 X-83.438 Y27.461 E42.32887
G1 X-83.678 Y26.73 E42.36726
G1 X-83.841 Y25.979 E42.4056
G1 X-83.925 Y25.214 E42.444
G1 X-83.937 Y24.789 E42.46521
G1 X-83.937 Y-10.977 E44.24958
G1 X-83.897 Y-11.745 E44.28795
G1 X-83.778 Y-12.505 E44.32633
G1 X-83.58 Y-13.248 E44.36469
G1 X-83.306 Y-13.967 E44.40308
G1 X-82.959 Y-14.653 E44.44143
G1 X-82.937 Y-14.687 E44.44345
G1 X-82.937 Y-22.977 E44.85704
G1 X-82.897 Y-23.745 E44.89541
G1 X-82.778 Y-24.505 E44.93379
G1 X-82.58 Y-25.248 E44.97215
G1 X-82.306 Y-25.967 E45.01054
G1 X-81.959 Y-26.653 E45.04889
G1 X-81.543 Y-27.3 E45.08727
G1 X-81.062 Y-27.9 E45.12563
G1 X-80.653 Y-28.327 E45.15513
G1 X-80.081 Y-28.841 E45.1935
G1 X-79.459 Y-29.294 E45.23189
G1 X-78.794 Y-29.68 E45.27025
G1 X-78.092 Y-29.995 E45.30863
G1 X-77.361 Y-30.235 E45.34702
G1 X-76.61 Y-30.398 E45.38536
G1 X-75.845 Y-30.482 E45.42375
G1 X-75.42 Y-30.494 E45.44497
G1 X-61.665 Y-30.494 E46.13121
G1 X-61.901 Y-31.019 E46.15992
G1 X-62.141 Y-31.75 E46.19831
G1 X-62.304 Y-32.501 E46.23665
G1 X-62.388 Y-33.266 E46.27504
G1 X-62.4 Y-33.691 E46.29625
G1 X-62.4 Y-43.457 E46.78348
G1 X-62.36 Y-44.225 E46.82185
G1 X-62.241 Y-44.985 E46.86023
G1 X-62.043 Y-45.728 E46.89859
G1 X-61.769 Y-46.447 E46.93698
G1 X-61.422 Y-47.133 E46.97533
G1 X-61.006 Y-47.78 E47.01371
G1 X-60.525 Y-48.38 E47.05207
G1 X-60.116 Y-48.807 E47.08157
G1 X-59.544 Y-49.321 E47.11994
G1 X-58.922 Y-49.774 E47.15833
G1 X-58.257 Y-50.16 E47.19669
G1 X-57.555 Y-50.475 E47.23508
G1 X-56.824 Y-50.715 E47.27346
G1 X-56.073 Y-50.878 E47.3118
G1 X-55.308 Y-50.962 E47.3502
G1 X-54.883 Y-50.974 E47.37141
G1 X-12.4 Y-50.974 E49.49089
G1 X-12.4 Y-64.174 E50.14944
G1 X-54.883 Y-64.174 E52.26893
G1 X-55.651 Y-64.214 E52.3073
G1 X-56.411 Y-64.333 E52.34568
G1 X-57.154 Y-64.531 E52.38404
G1 X-57.873 Y-64.805 E52.42242
G1 X-58.559 Y-65.152 E52.46078
G1 X-59.206 Y-65.568 E52.49915
G1 X-59.806 Y-66.049 E52.53752
G1 X-60.233 Y-66.458 E52.56702
G1 X-60.747 Y-67.03 E52.60539
G1 X-61.2 Y-67.652 E52.64377
G1 X-61.586 Y-68.317 E52.68214
G1 X-61.901 Y-69.019 E52.72052
G1 X-62.141 Y-69.75 E52.75891
G1 X-62.304 Y-70.501 E52.79725
G1 X-62.388 Y-71.266 E52.83564
G1 X-62.4 Y-71.691 E52.85685
G1 X-62.4 Y-81.457 E53.34408
G1 X-62.36 Y-82.225 E53.38245
G1 X-62.241 Y-82.985 E53.42083
G1 X-62.043 Y-83.728 E53.45919
G1 X-61.769 Y-84.447 E53.49758
G1 X-61.422 Y-85.133 E53.53593
G1 X-61.006 Y-85.78 E53.57431
G1 X-60.525 Y-86.38 E53.61267
G1 X-60.116 Y-86.807 E53.64217
G1 X-59.544 Y-87.321 E53.68054
G1 X-58.922 Y-87.774 E53.71893
G1 X-58.257 Y-88.16 E53.75729
G1 X-57.555 Y-88.475 E53.79568
G1 X-56.824 Y-88.715 E53.83406
G1 X-56.073 Y-88.878 E53.8724
G1 X-55.308 Y-88.962 E53.9108
G1 X-54.883 Y-88.974 E53.93201
G1 X-9.93 Y-88.974 E56.17472
G1 X-9.544 Y-89.321 E56.20062
G1 X-8.922 Y-89.774 E56.23901
G1 X-8.257 Y-90.16 E56.27737
G1 X-7.555 Y-90.475 E56.31575
G1 X-6.824 Y-90.715 E56.35414
G1 X-6.073 Y-90.878 E56.39248
G1 X-5.308 Y-90.962 E56.43088
G1 X-4.883 Y-90.974 E56.45209
G1 X4.883 Y-90.974 E56.93931
G1 X5.651 Y-90.934 E56.97768
G1 X6.411 Y-90.815 E57.01606
G1 X7.154 Y-90.617 E57.05442
G1 X7.873 Y-90.343 E57.09281
G1 X8.559 Y-89.996 E57.13116
G1 X9.206 Y-89.58 E57.16954
G1 X9.806 Y-89.099 E57.20791
G1 X9.939 Y-88.974 E57.21701
G1 X54.883 Y-88.974 E59.45928
G1 X55.651 Y-88.934 E59.49764
G1 X56.411 Y-88.815 E59.53602
G1 X57.154 Y-88.617 E59.57438
G1 X57.873 Y-88.343 E59.61277
G1 X58.559 Y-87.996 E59.65113
G1 X59.206 Y-87.58 E59.6895
G1 X59.806 Y-87.099 E59.72787
G1 X60.233 Y-86.69 E59.75737
G1 X60.747 Y-86.118 E59.79573
G1 X61.2 Y-85.496 E59.83412
G1 X61.586 Y-84.831 E59.87248
G1 X61.901 Y-84.129 E59.91087
G1 X62.141 Y-83.398 E59.94926
G1 X62.304 Y-82.647 E59.9876
G1 X62.388 Y-81.882 E60.02599
G1 X62.4 Y-81.457 E60.0472
G1 X62.4 Y-71.691 E60.53443
G1 X62.36 Y-70.923 E60.5728
G1 X62.241 Y-70.163 E60.61118
G1 X62.043 Y-69.42 E60.64954
G1 X61.769 Y-68.701 E60.68793
G1 X61.422 Y-68.015 E60.72628
G1 X61.006 Y-67.368 E60.76466
G1 X60.525 Y-66.768 E60.80302
G1 X60.116 Y-66.341 E60.83252
G1 X59.544 Y-65.827 E60.87089
G1 X58.922 Y-65.374 E60.90928
G1 X58.257 Y-64.988 E60.94764
G1 X57.555 Y-64.673 E60.98602
G1 X56.824 Y-64.433 E61.02441
G1 X56.073 Y-64.27 E61.06275
G1 X55.308 Y-64.186 E61.10114
G1 X54.883 Y-64.174 E61.12236
G1 X12.4 Y-64.174 E63.24184
G1 X12.4 Y-50.974 E63.90039
G1 X54.883 Y-50.974 E66.01988
G1 X55.651 Y-50.934 E66.05824
G1 X56.411 Y-50.815 E66.09662
G1 X57.154 Y-50.617 E66.13499
G1 X57.873 Y-50.343 E66.17337
G1 X58.559 Y-49.996 E66.21173
G1 X59.206 Y-49.58 E66.2501
G1 X59.806 Y-49.099 E66.28847
G1 X60.233 Y-48.69 E66.31797
G1 X60.747 Y-48.118 E66.35633
G1 X61.2 Y-47.496 E66.39472
G1 X61.586 Y-46.831 E66.43308
G1 X61.901 Y-46.129 E66.47147
G1 X62.141 Y-45.398 E66.50986
G1 X62.304 Y-44.647 E66.5482
G1 X62.388 Y-43.882 E66.58659
G1 X62.4 Y-43.457 E66.6078
G1 X62.4 Y-33.691 E67.09503
G1 X62.36 Y-32.923 E67.1334
G1 X62.241 Y-32.163 E67.17178
G1 X62.043 Y-31.42 E67.21014
G1 X62.035 Y-31.4 E67.21121
G1 X67.883 Y-31.4 E67.50297
G1 X68.651 Y-31.36 E67.54134
G1 X69.411 Y-31.241 E67.57972
G1 X70.154 Y-31.043 E67.61808
G1 X70.873 Y-30.769 E67.65647
G1 X71.559 Y-30.422 E67.69482
G1 X72.206 Y-30.006 E67.7332
G1 X72.806 Y-29.525 E67.77156
G1 X73.233 Y-29.116 E67.80106
G1 X73.747 Y-28.544 E67.83943
G1 X74.2 Y-27.922 E67.87782
G1 X74.586 Y-27.257 E67.91618
G1 X74.901 Y-26.555 E67.95456
G1 X75.141 Y-25.824 E67.99295
G1 X75.304 Y-25.073 E68.03129
G1 X75.388 Y-24.308 E68.06969
G1 X75.4 Y-23.883 E68.0909
G1 X75.4 Y-15.577 E68.50528
G1 X75.586 Y-15.257 E68.52375
G1 X75.901 Y-14.555 E68.56214
G1 X76.141 Y-13.824 E68.60052
G1 X76.304 Y-13.073 E68.63886
G1 X76.388 Y-12.308 E68.67726
G1 X76.4 Y-11.883 E68.69847
G1 X76.4 Y23.883 E70.48284
G1 X76.36 Y24.651 E70.52121
G1 X76.241 Y25.411 E70.55959
G1 X76.043 Y26.154 E70.59795
G1 X75.769 Y26.873 E70.63634
G1 X75.422 Y27.559 E70.67469
G1 X75.4 Y27.593 E70.67671
G1 X75.4 Y35.883 E71.0903
G1 X75.36 Y36.651 E71.12867
G1 X75.241 Y37.411 E71.16705
G1 X75.043 Y38.154 E71.20541
G1 X74.769 Y38.873 E71.2438
G1 X74.422 Y39.559 E71.28215
G1 X74.006 Y40.206 E71.32053
G1 X73.525 Y40.806 E71.35889
G1 X73.116 Y41.233 E71.38839
G1 X72.544 Y41.747 E71.42676
G1 X71.922 Y42.2 E71.46515
G1 X71.257 Y42.586 E71.50351
G1 X70.555 Y42.901 E71.5419
G1 X69.824 Y43.141 E71.58028
G1 X69.073 Y43.304 E71.61862
G1 X68.308 Y43.388 E71.65702
G1 X67.883 Y43.4 E71.67823
G1 X0.117 Y43.4 E75.05909
G1 X-.651 Y43.36 E75.09746
G1 X-1.411 Y43.241 E75.13583
G1 X-2.154 Y43.043 E75.1742
G1 X-2.873 Y42.769 E75.21258
G0 F3600 X-2.786 Y42.37
G1 F1800 X-3.096 Y42.208 E75.23003
G1 X-3.261 Y42.356 E75.24109
G1 X-3.867 Y42.793 E75.27837
G1 X-4.517 Y43.164 E75.31571
G1 X-5.203 Y43.463 E75.35304
G1 X-5.917 Y43.687 E75.39037
G1 X-6.65 Y43.834 E75.42767
G1 X-7.654 Y43.906 E75.47789
G1 X-75.42 Y43.906 E78.85875
G1 X-76.167 Y43.866 E78.89607
G1 X-76.905 Y43.747 E78.93337
G1 X-77.627 Y43.549 E78.97072
G1 X-78.323 Y43.276 E79.00801
G1 X-78.986 Y42.929 E79.04535
G1 X-79.609 Y42.514 E79.08269
G1 X-80.37 Y41.856 E79.13289
G1 X-80.487 Y41.739 E79.14114
G1 X-80.987 Y41.182 E79.17848
G1 X-81.424 Y40.576 E79.21576
G1 X-81.795 Y39.926 E79.2531
G1 X-82.094 Y39.24 E79.29043
G1 X-82.318 Y38.526 E79.32776
G1 X-82.465 Y37.793 E79.36506
G1 X-82.537 Y36.789 E79.41528
G1 X-82.537 Y28.378 E79.83491
G1 X-82.795 Y27.926 E79.86087
G1 X-83.094 Y27.24 E79.89821
