;FLAVOR:Marlin
;TIME:6696
;Filament used: 9.31311m
;Layer height: 0.3
;MINX:-58.979
;MINY:-123.62
;MINZ:0.3
;MAXX:66.621
;MAXY:-13.02
;MAXZ:3.9
;Generated with Cura_SteamEngine 4.7.1
M140 S50
M105
M190 S50
M104 S250
M105
M109 S250
M82 ;absolute extrusion mode
G28 ;Home
G1 Z15.0 F6000 ;Move the platform down 15mm
;Prime the extruder
G92 E0
G1 F200 E3
G92 E0
G92 E0
G92 E0
G1 F1500 E-6.5
;LAYER_COUNT:13
;LAYER:0
M107
G0 F3600 X-16.062 Y-13.02 Z0.3
;TYPE:SKIRT
G1 F1500 E0
G1 F1800 X-16.851 Y-13.06 E0.03941
G1 X-17.631 Y-13.179 E0.07878
G1 X-18.396 Y-13.377 E0.1182
G1 X-19.136 Y-13.651 E0.15757
G1 X-19.845 Y-13.999 E0.19697
G1 X-20.516 Y-14.417 E0.23641
G1 X-21.14 Y-14.9 E0.27578
G1 X-21.577 Y-15.305 E0.30551
G1 X-21.694 Y-15.422 E0.31376
G1 X-22.224 Y-16.008 E0.35318
G1 X-22.691 Y-16.644 E0.39255
G1 X-23.092 Y-17.324 E0.43193
G1 X-23.422 Y-18.042 E0.47136
G1 X-23.677 Y-18.789 E0.51074
G1 X-23.856 Y-19.558 E0.55013
G1 X-23.956 Y-20.342 E0.58956
G1 X-23.979 Y-20.937 E0.61926
G1 X-23.979 Y-28.02 E0.97264
G1 X-36.062 Y-28.02 E1.57546
G1 X-36.851 Y-28.06 E1.61487
G1 X-37.631 Y-28.179 E1.65424
G1 X-38.396 Y-28.377 E1.69366
G1 X-39.136 Y-28.651 E1.73303
G1 X-39.845 Y-28.999 E1.77243
G1 X-40.516 Y-29.417 E1.81187
G1 X-41.14 Y-29.9 E1.85124
G1 X-41.577 Y-30.305 E1.88097
G1 X-41.694 Y-30.422 E1.88922
G1 X-42.224 Y-31.008 E1.92864
G1 X-42.691 Y-31.644 E1.96801
G1 X-43.092 Y-32.324 E2.00739
G1 X-43.422 Y-33.042 E2.04682
G1 X-43.677 Y-33.789 E2.0862
G1 X-43.731 Y-34.02 E2.09803
G1 X-51.062 Y-34.02 E2.46378
G1 X-51.851 Y-34.06 E2.50319
G1 X-52.631 Y-34.179 E2.54255
G1 X-53.396 Y-34.377 E2.58198
G1 X-54.136 Y-34.651 E2.62135
G1 X-54.845 Y-34.999 E2.66075
G1 X-55.516 Y-35.417 E2.70019
G1 X-56.14 Y-35.9 E2.73956
G1 X-56.577 Y-36.305 E2.76928
G1 X-56.694 Y-36.422 E2.77754
G1 X-57.224 Y-37.008 E2.81696
G1 X-57.691 Y-37.644 E2.85632
G1 X-58.092 Y-38.324 E2.89571
G1 X-58.422 Y-39.042 E2.93513
G1 X-58.677 Y-39.789 E2.97451
G1 X-58.856 Y-40.558 E3.0139
G1 X-58.956 Y-41.342 E3.05333
G1 X-58.979 Y-41.937 E3.08304
G1 X-58.979 Y-109.703 E6.4639
G1 X-58.939 Y-110.492 E6.50331
G1 X-58.82 Y-111.272 E6.54268
G1 X-58.622 Y-112.037 E6.5821
G1 X-58.348 Y-112.777 E6.62147
G1 X-58 Y-113.486 E6.66087
G1 X-57.582 Y-114.157 E6.70031
G1 X-57.099 Y-114.781 E6.73968
G1 X-56.694 Y-115.218 E6.76941
G1 X-56.577 Y-115.335 E6.77766
G1 X-55.991 Y-115.865 E6.81708
G1 X-55.355 Y-116.332 E6.85645
G1 X-54.675 Y-116.733 E6.89583
G1 X-53.957 Y-117.063 E6.93525
G1 X-53.21 Y-117.318 E6.97463
G1 X-52.441 Y-117.497 E7.01403
G1 X-51.657 Y-117.597 E7.05346
G1 X-51.062 Y-117.62 E7.08316
G1 X-43.73 Y-117.62 E7.44896
G1 X-43.622 Y-118.037 E7.47045
G1 X-43.348 Y-118.777 E7.50982
G1 X-43 Y-119.486 E7.54922
G1 X-42.582 Y-120.157 E7.58866
G1 X-42.099 Y-120.781 E7.62803
G1 X-41.694 Y-121.218 E7.65775
G1 X-41.577 Y-121.335 E7.66601
G1 X-40.991 Y-121.865 E7.70543
G1 X-40.355 Y-122.332 E7.74479
G1 X-39.675 Y-122.733 E7.78418
G1 X-38.957 Y-123.063 E7.8236
G1 X-38.21 Y-123.318 E7.86298
G1 X-37.441 Y-123.497 E7.90237
G1 X-36.657 Y-123.597 E7.9418
G1 X-36.062 Y-123.62 E7.97151
G1 X43.704 Y-123.62 E11.95105
G1 X44.493 Y-123.58 E11.99047
G1 X45.273 Y-123.461 E12.02983
G1 X46.038 Y-123.263 E12.06925
G1 X46.778 Y-122.989 E12.10862
G1 X47.487 Y-122.641 E12.14803
G1 X48.158 Y-122.223 E12.18747
G1 X48.782 Y-121.74 E12.22684
G1 X49.219 Y-121.335 E12.25656
G1 X49.336 Y-121.218 E12.26482
G1 X49.866 Y-120.632 E12.30423
G1 X50.333 Y-119.996 E12.3436
G1 X50.734 Y-119.316 E12.38299
G1 X51.064 Y-118.598 E12.42241
G1 X51.319 Y-117.851 E12.46179
G1 X51.373 Y-117.62 E12.47362
G1 X58.704 Y-117.62 E12.83937
G1 X59.493 Y-117.58 E12.87878
G1 X60.273 Y-117.461 E12.91815
G1 X61.038 Y-117.263 E12.95757
G1 X61.778 Y-116.989 E12.99694
G1 X62.487 Y-116.641 E13.03634
G1 X63.158 Y-116.223 E13.07578
G1 X63.782 Y-115.74 E13.11515
G1 X64.219 Y-115.335 E13.14488
G1 X64.336 Y-115.218 E13.15313
G1 X64.866 Y-114.632 E13.19255
G1 X65.333 Y-113.996 E13.23192
G1 X65.734 Y-113.316 E13.2713
G1 X66.064 Y-112.598 E13.31072
G1 X66.319 Y-111.851 E13.3501
G1 X66.498 Y-111.082 E13.3895
G1 X66.598 Y-110.298 E13.42893
G1 X66.621 Y-109.703 E13.45863
G1 X66.621 Y-41.937 E16.83949
G1 X66.581 Y-41.148 E16.87891
G1 X66.462 Y-40.368 E16.91827
G1 X66.264 Y-39.603 E16.95769
G1 X65.99 Y-38.863 E16.99706
G1 X65.642 Y-38.154 E17.03647
G1 X65.224 Y-37.483 E17.07591
G1 X64.741 Y-36.859 E17.11527
G1 X64.336 Y-36.422 E17.145
G1 X64.219 Y-36.305 E17.15325
G1 X63.633 Y-35.775 E17.19267
G1 X62.997 Y-35.308 E17.23204
G1 X62.317 Y-34.907 E17.27142
G1 X61.599 Y-34.577 E17.31085
G1 X60.852 Y-34.322 E17.35023
G1 X60.083 Y-34.143 E17.38962
G1 X59.299 Y-34.043 E17.42905
G1 X58.704 Y-34.02 E17.45876
G1 X50.372 Y-34.02 E17.87444
G1 X50.264 Y-33.603 E17.89593
G1 X49.99 Y-32.863 E17.9353
G1 X49.642 Y-32.154 E17.9747
G1 X49.224 Y-31.483 E18.01414
G1 X48.741 Y-30.859 E18.05351
G1 X48.336 Y-30.422 E18.08324
G1 X48.219 Y-30.305 E18.09149
G1 X47.633 Y-29.775 E18.13091
G1 X46.997 Y-29.308 E18.17028
G1 X46.317 Y-28.907 E18.20966
G1 X45.599 Y-28.577 E18.24909
G1 X44.852 Y-28.322 E18.28847
G1 X44.083 Y-28.143 E18.32786
G1 X43.299 Y-28.043 E18.36729
G1 X42.704 Y-28.02 E18.39699
G1 X31.621 Y-28.02 E18.94993
G1 X31.621 Y-20.937 E19.3033
G1 X31.581 Y-20.148 E19.34271
G1 X31.462 Y-19.368 E19.38208
G1 X31.264 Y-18.603 E19.4215
G1 X30.99 Y-17.863 E19.46087
G1 X30.642 Y-17.154 E19.50027
G1 X30.224 Y-16.483 E19.53971
G1 X29.741 Y-15.859 E19.57908
G1 X29.336 Y-15.422 E19.60881
G1 X29.219 Y-15.305 E19.61706
G1 X28.633 Y-14.775 E19.65648
G1 X27.997 Y-14.308 E19.69585
G1 X27.317 Y-13.907 E19.73523
G1 X26.599 Y-13.577 E19.77466
G1 X25.852 Y-13.322 E19.81403
G1 X25.083 Y-13.143 E19.85343
G1 X24.299 Y-13.043 E19.89286
G1 X23.704 Y-13.02 E19.92256
G1 X-16.062 Y-13.02 E21.9065
G0 F3600 X-16.062 Y-13.42
G1 F1800 X-16.83 Y-13.46 E21.94487
G1 X-17.59 Y-13.579 E21.98324
G1 X-18.333 Y-13.777 E22.02161
G1 X-19.052 Y-14.051 E22.05999
G1 X-19.738 Y-14.398 E22.09835
G1 X-20.385 Y-14.814 E22.13672
G1 X-20.985 Y-15.295 E22.17509
G1 X-21.412 Y-15.704 E22.20459
G1 X-21.926 Y-16.276 E22.24295
G1 X-22.379 Y-16.898 E22.28134
G1 X-22.765 Y-17.563 E22.3197
G1 X-23.08 Y-18.265 E22.35809
G1 X-23.32 Y-18.996 E22.39648
G1 X-23.483 Y-19.747 E22.43482
G1 X-23.567 Y-20.512 E22.47321
G1 X-23.579 Y-20.937 E22.49442
G1 X-23.579 Y-28.42 E22.86775
G1 X-36.062 Y-28.42 E23.49053
G1 X-36.83 Y-28.46 E23.5289
G1 X-37.59 Y-28.579 E23.56728
G1 X-38.333 Y-28.777 E23.60564
G1 X-39.052 Y-29.051 E23.64403
G1 X-39.738 Y-29.398 E23.68238
G1 X-40.385 Y-29.814 E23.72076
G1 X-40.985 Y-30.295 E23.75912
G1 X-41.412 Y-30.704 E23.78862
G1 X-41.926 Y-31.276 E23.82699
G1 X-42.379 Y-31.898 E23.86538
G1 X-42.765 Y-32.563 E23.90374
G1 X-43.08 Y-33.265 E23.94212
G1 X-43.32 Y-33.996 E23.98051
G1 X-43.412 Y-34.42 E24.00215
G1 X-51.062 Y-34.42 E24.38381
G1 X-51.83 Y-34.46 E24.42218
G1 X-52.59 Y-34.579 E24.46056
G1 X-53.333 Y-34.777 E24.49892
G1 X-54.052 Y-35.051 E24.53731
G1 X-54.738 Y-35.398 E24.57566
G1 X-55.385 Y-35.814 E24.61404
G1 X-55.985 Y-36.295 E24.65241
G1 X-56.412 Y-36.704 E24.6819
G1 X-56.926 Y-37.276 E24.72027
G1 X-57.379 Y-37.898 E24.75866
G1 X-57.765 Y-38.563 E24.79702
G1 X-58.08 Y-39.265 E24.83541
G1 X-58.32 Y-39.996 E24.87379
G1 X-58.483 Y-40.747 E24.91213
G1 X-58.567 Y-41.512 E24.95053
G1 X-58.579 Y-41.937 E24.97174
G1 X-58.579 Y-109.703 E28.3526
G1 X-58.539 Y-110.471 E28.39097
G1 X-58.42 Y-111.231 E28.42935
G1 X-58.222 Y-111.974 E28.46771
G1 X-57.948 Y-112.693 E28.5061
G1 X-57.601 Y-113.379 E28.54445
G1 X-57.185 Y-114.026 E28.58283
G1 X-56.704 Y-114.626 E28.62119
G1 X-56.295 Y-115.053 E28.65069
G1 X-55.723 Y-115.567 E28.68906
G1 X-55.101 Y-116.02 E28.72745
G1 X-54.436 Y-116.406 E28.76581
G1 X-53.734 Y-116.721 E28.80419
G1 X-53.003 Y-116.961 E28.84258
G1 X-52.252 Y-117.124 E28.88092
G1 X-51.487 Y-117.208 E28.91931
G1 X-51.062 Y-117.22 E28.94053
G1 X-43.422 Y-117.22 E29.32169
G1 X-43.222 Y-117.974 E29.3606
G1 X-42.948 Y-118.693 E29.39899
G1 X-42.601 Y-119.379 E29.43735
G1 X-42.185 Y-120.026 E29.47572
G1 X-41.704 Y-120.626 E29.51409
G1 X-41.295 Y-121.053 E29.54359
G1 X-40.723 Y-121.567 E29.58195
G1 X-40.101 Y-122.02 E29.62034
G1 X-39.436 Y-122.406 E29.6587
G1 X-38.734 Y-122.721 E29.69709
G1 X-38.003 Y-122.961 E29.73547
G1 X-37.252 Y-123.124 E29.77381
G1 X-36.487 Y-123.208 E29.81221
G1 X-36.062 Y-123.22 E29.83342
G1 X43.704 Y-123.22 E33.81296
G1 X44.472 Y-123.18 E33.85133
G1 X45.232 Y-123.061 E33.88971
G1 X45.975 Y-122.863 E33.92807
G1 X46.694 Y-122.589 E33.96646
G1 X47.38 Y-122.242 E34.00481
G1 X48.027 Y-121.826 E34.04319
G1 X48.627 Y-121.345 E34.08155
G1 X49.054 Y-120.936 E34.11105
G1 X49.568 Y-120.364 E34.14942
G1 X50.021 Y-119.742 E34.18781
G1 X50.407 Y-119.077 E34.22617
G1 X50.722 Y-118.375 E34.26456
G1 X50.962 Y-117.644 E34.30294
G1 X51.054 Y-117.22 E34.32459
G1 X58.704 Y-117.22 E34.70625
G1 X59.472 Y-117.18 E34.74462
G1 X60.232 Y-117.061 E34.78299
G1 X60.975 Y-116.863 E34.82136
G1 X61.694 Y-116.589 E34.85974
G1 X62.38 Y-116.242 E34.8981
G1 X63.027 Y-115.826 E34.93647
G1 X63.627 Y-115.345 E34.97484
G1 X64.054 Y-114.936 E35.00434
G1 X64.568 Y-114.364 E35.0427
G1 X65.021 Y-113.742 E35.08109
G1 X65.407 Y-113.077 E35.11945
G1 X65.722 Y-112.375 E35.15784
G1 X65.962 Y-111.644 E35.19623
G1 X66.125 Y-110.893 E35.23457
G1 X66.209 Y-110.128 E35.27296
G1 X66.221 Y-109.703 E35.29417
G1 X66.221 Y-41.937 E38.67503
G1 X66.181 Y-41.169 E38.7134
G1 X66.062 Y-40.409 E38.75178
G1 X65.864 Y-39.666 E38.79014
G1 X65.59 Y-38.947 E38.82853
G1 X65.243 Y-38.261 E38.86688
G1 X64.827 Y-37.614 E38.90526
G1 X64.346 Y-37.014 E38.94362
G1 X63.937 Y-36.587 E38.97312
G1 X63.365 Y-36.073 E39.01149
G1 X62.743 Y-35.62 E39.04988
G1 X62.078 Y-35.234 E39.08824
G1 X61.376 Y-34.919 E39.12663
G1 X60.645 Y-34.679 E39.16501
G1 X59.894 Y-34.516 E39.20335
G1 X59.129 Y-34.432 E39.24175
G1 X58.704 Y-34.42 E39.26296
G1 X50.064 Y-34.42 E39.69401
G1 X49.864 Y-33.666 E39.73293
G1 X49.59 Y-32.947 E39.77132
G1 X49.243 Y-32.261 E39.80967
G1 X48.827 Y-31.614 E39.84805
G1 X48.346 Y-31.014 E39.88641
G1 X47.937 Y-30.587 E39.91591
G1 X47.365 Y-30.073 E39.95428
G1 X46.743 Y-29.62 E39.99267
G1 X46.078 Y-29.234 E40.03103
G1 X45.376 Y-28.919 E40.06941
G1 X44.645 Y-28.679 E40.1078
G1 X43.894 Y-28.516 E40.14614
G1 X43.129 Y-28.432 E40.18453
G1 X42.704 Y-28.42 E40.20575
G1 X31.221 Y-28.42 E40.77863
G1 X31.221 Y-20.937 E41.15196
G1 X31.181 Y-20.169 E41.19033
G1 X31.062 Y-19.409 E41.22871
G1 X30.864 Y-18.666 E41.26707
G1 X30.59 Y-17.947 E41.30546
G1 X30.243 Y-17.261 E41.34381
G1 X29.827 Y-16.614 E41.38219
G1 X29.346 Y-16.014 E41.42055
G1 X28.937 Y-15.587 E41.45005
G1 X28.365 Y-15.073 E41.48842
G1 X27.743 Y-14.62 E41.52681
G1 X27.078 Y-14.234 E41.56517
G1 X26.376 Y-13.919 E41.60356
G1 X25.645 Y-13.679 E41.64194
G1 X24.894 Y-13.516 E41.68028
G1 X24.129 Y-13.432 E41.71868
G1 X23.704 Y-13.42 E41.73989
G1 X-16.062 Y-13.42 E43.72382
G0 F3600 X-16.062 Y-13.82
G1 F1800 X-16.809 Y-13.86 E43.76114
G1 X-17.547 Y-13.979 E43.79844
G1 X-18.269 Y-14.177 E43.83579
G1 X-18.965 Y-14.45 E43.87309
G1 X-19.628 Y-14.797 E43.91042
G1 X-20.251 Y-15.212 E43.94777
G1 X-21.012 Y-15.87 E43.99796
G1 X-21.129 Y-15.987 E44.00621
G1 X-21.629 Y-16.544 E44.04356
G1 X-22.066 Y-17.15 E44.08083
G1 X-22.437 Y-17.8 E44.11817
G1 X-22.736 Y-18.486 E44.1555
G1 X-22.96 Y-19.2 E44.19284
G1 X-23.107 Y-19.933 E44.23014
G1 X-23.179 Y-20.937 E44.28035
G1 X-23.179 Y-28.82 E44.67364
G1 X-36.062 Y-28.82 E45.31637
G1 X-36.809 Y-28.86 E45.3537
G1 X-37.547 Y-28.979 E45.39099
G1 X-38.269 Y-29.177 E45.42834
G1 X-38.965 Y-29.45 E45.46564
G1 X-39.628 Y-29.797 E45.50297
G1 X-40.251 Y-30.212 E45.54032
G1 X-41.012 Y-30.87 E45.59051
G1 X-41.129 Y-30.987 E45.59877
G1 X-41.629 Y-31.544 E45.63611
G1 X-42.066 Y-32.15 E45.67338
G1 X-42.437 Y-32.8 E45.71072
G1 X-42.736 Y-33.486 E45.74806
G1 X-42.96 Y-34.2 E45.78539
G1 X-43.084 Y-34.82 E45.81693
G1 X-51.062 Y-34.82 E46.21496
G1 X-51.809 Y-34.86 E46.25228
G1 X-52.547 Y-34.979 E46.28957
G1 X-53.269 Y-35.177 E46.32692
G1 X-53.965 Y-35.45 E46.36422
G1 X-54.628 Y-35.797 E46.40156
G1 X-55.251 Y-36.212 E46.4389
G1 X-56.012 Y-36.87 E46.48909
G1 X-56.129 Y-36.987 E46.49735
G1 X-56.629 Y-37.544 E46.53469
G1 X-57.066 Y-38.15 E46.57197
G1 X-57.437 Y-38.8 E46.60931
G1 X-57.736 Y-39.486 E46.64664
G1 X-57.96 Y-40.2 E46.68397
G1 X-58.107 Y-40.933 E46.72127
G1 X-58.179 Y-41.937 E46.77149
G1 X-58.179 Y-109.703 E50.15235
G1 X-58.139 Y-110.45 E50.18967
G1 X-58.02 Y-111.188 E50.22697
G1 X-57.822 Y-111.91 E50.26432
G1 X-57.549 Y-112.606 E50.30161
G1 X-57.202 Y-113.269 E50.33895
G1 X-56.787 Y-113.892 E50.37629
G1 X-56.129 Y-114.653 E50.42649
G1 X-56.012 Y-114.77 E50.43474
G1 X-55.455 Y-115.27 E50.47208
G1 X-54.849 Y-115.707 E50.50936
G1 X-54.199 Y-116.078 E50.5467
G1 X-53.513 Y-116.377 E50.58403
G1 X-52.799 Y-116.601 E50.62136
G1 X-52.066 Y-116.748 E50.65866
G1 X-51.062 Y-116.82 E50.70888
G1 X-43.079 Y-116.82 E51.10715
G1 X-43.02 Y-117.188 E51.12575
G1 X-42.822 Y-117.91 E51.1631
G1 X-42.549 Y-118.606 E51.2004
G1 X-42.202 Y-119.269 E51.23773
G1 X-41.787 Y-119.892 E51.27508
G1 X-41.129 Y-120.653 E51.32527
G1 X-41.012 Y-120.77 E51.33352
G1 X-40.455 Y-121.27 E51.37087
G1 X-39.849 Y-121.707 E51.40814
G1 X-39.199 Y-122.078 E51.44548
G1 X-38.513 Y-122.377 E51.48281
G1 X-37.799 Y-122.601 E51.52015
G1 X-37.066 Y-122.748 E51.55745
G1 X-36.062 Y-122.82 E51.60766
G1 X43.704 Y-122.82 E55.58721
G1 X44.451 Y-122.78 E55.62453
G1 X45.189 Y-122.661 E55.66182
G1 X45.911 Y-122.463 E55.69917
G1 X46.607 Y-122.19 E55.73647
G1 X47.27 Y-121.843 E55.77381
G1 X47.893 Y-121.428 E55.81115
G1 X48.654 Y-120.77 E55.86134
G1 X48.771 Y-120.653 E55.8696
G1 X49.271 Y-120.096 E55.90694
G1 X49.708 Y-119.49 E55.94421
G1 X50.079 Y-118.84 E55.98155
G1 X50.378 Y-118.154 E56.01889
G1 X50.602 Y-117.44 E56.05622
G1 X50.726 Y-116.82 E56.08777
G1 X58.704 Y-116.82 E56.48579
G1 X59.451 Y-116.78 E56.52311
G1 X60.189 Y-116.661 E56.56041
G1 X60.911 Y-116.463 E56.59776
G1 X61.607 Y-116.19 E56.63506
G1 X62.27 Y-115.843 E56.67239
G1 X62.893 Y-115.428 E56.70974
G1 X63.654 Y-114.77 E56.75993
G1 X63.771 Y-114.653 E56.76818
G1 X64.271 Y-114.096 E56.80552
G1 X64.708 Y-113.49 E56.8428
G1 X65.079 Y-112.84 E56.88014
G1 X65.378 Y-112.154 E56.91747
G1 X65.602 Y-111.44 E56.95481
G1 X65.749 Y-110.707 E56.9921
G1 X65.821 Y-109.703 E57.04232
G1 X65.821 Y-41.937 E60.42318
G1 X65.781 Y-41.19 E60.4605
G1 X65.662 Y-40.452 E60.4978
G1 X65.464 Y-39.73 E60.53515
G1 X65.191 Y-39.034 E60.57245
G1 X64.844 Y-38.371 E60.60978
G1 X64.429 Y-37.748 E60.64713
G1 X63.771 Y-36.987 E60.69732
G1 X63.654 Y-36.87 E60.70557
G1 X63.097 Y-36.37 E60.74292
G1 X62.491 Y-35.933 E60.78019
G1 X61.841 Y-35.562 E60.81753
G1 X61.155 Y-35.263 E60.85486
G1 X60.441 Y-35.039 E60.8922
G1 X59.708 Y-34.892 E60.92949
G1 X58.704 Y-34.82 E60.97971
G1 X49.721 Y-34.82 E61.42788
G1 X49.662 Y-34.452 E61.44647
G1 X49.464 Y-33.73 E61.48382
G1 X49.191 Y-33.034 E61.52112
G1 X48.844 Y-32.371 E61.55845
G1 X48.429 Y-31.748 E61.5958
G1 X47.771 Y-30.987 E61.64599
G1 X47.654 Y-30.87 E61.65425
G1 X47.097 Y-30.37 E61.69159
G1 X46.491 Y-29.933 E61.72886
G1 X45.841 Y-29.562 E61.7662
G1 X45.155 Y-29.263 E61.80354
G1 X44.441 Y-29.039 E61.84087
G1 X43.708 Y-28.892 E61.87817
G1 X42.704 Y-28.82 E61.92839
G1 X30.821 Y-28.82 E62.52123
G1 X30.821 Y-20.937 E62.91452
G1 X30.781 Y-20.19 E62.95184
G1 X30.662 Y-19.452 E62.98913
G1 X30.464 Y-18.73 E63.02648
G1 X30.191 Y-18.034 E63.06378
G1 X29.844 Y-17.371 E63.10112
G1 X29.429 Y-16.748 E63.13846
G1 X28.771 Y-15.987 E63.18865
G1 X28.654 Y-15.87 E63.19691
G1 X28.097 Y-15.37 E63.23425
G1 X27.491 Y-14.933 E63.27152
G1 X26.841 Y-14.562 E63.30886
G1 X26.155 Y-14.263 E63.3462
G1 X25.441 Y-14.039 E63.38353
G1 X24.708 Y-13.892 E63.42083
G1 X23.704 Y-13.82 E63.47105
G1 X-16.062 Y-13.82 E65.45498
G0 F3600 X-16.062 Y-14.22
G1 F1800 X-16.787 Y-14.26 E65.49121
G1 X-17.504 Y-14.379 E65.52747
G1 X-18.203 Y-14.577 E65.56371
G1 X-18.876 Y-14.85 E65.59995
G1 X-19.515 Y-15.195 E65.63618
G1 X-20.112 Y-15.609 E65.67242
G1 X-20.729 Y-16.153 E65.71346
G1 X-20.846 Y-16.27 E65.72171
G1 X-21.33 Y-16.811 E65.75793
G1 X-21.753 Y-17.402 E65.79419
G1 X-22.107 Y-18.036 E65.83042
G1 X-22.39 Y-18.705 E65.86666
G1 X-22.598 Y-19.401 E65.9029
