;FLAVOR:Marlin
;TIME:7412
;Filament used: 10.3307m
;Layer height: 0.3
;MINX:-92.699
;MINY:-103.245
;MINZ:0.3
;MAXX:24.375
;MAXY:24.8
;MAXZ:15.9
;Generated with Cura_SteamEngine 4.7.1
M140 S50
M105
M190 S50
M104 S250
M105
M109 S250
M82 ;absolute extrusion mode
G28 ;Home
G1 Z15.0 F6000 ;Move the platform down 15mm
;Prime the extruder
G92 E0
G1 F200 E3
G92 E0
G92 E0
G92 E0
G1 F1500 E-6.5
;LAYER_COUNT:53
;LAYER:0
M107
G0 F3600 X-69.156 Y-14.476 Z0.3
;TYPE:SKIRT
G1 F1500 E0
G1 F1800 X-69.215 Y-15.043 E0.02844
G1 X-69.225 Y-15.445 E0.0485
G1 X-69.225 Y-19.645 E0.25804
G1 X-73.168 Y-19.645 E0.45476
G1 X-73.109 Y-19.078 E0.4832
G1 X-73.099 Y-18.676 E0.50326
G1 X-73.099 Y-14.476 E0.7128
G1 X-69.156 Y-14.476 E0.90952
G0 F3600 X-68.776 Y-14.596
G1 F1800 X-68.825 Y-15.445 E0.95194
G1 X-68.825 Y-20.045 E1.18144
G1 X-73.636 Y-20.045 E1.42146
G1 X-73.548 Y-19.525 E1.44777
G1 X-73.499 Y-18.676 E1.4902
G1 X-73.499 Y-14.076 E1.71969
G1 X-68.688 Y-14.076 E1.95972
G1 X-68.776 Y-14.596 E1.98603
G0 F3600 X-68.406 Y-14.928
G1 F1800 X-68.425 Y-15.445 E2.01184
G1 X-68.425 Y-20.445 E2.26129
G1 X-74.135 Y-20.445 E2.54616
G1 X-74.013 Y-19.935 E2.57233
G1 X-73.918 Y-19.193 E2.60965
G1 X-73.899 Y-18.676 E2.63546
G1 X-73.899 Y-13.676 E2.88491
G1 X-68.189 Y-13.676 E3.16978
G1 X-68.311 Y-14.186 E3.19594
G1 X-68.406 Y-14.928 E3.23326
G0 F3600 X-67.961 Y-14.528
G1 F1800 X-68.025 Y-15.445 E3.27912
G1 X-68.025 Y-20.845 E3.54853
G1 X-74.673 Y-20.845 E3.8802
G1 X-74.503 Y-20.305 E3.90844
G1 X-74.363 Y-19.593 E3.94465
G1 X-74.299 Y-18.676 E3.99051
G1 X-74.299 Y-13.276 E4.25991
G1 X-67.651 Y-13.276 E4.59158
G1 X-67.821 Y-13.816 E4.61983
G1 X-67.961 Y-14.528 E4.65603
G0 F3600 X-67.598 Y-14.864
G1 F1800 X-67.625 Y-15.445 E4.68505
G1 X-67.625 Y-21.245 E4.97441
G1 X-75.259 Y-21.245 E5.35527
G1 X-75.016 Y-20.633 E5.38813
G1 X-74.832 Y-19.953 E5.42327
G1 X-74.726 Y-19.257 E5.45839
G1 X-74.699 Y-18.676 E5.48741
G1 X-74.699 Y-12.876 E5.77678
G1 X-67.065 Y-12.876 E6.15764
G1 X-67.308 Y-13.488 E6.19049
G1 X-67.492 Y-14.168 E6.22563
G1 X-67.598 Y-14.864 E6.26076
G0 F3600 X-67.15 Y-14.514
G1 F1800 X-67.225 Y-15.445 E6.30736
G1 X-67.225 Y-21.645 E6.61668
G1 X-75.924 Y-21.645 E7.05067
G1 X-75.847 Y-21.526 E7.05774
G1 X-75.548 Y-20.914 E7.09172
G1 X-75.323 Y-20.272 E7.12566
G1 X-75.174 Y-19.607 E7.15966
G1 X-75.099 Y-18.676 E7.20626
G1 X-75.099 Y-12.476 E7.51558
G1 X-66.4 Y-12.476 E7.94958
G1 X-66.477 Y-12.595 E7.95665
G1 X-66.776 Y-13.207 E7.99063
G1 X-67.001 Y-13.849 E8.02457
G1 X-67.15 Y-14.514 E8.05857
G0 F3600 X-66.792 Y-14.852
G1 F1800 X-66.825 Y-15.445 E8.0882
G1 X-66.825 Y-22.045 E8.41747
G1 X-76.691 Y-22.045 E8.90969
G1 X-76.433 Y-21.711 E8.93075
G1 X-76.097 Y-21.147 E8.9635
G1 X-75.833 Y-20.545 E8.99629
G1 X-75.643 Y-19.916 E9.02908
G1 X-75.532 Y-19.269 E9.06183
G1 X-75.499 Y-18.676 E9.09146
G1 X-75.499 Y-12.076 E9.42073
G1 X-65.633 Y-12.076 E9.91295
G1 X-65.891 Y-12.41 E9.934
G1 X-66.227 Y-12.974 E9.96676
G1 X-66.491 Y-13.576 E9.99955
G1 X-66.681 Y-14.205 E10.03233
G1 X-66.792 Y-14.852 E10.06508
G0 F3600 X-66.345 Y-14.554
G1 F1800 X-66.425 Y-15.445 E10.10972
G1 X-66.425 Y-22.445 E10.45895
G1 X-77.425 Y-22.445 E11.00774
G1 X-77.644 Y-22.459 E11.01869
G1 X-77.458 Y-22.303 E11.0308
G1 X-77.028 Y-21.84 E11.06232
G1 X-76.659 Y-21.326 E11.09389
G1 X-76.359 Y-20.77 E11.12541
G1 X-76.131 Y-20.181 E11.15692
G1 X-75.979 Y-19.567 E11.18848
G1 X-75.899 Y-18.676 E11.23311
G1 X-75.899 Y-11.676 E11.58234
G1 X-64.696 Y-11.676 E12.14126
G1 X-64.866 Y-11.818 E12.15231
G1 X-65.296 Y-12.281 E12.18383
G1 X-65.665 Y-12.795 E12.2154
G1 X-65.965 Y-13.351 E12.24692
G1 X-66.193 Y-13.94 E12.27843
G1 X-66.345 Y-14.554 E12.30999
G0 F3600 X-65.992 Y-14.895
G1 F1800 X-66.025 Y-15.445 E12.33748
G1 X-66.025 Y-22.845 E12.70667
G1 X-77.425 Y-22.845 E13.27541
G1 X-78.03 Y-22.885 E13.30566
G1 X-78.624 Y-23.004 E13.33589
G1 X-79.198 Y-23.2 E13.36615
G1 X-79.741 Y-23.471 E13.39642
G1 X-80.244 Y-23.81 E13.42669
G1 X-80.697 Y-24.212 E13.4569
G1 X-81.094 Y-24.67 E13.48714
G1 X-81.427 Y-25.177 E13.5174
G1 X-81.691 Y-25.723 E13.54766
G1 X-81.88 Y-26.299 E13.5779
G1 X-81.992 Y-26.895 E13.60816
G1 X-82.025 Y-27.445 E13.63565
G1 X-82.025 Y-83.445 E16.4295
G1 X-81.985 Y-84.05 E16.45975
G1 X-81.866 Y-84.644 E16.48997
G1 X-81.67 Y-85.218 E16.52023
G1 X-81.399 Y-85.761 E16.55051
G1 X-81.06 Y-86.264 E16.58077
G1 X-80.658 Y-86.717 E16.61099
G1 X-80.2 Y-87.114 E16.64123
G1 X-79.693 Y-87.447 E16.67149
G1 X-79.147 Y-87.711 E16.70175
G1 X-78.571 Y-87.9 E16.73199
G1 X-77.975 Y-88.012 E16.76225
G1 X-77.425 Y-88.045 E16.78974
G1 X-56.025 Y-88.045 E17.85739
G1 X-56.025 Y-95.445 E18.22657
G1 X-55.985 Y-96.05 E18.25682
G1 X-55.866 Y-96.644 E18.28705
G1 X-55.67 Y-97.218 E18.31731
G1 X-55.399 Y-97.761 E18.34758
G1 X-55.06 Y-98.264 E18.37785
G1 X-54.658 Y-98.717 E18.40806
G1 X-54.2 Y-99.114 E18.4383
G1 X-53.693 Y-99.447 E18.46856
G1 X-53.147 Y-99.711 E18.49882
G1 X-52.571 Y-99.9 E18.52906
G1 X-51.975 Y-100.012 E18.55932
G1 X-51.425 Y-100.045 E18.58681
G1 X-9.425 Y-100.045 E20.6822
G1 X-8.82 Y-100.005 E20.71245
G1 X-8.226 Y-99.886 E20.74267
G1 X-7.652 Y-99.69 E20.77293
G1 X-7.109 Y-99.419 E20.80321
G1 X-6.606 Y-99.08 E20.83347
G1 X-6.153 Y-98.678 E20.86369
G1 X-5.756 Y-98.22 E20.89392
G1 X-5.423 Y-97.713 E20.92419
G1 X-5.159 Y-97.167 E20.95444
G1 X-4.97 Y-96.591 E20.98469
G1 X-4.858 Y-95.995 E21.01494
G1 X-4.825 Y-95.445 E21.04243
G1 X-4.825 Y-88.045 E21.41162
G1 X16.575 Y-88.045 E22.47927
G1 X17.18 Y-88.005 E22.50952
G1 X17.774 Y-87.886 E22.53974
G1 X18.348 Y-87.69 E22.57
G1 X18.891 Y-87.419 E22.60028
G1 X19.394 Y-87.08 E22.63054
G1 X19.847 Y-86.678 E22.66076
G1 X20.244 Y-86.22 E22.691
G1 X20.577 Y-85.713 E22.72126
G1 X20.841 Y-85.167 E22.75152
G1 X21.03 Y-84.591 E22.78176
G1 X21.142 Y-83.995 E22.81202
G1 X21.175 Y-83.445 E22.83951
G1 X21.175 Y-27.445 E25.63336
G1 X21.135 Y-26.84 E25.66361
G1 X21.016 Y-26.246 E25.69383
G1 X20.82 Y-25.672 E25.72409
G1 X20.549 Y-25.129 E25.75437
G1 X20.21 Y-24.626 E25.78463
G1 X19.808 Y-24.173 E25.81484
G1 X19.35 Y-23.776 E25.84508
G1 X18.843 Y-23.443 E25.87535
G1 X18.297 Y-23.179 E25.9056
G1 X17.721 Y-22.99 E25.93585
G1 X17.125 Y-22.878 E25.9661
G1 X16.575 Y-22.845 E25.99359
G1 X5.175 Y-22.845 E26.56234
G1 X5.175 Y-15.445 E26.93153
G1 X5.135 Y-14.84 E26.96178
G1 X5.016 Y-14.246 E26.992
G1 X4.82 Y-13.672 E27.02226
G1 X4.549 Y-13.129 E27.05254
G1 X4.21 Y-12.626 E27.0828
G1 X3.808 Y-12.173 E27.11302
G1 X3.35 Y-11.776 E27.14326
G1 X2.843 Y-11.443 E27.17352
G1 X2.297 Y-11.179 E27.20377
G1 X1.721 Y-10.99 E27.23402
G1 X1.125 Y-10.878 E27.26427
G1 X0.575 Y-10.845 E27.29176
G1 X-57.974 Y-10.845 E30.21278
G1 X-57.583 Y-10.65 E30.23458
G1 X-57.08 Y-10.311 E30.26484
G1 X-56.627 Y-9.909 E30.29506
G1 X-56.23 Y-9.451 E30.3253
G1 X-55.897 Y-8.944 E30.35556
G1 X-55.633 Y-8.398 E30.38582
G1 X-55.444 Y-7.822 E30.41606
G1 X-55.332 Y-7.226 E30.44632
G1 X-55.299 Y-6.676 E30.47381
G1 X-55.299 Y-2.676 E30.67337
G1 X-55.339 Y-2.071 E30.70362
G1 X-55.458 Y-1.477 E30.73384
G1 X-55.654 Y-.903 E30.7641
G1 X-55.925 Y-.36 E30.79438
G1 X-56.264 Y0.143 E30.82464
G1 X-56.666 Y0.596 E30.85486
G1 X-57.124 Y0.993 E30.8851
G1 X-57.631 Y1.326 E30.91536
G1 X-58.177 Y1.59 E30.94562
G1 X-58.753 Y1.779 E30.97586
G1 X-59.299 Y1.882 E31.00358
G1 X-59.299 Y3.324 E31.07552
G1 X-59.339 Y3.929 E31.10577
G1 X-59.458 Y4.523 E31.13599
G1 X-59.654 Y5.097 E31.16626
G1 X-59.925 Y5.64 E31.19653
G1 X-60.264 Y6.143 E31.22679
G1 X-60.666 Y6.596 E31.25701
G1 X-61.124 Y6.993 E31.28725
G1 X-61.631 Y7.326 E31.31751
G1 X-62.177 Y7.59 E31.34777
G1 X-62.753 Y7.779 E31.37801
G1 X-63.349 Y7.891 E31.40827
G1 X-63.899 Y7.924 E31.43576
G1 X-67.899 Y7.924 E31.63532
G1 X-68.504 Y7.884 E31.66557
G1 X-69.098 Y7.765 E31.69579
G1 X-69.672 Y7.569 E31.72605
G1 X-70.215 Y7.298 E31.75633
G1 X-70.718 Y6.959 E31.78659
G1 X-71.171 Y6.557 E31.81681
G1 X-71.568 Y6.099 E31.84705
G1 X-71.901 Y5.592 E31.87731
G1 X-72.165 Y5.046 E31.90756
G1 X-72.354 Y4.47 E31.93781
G1 X-72.466 Y3.874 E31.96806
G1 X-72.499 Y3.324 E31.99555
G1 X-72.499 Y1.924 E32.0654
G1 X-84.899 Y1.924 E32.68404
G1 X-85.504 Y1.884 E32.71429
G1 X-86.098 Y1.765 E32.74451
G1 X-86.672 Y1.569 E32.77477
G1 X-87.215 Y1.298 E32.80505
G1 X-87.718 Y0.959 E32.83531
G1 X-88.171 Y0.557 E32.86553
G1 X-88.568 Y0.099 E32.89577
G1 X-88.901 Y-.408 E32.92603
G1 X-89.165 Y-.954 E32.95628
G1 X-89.354 Y-1.53 E32.98653
G1 X-89.466 Y-2.126 E33.01678
G1 X-89.499 Y-2.676 E33.04427
G1 X-89.499 Y-18.676 E33.84252
G1 X-89.459 Y-19.281 E33.87277
G1 X-89.34 Y-19.875 E33.90299
G1 X-89.144 Y-20.449 E33.93325
G1 X-88.873 Y-20.992 E33.96353
G1 X-88.534 Y-21.495 E33.99379
G1 X-88.132 Y-21.948 E34.024
G1 X-87.674 Y-22.345 E34.05424
G1 X-87.167 Y-22.678 E34.08451
G1 X-86.621 Y-22.942 E34.11476
G1 X-86.045 Y-23.131 E34.14501
G1 X-85.449 Y-23.243 E34.17526
G1 X-84.899 Y-23.276 E34.20275
G1 X-80.899 Y-23.276 E34.40231
G1 X-80.294 Y-23.236 E34.43256
G1 X-79.7 Y-23.117 E34.46279
G1 X-79.126 Y-22.921 E34.49305
G1 X-78.583 Y-22.65 E34.52332
G1 X-78.08 Y-22.311 E34.55358
G1 X-77.627 Y-21.909 E34.5838
G1 X-77.23 Y-21.451 E34.61404
G1 X-76.897 Y-20.944 E34.6443
G1 X-76.633 Y-20.398 E34.67456
G1 X-76.444 Y-19.822 E34.7048
G1 X-76.332 Y-19.226 E34.73506
G1 X-76.299 Y-18.676 E34.76255
G1 X-76.299 Y-11.276 E35.13174
G1 X-63.35 Y-11.276 E35.77776
G1 X-63.741 Y-11.471 E35.79956
G1 X-64.244 Y-11.81 E35.82982
G1 X-64.697 Y-12.212 E35.86004
G1 X-65.094 Y-12.67 E35.89028
G1 X-65.427 Y-13.177 E35.92054
G1 X-65.691 Y-13.723 E35.9508
G1 X-65.88 Y-14.299 E35.98104
G1 X-65.992 Y-14.895 E36.0113
G0 F3600 X-65.549 Y-14.65
G1 F1800 X-65.625 Y-15.445 E36.05114
G1 X-65.625 Y-23.245 E36.44028
G1 X-77.425 Y-23.245 E37.02899
G1 X-78.003 Y-23.285 E37.05789
G1 X-78.57 Y-23.404 E37.0868
G1 X-79.115 Y-23.6 E37.11569
G1 X-79.628 Y-23.869 E37.14459
G1 X-80.099 Y-24.206 E37.17349
G1 X-80.519 Y-24.605 E37.20239
G1 X-80.881 Y-25.058 E37.23132
G1 X-81.176 Y-25.556 E37.2602
G1 X-81.401 Y-26.09 E37.28911
G1 X-81.549 Y-26.65 E37.318
G1 X-81.625 Y-27.445 E37.35785
G1 X-81.625 Y-83.445 E40.1517
G1 X-81.585 Y-84.023 E40.1806
G1 X-81.466 Y-84.59 E40.20951
G1 X-81.27 Y-85.135 E40.2384
G1 X-81.001 Y-85.648 E40.2673
G1 X-80.664 Y-86.119 E40.2962
G1 X-80.265 Y-86.539 E40.3251
G1 X-79.812 Y-86.901 E40.35403
G1 X-79.314 Y-87.196 E40.3829
G1 X-78.78 Y-87.421 E40.41181
G1 X-78.22 Y-87.569 E40.44071
G1 X-77.425 Y-87.645 E40.48056
G1 X-55.625 Y-87.645 E41.56816
G1 X-55.625 Y-95.445 E41.95731
G1 X-55.585 Y-96.023 E41.98621
G1 X-55.466 Y-96.59 E42.01511
G1 X-55.27 Y-97.135 E42.04401
G1 X-55.001 Y-97.648 E42.07291
G1 X-54.664 Y-98.119 E42.1018
G1 X-54.265 Y-98.539 E42.1307
G1 X-53.812 Y-98.901 E42.15963
G1 X-53.314 Y-99.196 E42.18851
G1 X-52.78 Y-99.421 E42.21742
G1 X-52.22 Y-99.569 E42.24632
G1 X-51.425 Y-99.645 E42.28616
G1 X-9.425 Y-99.645 E44.38155
G1 X-8.847 Y-99.605 E44.41046
G1 X-8.28 Y-99.486 E44.43936
G1 X-7.735 Y-99.29 E44.46826
G1 X-7.222 Y-99.021 E44.49715
G1 X-6.751 Y-98.684 E44.52605
G1 X-6.331 Y-98.285 E44.55495
G1 X-5.969 Y-97.832 E44.58388
G1 X-5.674 Y-97.334 E44.61276
G1 X-5.449 Y-96.8 E44.64167
G1 X-5.301 Y-96.24 E44.67056
G1 X-5.225 Y-95.445 E44.71041
G1 X-5.225 Y-87.645 E45.09955
G1 X16.575 Y-87.645 E46.18716
G1 X17.153 Y-87.605 E46.21606
G1 X17.72 Y-87.486 E46.24497
G1 X18.265 Y-87.29 E46.27386
G1 X18.778 Y-87.021 E46.30276
G1 X19.249 Y-86.684 E46.33166
G1 X19.669 Y-86.285 E46.36056
G1 X20.031 Y-85.832 E46.38949
G1 X20.326 Y-85.334 E46.41836
G1 X20.551 Y-84.8 E46.44727
G1 X20.699 Y-84.24 E46.47617
G1 X20.775 Y-83.445 E46.51602
G1 X20.775 Y-27.445 E49.30987
G1 X20.735 Y-26.867 E49.33877
G1 X20.616 Y-26.3 E49.36768
G1 X20.42 Y-25.755 E49.39657
G1 X20.151 Y-25.242 E49.42547
G1 X19.814 Y-24.771 E49.45436
G1 X19.415 Y-24.351 E49.48327
G1 X18.962 Y-23.989 E49.5122
G1 X18.464 Y-23.694 E49.54107
G1 X17.93 Y-23.469 E49.56998
G1 X17.37 Y-23.321 E49.59888
G1 X16.575 Y-23.245 E49.63872
G1 X4.775 Y-23.245 E50.22743
G1 X4.775 Y-15.445 E50.61657
G1 X4.735 Y-14.867 E50.64548
G1 X4.616 Y-14.3 E50.67438
G1 X4.42 Y-13.755 E50.70328
G1 X4.151 Y-13.242 E50.73218
G1 X3.814 Y-12.771 E50.76107
G1 X3.415 Y-12.351 E50.78997
G1 X2.962 Y-11.989 E50.8189
G1 X2.464 Y-11.694 E50.84778
G1 X1.93 Y-11.469 E50.87669
G1 X1.37 Y-11.321 E50.90559
G1 X0.575 Y-11.245 E50.94543
G1 X-61.425 Y-11.245 E54.03862
G1 X-62.003 Y-11.285 E54.06753
G1 X-62.57 Y-11.404 E54.09643
G1 X-63.115 Y-11.6 E54.12533
G1 X-63.628 Y-11.869 E54.15423
G1 X-64.099 Y-12.206 E54.18312
G1 X-64.519 Y-12.605 E54.21202
G1 X-64.881 Y-13.058 E54.24095
G1 X-65.176 Y-13.556 E54.26983
G1 X-65.401 Y-14.09 E54.29874
G1 X-65.549 Y-14.65 E54.32764
G0 F3600 X-65.198 Y-14.992
G1 F1800 X-65.225 Y-15.445 E54.35028
G1 X-65.225 Y-23.645 E54.75938
G1 X-77.425 Y-23.645 E55.36804
G1 X-77.975 Y-23.685 E55.39555
G1 X-78.513 Y-23.804 E55.42304
G1 X-79.028 Y-24 E55.45053
G1 X-79.509 Y-24.268 E55.478
G1 X-79.947 Y-24.602 E55.50548
G1 X-80.331 Y-24.997 E55.53296
G1 X-80.655 Y-25.443 E55.56047
G1 X-80.91 Y-25.931 E55.58794
G1 X-81.093 Y-26.451 E55.61544
G1 X-81.198 Y-26.992 E55.64293
G1 X-81.225 Y-27.445 E55.66557
G1 X-81.225 Y-83.445 E58.45943
G1 X-81.185 Y-83.995 E58.48694
G1 X-81.066 Y-84.533 E58.51443
G1 X-80.87 Y-85.048 E58.54192
G1 X-80.602 Y-85.529 E58.56939
G1 X-80.268 Y-85.967 E58.59687
G1 X-79.873 Y-86.351 E58.62435
G1 X-79.427 Y-86.675 E58.65186
G1 X-78.939 Y-86.93 E58.67933
G1 X-78.419 Y-87.113 E58.70683
G1 X-77.878 Y-87.218 E58.73432
G1 X-77.425 Y-87.245 E58.75696
G1 X-55.225 Y-87.245 E59.86453
G1 X-55.225 Y-95.445 E60.27363
G1 X-55.185 Y-95.995 E60.30114
G1 X-55.066 Y-96.533 E60.32863
G1 X-54.87 Y-97.048 E60.35612
G1 X-54.602 Y-97.529 E60.38359
G1 X-54.268 Y-97.967 E60.41107
G1 X-53.873 Y-98.351 E60.43855
G1 X-53.427 Y-98.675 E60.46606
G1 X-52.939 Y-98.93 E60.49353
G1 X-52.419 Y-99.113 E60.52103
G1 X-51.878 Y-99.218 E60.54852
G1 X-51.425 Y-99.245 E60.57116
G1 X-9.425 Y-99.245 E62.66655
G1 X-8.875 Y-99.205 E62.69406
G1 X-8.337 Y-99.086 E62.72155
G1 X-7.822 Y-98.89 E62.74905
G1 X-7.341 Y-98.622 E62.77652
G1 X-6.903 Y-98.288 E62.804
G1 X-6.519 Y-97.893 E62.83148
G1 X-6.195 Y-97.447 E62.85898
G1 X-5.94 Y-96.959 E62.88645
G1 X-5.757 Y-96.439 E62.91396
G1 X-5.652 Y-95.898 E62.94145
G1 X-5.625 Y-95.445 E62.96409
G1 X-5.625 Y-87.245 E63.37319
G1 X16.575 Y-87.245 E64.48075
G1 X17.125 Y-87.205 E64.50826
G1 X17.663 Y-87.086 E64.53575
G1 X18.178 Y-86.89 E64.56325
G1 X18.659 Y-86.622 E64.59072
G1 X19.097 Y-86.288 E64.6182
G1 X19.481 Y-85.893 E64.64568
G1 X19.805 Y-85.447 E64.67318
G1 X20.06 Y-84.959 E64.70065
G1 X20.243 Y-84.439 E64.72816
G1 X20.348 Y-83.898 E64.75565
G1 X20.375 Y-83.445 E64.77829
G1 X20.375 Y-27.445 E67.57214
G1 X20.335 Y-26.895 E67.59965
G1 X20.216 Y-26.357 E67.62714
G1 X20.02 Y-25.842 E67.65464
G1 X19.752 Y-25.361 E67.68211
G1 X19.418 Y-24.923 E67.70959
G1 X19.023 Y-24.539 E67.73707
G1 X18.577 Y-24.215 E67.76457
G1 X18.089 Y-23.96 E67.79204
G1 X17.569 Y-23.777 E67.81955
G1 X17.028 Y-23.672 E67.84704
G1 X16.575 Y-23.645 E67.86968
G1 X4.375 Y-23.645 E68.47834
G1 X4.375 Y-15.445 E68.88744
G1 X4.335 Y-14.895 E68.91495
G1 X4.216 Y-14.357 E68.94244
G1 X4.02 Y-13.842 E68.96993
G1 X3.752 Y-13.361 E68.9974
G1 X3.418 Y-12.923 E69.02488
G1 X3.023 Y-12.539 E69.05237
G1 X2.577 Y-12.215 E69.07987
G1 X2.089 Y-11.96 E69.10734
G1 X1.569 Y-11.777 E69.13484
G1 X1.028 Y-11.672 E69.16234
G1 X0.575 Y-11.645 E69.18498
G1 X-61.425 Y-11.645 E72.27817
G1 X-61.975 Y-11.685 E72.30568
G1 X-62.513 Y-11.804 E72.33317
G1 X-63.028 Y-12 E72.36066
G1 X-63.509 Y-12.268 E72.38813
G1 X-63.947 Y-12.602 E72.41561
G1 X-64.331 Y-12.997 E72.4431
G1 X-64.655 Y-13.443 E72.4706
G1 X-64.91 Y-13.931 E72.49807
G1 X-65.093 Y-14.451 E72.52557
G1 X-65.198 Y-14.992 E72.55307
G0 F3600 X-64.764 Y-14.803
G1 F1800 X-64.825 Y-15.445 E72.58524
G1 X-64.825 Y-24.045 E73.0143
G1 X-77.425 Y-24.045 E73.64291
G1 X-77.945 Y-24.085 E73.66893
G1 X-78.452 Y-24.204 E73.69492
G1 X-78.935 Y-24.399 E73.7209
G1 X-79.383 Y-24.665 E73.7469
G1 X-79.785 Y-24.997 E73.77291
G1 X-80.131 Y-25.387 E73.79892
G1 X-80.414 Y-25.825 E73.82493
G1 X-80.627 Y-26.3 E73.85091
G1 X-80.764 Y-26.803 E73.87691
G1 X-80.825 Y-27.445 E73.90909
G1 X-80.825 Y-83.445 E76.70294
G1 X-80.785 Y-83.965 E76.72896
G1 X-80.666 Y-84.472 E76.75494
