;FLAVOR:Marlin
;TIME:6749
;Filament used: 9.46415m
;Layer height: 0.3
;MINX:-64.8
;MINY:-106.235
;MINZ:0.3
;MAXX:44.8
;MAXY:18.8
;MAXZ:15.9
;Generated with Cura_SteamEngine 4.7.1
M140 S50
M105
M190 S50
M104 S250
M105
M109 S250
M82 ;absolute extrusion mode
G28 ;Home
G1 Z15.0 F6000 ;Move the platform down 15mm
;Prime the extruder
G92 E0
G1 F200 E3
G92 E0
G92 E0
G92 E0
G1 F1500 E-6.5
;LAYER_COUNT:53
;LAYER:0
M107
G0 F3600 X0.7 Y-6.8 Z0.3
;TYPE:SKIRT
G1 F1500 E0
G1 F1800 X0.7 Y-10.635 E0.19133
G1 X-40.883 Y-10.635 E2.26591
G1 X-41.672 Y-10.675 E2.30533
G1 X-42.452 Y-10.794 E2.34469
G1 X-43.217 Y-10.992 E2.38412
G1 X-43.957 Y-11.266 E2.42348
G1 X-44.666 Y-11.614 E2.46289
G1 X-45.337 Y-12.032 E2.50233
G1 X-45.961 Y-12.515 E2.5417
G1 X-46.398 Y-12.92 E2.57142
G1 X-46.515 Y-13.037 E2.57968
G1 X-47.045 Y-13.623 E2.6191
G1 X-47.512 Y-14.259 E2.65846
G1 X-47.913 Y-14.939 E2.69785
G1 X-48.243 Y-15.657 E2.73727
G1 X-48.498 Y-16.404 E2.77665
G1 X-48.677 Y-17.173 E2.81604
G1 X-48.777 Y-17.957 E2.85547
G1 X-48.8 Y-18.552 E2.88518
G1 X-48.8 Y-22.635 E3.08888
G1 X-56.883 Y-22.635 E3.49214
G1 X-57.672 Y-22.675 E3.53156
G1 X-58.452 Y-22.794 E3.57092
G1 X-59.217 Y-22.992 E3.61034
G1 X-59.957 Y-23.266 E3.64971
G1 X-60.666 Y-23.614 E3.68912
G1 X-61.337 Y-24.032 E3.72856
G1 X-61.961 Y-24.515 E3.76792
G1 X-62.398 Y-24.92 E3.79765
G1 X-62.515 Y-25.037 E3.8059
G1 X-63.045 Y-25.623 E3.84532
G1 X-63.512 Y-26.259 E3.88469
G1 X-63.913 Y-26.939 E3.92407
G1 X-64.243 Y-27.657 E3.9635
G1 X-64.498 Y-28.404 E4.00288
G1 X-64.677 Y-29.173 E4.04227
G1 X-64.777 Y-29.957 E4.0817
G1 X-64.8 Y-30.552 E4.11141
G1 X-64.8 Y-86.318 E6.89358
G1 X-64.76 Y-87.107 E6.933
G1 X-64.641 Y-87.887 E6.97236
G1 X-64.443 Y-88.652 E7.01179
G1 X-64.169 Y-89.392 E7.05115
G1 X-63.821 Y-90.101 E7.09056
G1 X-63.403 Y-90.772 E7.13
G1 X-62.92 Y-91.396 E7.16937
G1 X-62.515 Y-91.833 E7.19909
G1 X-62.398 Y-91.95 E7.20735
G1 X-61.812 Y-92.48 E7.24676
G1 X-61.176 Y-92.947 E7.28613
G1 X-60.496 Y-93.348 E7.32552
G1 X-59.778 Y-93.678 E7.36494
G1 X-59.031 Y-93.933 E7.40432
G1 X-58.262 Y-94.112 E7.44371
G1 X-57.478 Y-94.212 E7.48314
G1 X-56.883 Y-94.235 E7.51285
G1 X-38.8 Y-94.235 E8.41501
G1 X-38.8 Y-98.318 E8.61871
G1 X-38.76 Y-99.107 E8.65813
G1 X-38.641 Y-99.887 E8.69749
G1 X-38.443 Y-100.652 E8.73692
G1 X-38.169 Y-101.392 E8.77628
G1 X-37.821 Y-102.101 E8.81569
G1 X-37.403 Y-102.772 E8.85513
G1 X-36.92 Y-103.396 E8.8945
G1 X-36.515 Y-103.833 E8.92422
G1 X-36.398 Y-103.95 E8.93248
G1 X-35.812 Y-104.48 E8.9719
G1 X-35.176 Y-104.947 E9.01126
G1 X-34.496 Y-105.348 E9.05065
G1 X-33.778 Y-105.678 E9.09007
G1 X-33.031 Y-105.933 E9.12945
G1 X-32.262 Y-106.112 E9.16884
G1 X-31.478 Y-106.212 E9.20827
G1 X-30.883 Y-106.235 E9.23798
G1 X10.883 Y-106.235 E11.32169
G1 X11.672 Y-106.195 E11.36111
G1 X12.452 Y-106.076 E11.40047
G1 X13.217 Y-105.878 E11.43989
G1 X13.957 Y-105.604 E11.47926
G1 X14.666 Y-105.256 E11.51867
G1 X15.337 Y-104.838 E11.55811
G1 X15.961 Y-104.355 E11.59747
G1 X16.398 Y-103.95 E11.6272
G1 X16.515 Y-103.833 E11.63545
G1 X17.045 Y-103.247 E11.67487
G1 X17.512 Y-102.611 E11.71424
G1 X17.913 Y-101.931 E11.75362
G1 X18.243 Y-101.213 E11.79305
G1 X18.498 Y-100.466 E11.83243
G1 X18.677 Y-99.697 E11.87182
G1 X18.777 Y-98.913 E11.91125
G1 X18.8 Y-98.318 E11.94096
G1 X18.8 Y-94.235 E12.14466
G1 X36.883 Y-94.235 E13.04682
G1 X37.672 Y-94.195 E13.08624
G1 X38.452 Y-94.076 E13.1256
G1 X39.217 Y-93.878 E13.16502
G1 X39.957 Y-93.604 E13.20439
G1 X40.666 Y-93.256 E13.2438
G1 X41.337 Y-92.838 E13.28324
G1 X41.961 Y-92.355 E13.3226
G1 X42.398 Y-91.95 E13.35233
G1 X42.515 Y-91.833 E13.36058
G1 X43.045 Y-91.247 E13.4
G1 X43.512 Y-90.611 E13.43937
G1 X43.913 Y-89.931 E13.47875
G1 X44.243 Y-89.213 E13.51818
G1 X44.498 Y-88.466 E13.55756
G1 X44.677 Y-87.697 E13.59695
G1 X44.777 Y-86.913 E13.63638
G1 X44.8 Y-86.318 E13.66609
G1 X44.8 Y-30.552 E16.44826
G1 X44.76 Y-29.763 E16.48768
G1 X44.641 Y-28.983 E16.52704
G1 X44.443 Y-28.218 E16.56647
G1 X44.169 Y-27.478 E16.60583
G1 X43.821 Y-26.769 E16.64524
G1 X43.403 Y-26.098 E16.68468
G1 X42.92 Y-25.474 E16.72405
G1 X42.515 Y-25.037 E16.75377
G1 X42.398 Y-24.92 E16.76203
G1 X41.812 Y-24.39 E16.80145
G1 X41.176 Y-23.923 E16.84081
G1 X40.496 Y-23.522 E16.8802
G1 X39.778 Y-23.192 E16.91962
G1 X39.031 Y-22.937 E16.959
G1 X38.262 Y-22.758 E16.99839
G1 X37.478 Y-22.658 E17.03782
G1 X36.883 Y-22.635 E17.06753
G1 X28.8 Y-22.635 E17.47079
G1 X28.8 Y-18.552 E17.67449
G1 X28.76 Y-17.763 E17.71391
G1 X28.641 Y-16.983 E17.75327
G1 X28.443 Y-16.218 E17.79269
G1 X28.169 Y-15.478 E17.83206
G1 X27.821 Y-14.769 E17.87147
G1 X27.403 Y-14.098 E17.91091
G1 X26.92 Y-13.474 E17.95027
G1 X26.515 Y-13.037 E17.98
G1 X26.398 Y-12.92 E17.98825
G1 X25.812 Y-12.39 E18.02767
G1 X25.176 Y-11.923 E18.06704
G1 X24.496 Y-11.522 E18.10642
G1 X23.778 Y-11.192 E18.14585
G1 X23.031 Y-10.937 E18.18523
G1 X22.262 Y-10.758 E18.22462
G1 X21.478 Y-10.658 E18.26405
G1 X20.883 Y-10.635 E18.29376
G1 X20.3 Y-10.635 E18.32284
G1 X20.3 Y4.883 E19.09704
G1 X20.26 Y5.672 E19.13645
G1 X20.141 Y6.452 E19.17582
G1 X19.943 Y7.217 E19.21524
G1 X19.669 Y7.957 E19.25461
G1 X19.321 Y8.666 E19.29401
G1 X18.903 Y9.337 E19.33345
G1 X18.42 Y9.961 E19.37282
G1 X18.015 Y10.398 E19.40255
G1 X17.898 Y10.515 E19.4108
G1 X17.312 Y11.045 E19.45022
G1 X16.676 Y11.512 E19.48959
G1 X15.996 Y11.913 E19.52897
G1 X15.278 Y12.243 E19.56839
G1 X14.531 Y12.498 E19.60777
G1 X13.762 Y12.677 E19.64716
G1 X12.978 Y12.777 E19.6866
G1 X12.383 Y12.8 E19.7163
G1 X3.051 Y12.8 E20.18188
G1 X2.943 Y13.217 E20.20337
G1 X2.669 Y13.957 E20.24274
G1 X2.321 Y14.666 E20.28214
G1 X1.903 Y15.337 E20.32158
G1 X1.42 Y15.961 E20.36095
G1 X1.015 Y16.398 E20.39067
G1 X0.898 Y16.515 E20.39893
G1 X0.312 Y17.045 E20.43835
G1 X-.324 Y17.512 E20.47771
G1 X-1.004 Y17.913 E20.5171
G1 X-1.722 Y18.243 E20.55652
G1 X-2.469 Y18.498 E20.5959
G1 X-3.238 Y18.677 E20.63529
G1 X-4.022 Y18.777 E20.67472
G1 X-4.617 Y18.8 E20.70443
G1 X-8.383 Y18.8 E20.89232
G1 X-9.172 Y18.76 E20.93173
G1 X-9.952 Y18.641 E20.9711
G1 X-10.717 Y18.443 E21.01052
G1 X-11.457 Y18.169 E21.04989
G1 X-12.166 Y17.821 E21.08929
G1 X-12.837 Y17.403 E21.12873
G1 X-13.461 Y16.92 E21.1681
G1 X-13.898 Y16.515 E21.19782
G1 X-14.015 Y16.398 E21.20608
G1 X-14.545 Y15.812 E21.2455
G1 X-15.012 Y15.176 E21.28486
G1 X-15.413 Y14.496 E21.32425
G1 X-15.743 Y13.778 E21.36367
G1 X-15.998 Y13.031 E21.40305
G1 X-16.177 Y12.262 E21.44244
G1 X-16.239 Y11.775 E21.46694
G1 X-16.837 Y11.403 E21.50207
G1 X-17.461 Y10.92 E21.54144
G1 X-17.898 Y10.515 E21.57116
G1 X-18.015 Y10.398 E21.57942
G1 X-18.545 Y9.812 E21.61884
G1 X-19.012 Y9.176 E21.6582
G1 X-19.413 Y8.496 E21.69759
G1 X-19.743 Y7.778 E21.73701
G1 X-19.998 Y7.031 E21.77639
G1 X-20.177 Y6.262 E21.81578
G1 X-20.277 Y5.478 E21.85521
G1 X-20.3 Y4.883 E21.88492
G1 X-20.3 Y1.117 E22.07281
G1 X-20.26 Y0.328 E22.11222
G1 X-20.141 Y-.452 E22.15159
G1 X-19.943 Y-1.217 E22.19101
G1 X-19.669 Y-1.957 E22.23038
G1 X-19.321 Y-2.666 E22.26978
G1 X-18.903 Y-3.337 E22.30922
G1 X-18.42 Y-3.961 E22.34859
G1 X-18.015 Y-4.398 E22.37832
G1 X-17.898 Y-4.515 E22.38657
G1 X-17.312 Y-5.045 E22.42599
G1 X-16.676 Y-5.512 E22.46536
G1 X-15.996 Y-5.913 E22.50474
G1 X-15.278 Y-6.243 E22.54416
G1 X-14.531 Y-6.498 E22.58354
G1 X-13.762 Y-6.677 E22.62293
G1 X-12.978 Y-6.777 E22.66237
G1 X-12.383 Y-6.8 E22.69207
G1 X0.7 Y-6.8 E23.34479
G0 F3600 X1.1 Y-6.4
G1 F1800 X1.1 Y-10.883 E23.56844
G1 X1.108 Y-11.035 E23.57604
G1 X-40.883 Y-11.035 E25.67098
G1 X-41.651 Y-11.075 E25.70934
G1 X-42.411 Y-11.194 E25.74772
G1 X-43.154 Y-11.392 E25.78608
G1 X-43.873 Y-11.666 E25.82447
G1 X-44.559 Y-12.013 E25.86283
G1 X-45.206 Y-12.429 E25.9012
G1 X-45.806 Y-12.91 E25.93957
G1 X-46.233 Y-13.319 E25.96907
G1 X-46.747 Y-13.891 E26.00743
G1 X-47.2 Y-14.513 E26.04582
G1 X-47.586 Y-15.178 E26.08418
G1 X-47.901 Y-15.88 E26.12257
G1 X-48.141 Y-16.611 E26.16096
G1 X-48.304 Y-17.362 E26.19929
G1 X-48.388 Y-18.127 E26.23769
G1 X-48.4 Y-18.552 E26.2589
G1 X-48.4 Y-23.035 E26.48256
G1 X-56.883 Y-23.035 E26.90578
G1 X-57.651 Y-23.075 E26.94415
G1 X-58.411 Y-23.194 E26.98252
G1 X-59.154 Y-23.392 E27.02089
G1 X-59.873 Y-23.666 E27.05927
G1 X-60.559 Y-24.013 E27.09763
G1 X-61.206 Y-24.429 E27.136
G1 X-61.806 Y-24.91 E27.17437
G1 X-62.233 Y-25.319 E27.20387
G1 X-62.747 Y-25.891 E27.24223
G1 X-63.2 Y-26.513 E27.28062
G1 X-63.586 Y-27.178 E27.31898
G1 X-63.901 Y-27.88 E27.35737
G1 X-64.141 Y-28.611 E27.39576
G1 X-64.304 Y-29.362 E27.4341
G1 X-64.388 Y-30.127 E27.47249
G1 X-64.4 Y-30.552 E27.4937
G1 X-64.4 Y-86.318 E30.27588
G1 X-64.36 Y-87.086 E30.31425
G1 X-64.241 Y-87.846 E30.35263
G1 X-64.043 Y-88.589 E30.39099
G1 X-63.769 Y-89.308 E30.42938
G1 X-63.422 Y-89.994 E30.46773
G1 X-63.006 Y-90.641 E30.50611
G1 X-62.525 Y-91.241 E30.54447
G1 X-62.116 Y-91.668 E30.57397
G1 X-61.544 Y-92.182 E30.61234
G1 X-60.922 Y-92.635 E30.65073
G1 X-60.257 Y-93.021 E30.68909
G1 X-59.555 Y-93.336 E30.72747
G1 X-58.824 Y-93.576 E30.76586
G1 X-58.073 Y-93.739 E30.8042
G1 X-57.308 Y-93.823 E30.84259
G1 X-56.883 Y-93.835 E30.86381
G1 X-38.4 Y-93.835 E31.78593
G1 X-38.4 Y-98.318 E32.00959
G1 X-38.36 Y-99.086 E32.04795
G1 X-38.241 Y-99.846 E32.08633
G1 X-38.043 Y-100.589 E32.12469
G1 X-37.769 Y-101.308 E32.16308
G1 X-37.422 Y-101.994 E32.20143
G1 X-37.006 Y-102.641 E32.23981
G1 X-36.525 Y-103.241 E32.27818
G1 X-36.116 Y-103.668 E32.30767
G1 X-35.544 Y-104.182 E32.34604
G1 X-34.922 Y-104.635 E32.38443
G1 X-34.257 Y-105.021 E32.42279
G1 X-33.555 Y-105.336 E32.46118
G1 X-32.824 Y-105.576 E32.49956
G1 X-32.073 Y-105.739 E32.5379
G1 X-31.308 Y-105.823 E32.5763
G1 X-30.883 Y-105.835 E32.59751
G1 X10.883 Y-105.835 E34.68122
G1 X11.651 Y-105.795 E34.71959
G1 X12.411 Y-105.676 E34.75797
G1 X13.154 Y-105.478 E34.79633
G1 X13.873 Y-105.204 E34.83472
G1 X14.559 Y-104.857 E34.87307
G1 X15.206 Y-104.441 E34.91145
G1 X15.806 Y-103.96 E34.94982
G1 X16.233 Y-103.551 E34.97931
G1 X16.747 Y-102.979 E35.01768
G1 X17.2 Y-102.357 E35.05607
G1 X17.586 Y-101.692 E35.09443
G1 X17.901 Y-100.99 E35.13282
G1 X18.141 Y-100.259 E35.1712
G1 X18.304 Y-99.508 E35.20954
G1 X18.388 Y-98.743 E35.24794
G1 X18.4 Y-98.318 E35.26915
G1 X18.4 Y-93.835 E35.49281
G1 X36.883 Y-93.835 E36.41493
G1 X37.651 Y-93.795 E36.4533
G1 X38.411 Y-93.676 E36.49167
G1 X39.154 Y-93.478 E36.53004
G1 X39.873 Y-93.204 E36.56842
G1 X40.559 Y-92.857 E36.60678
G1 X41.206 Y-92.441 E36.64515
G1 X41.806 Y-91.96 E36.68352
G1 X42.233 Y-91.551 E36.71302
G1 X42.747 Y-90.979 E36.75138
G1 X43.2 Y-90.357 E36.78977
G1 X43.586 Y-89.692 E36.82813
G1 X43.901 Y-88.99 E36.86652
G1 X44.141 Y-88.259 E36.90491
G1 X44.304 Y-87.508 E36.94325
G1 X44.388 Y-86.743 E36.98164
G1 X44.4 Y-86.318 E37.00285
G1 X44.4 Y-30.552 E39.78503
G1 X44.36 Y-29.784 E39.8234
G1 X44.241 Y-29.024 E39.86178
G1 X44.043 Y-28.281 E39.90014
G1 X43.769 Y-27.562 E39.93853
G1 X43.422 Y-26.876 E39.97688
G1 X43.006 Y-26.229 E40.01526
G1 X42.525 Y-25.629 E40.05362
G1 X42.116 Y-25.202 E40.08312
G1 X41.544 Y-24.688 E40.12149
G1 X40.922 Y-24.235 E40.15988
G1 X40.257 Y-23.849 E40.19824
G1 X39.555 Y-23.534 E40.23662
G1 X38.824 Y-23.294 E40.27501
G1 X38.073 Y-23.131 E40.31335
G1 X37.308 Y-23.047 E40.35175
G1 X36.883 Y-23.035 E40.37296
G1 X28.4 Y-23.035 E40.79618
G1 X28.4 Y-18.552 E41.01983
G1 X28.36 Y-17.784 E41.0582
G1 X28.241 Y-17.024 E41.09658
G1 X28.043 Y-16.281 E41.13494
G1 X27.769 Y-15.562 E41.17333
G1 X27.422 Y-14.876 E41.21168
G1 X27.006 Y-14.229 E41.25006
G1 X26.525 Y-13.629 E41.28842
G1 X26.116 Y-13.202 E41.31792
G1 X25.544 Y-12.688 E41.35629
G1 X24.922 Y-12.235 E41.39468
G1 X24.257 Y-11.849 E41.43304
G1 X23.555 Y-11.534 E41.47143
G1 X22.824 Y-11.294 E41.50981
G1 X22.073 Y-11.131 E41.54815
G1 X21.308 Y-11.047 E41.58655
G1 X20.883 Y-11.035 E41.60776
G1 X19.896 Y-11.035 E41.657
G1 X19.9 Y-10.883 E41.66459
G1 X19.9 Y4.883 E42.45116
G1 X19.86 Y5.651 E42.48952
G1 X19.741 Y6.411 E42.5279
G1 X19.543 Y7.154 E42.56626
G1 X19.269 Y7.873 E42.60465
G1 X18.922 Y8.559 E42.643
G1 X18.506 Y9.206 E42.68138
G1 X18.025 Y9.806 E42.71975
G1 X17.616 Y10.233 E42.74924
G1 X17.044 Y10.747 E42.78761
G1 X16.422 Y11.2 E42.826
G1 X15.757 Y11.586 E42.86436
G1 X15.055 Y11.901 E42.90275
G1 X14.324 Y12.141 E42.94113
G1 X13.573 Y12.304 E42.97947
G1 X12.808 Y12.388 E43.01787
G1 X12.383 Y12.4 E43.03908
G1 X2.743 Y12.4 E43.52002
G1 X2.543 Y13.154 E43.55894
G1 X2.269 Y13.873 E43.59733
G1 X1.922 Y14.559 E43.63568
G1 X1.506 Y15.206 E43.67406
G1 X1.025 Y15.806 E43.71242
G1 X0.616 Y16.233 E43.74192
G1 X0.044 Y16.747 E43.78029
G1 X-.578 Y17.2 E43.81868
G1 X-1.243 Y17.586 E43.85704
G1 X-1.945 Y17.901 E43.89543
G1 X-2.676 Y18.141 E43.93381
G1 X-3.427 Y18.304 E43.97215
G1 X-4.192 Y18.388 E44.01055
G1 X-4.617 Y18.4 E44.03176
G1 X-8.383 Y18.4 E44.21964
G1 X-9.151 Y18.36 E44.25801
G1 X-9.911 Y18.241 E44.29639
G1 X-10.654 Y18.043 E44.33475
G1 X-11.373 Y17.769 E44.37314
G1 X-12.059 Y17.422 E44.41149
G1 X-12.706 Y17.006 E44.44987
G1 X-13.306 Y16.525 E44.48823
G1 X-13.733 Y16.116 E44.51773
G1 X-14.247 Y15.544 E44.5561
G1 X-14.7 Y14.922 E44.59449
G1 X-15.086 Y14.257 E44.63285
G1 X-15.401 Y13.555 E44.67124
G1 X-15.641 Y12.824 E44.70962
G1 X-15.804 Y12.073 E44.74796
G1 X-15.865 Y11.52 E44.77572
G1 X-16.059 Y11.422 E44.78656
G1 X-16.706 Y11.006 E44.82494
G1 X-17.306 Y10.525 E44.8633
G1 X-17.733 Y10.116 E44.8928
G1 X-18.247 Y9.544 E44.93117
G1 X-18.7 Y8.922 E44.96956
G1 X-19.086 Y8.257 E45.00792
G1 X-19.401 Y7.555 E45.04631
G1 X-19.641 Y6.824 E45.08469
G1 X-19.804 Y6.073 E45.12303
G1 X-19.888 Y5.308 E45.16143
G1 X-19.9 Y4.883 E45.18264
G1 X-19.9 Y1.117 E45.37053
G1 X-19.86 Y0.349 E45.40889
G1 X-19.741 Y-.411 E45.44727
G1 X-19.543 Y-1.154 E45.48563
G1 X-19.269 Y-1.873 E45.52402
G1 X-18.922 Y-2.559 E45.56237
G1 X-18.506 Y-3.206 E45.60075
G1 X-18.025 Y-3.806 E45.63912
G1 X-17.616 Y-4.233 E45.66861
G1 X-17.044 Y-4.747 E45.70698
G1 X-16.422 Y-5.2 E45.74537
G1 X-15.757 Y-5.586 E45.78373
G1 X-15.055 Y-5.901 E45.82212
G1 X-14.324 Y-6.141 E45.8605
G1 X-13.573 Y-6.304 E45.89884
G1 X-12.808 Y-6.388 E45.93724
G1 X-12.383 Y-6.4 E45.95845
G1 X1.1 Y-6.4 E46.63112
G0 F3600 X1.5 Y-6
G1 F1800 X1.5 Y-10.883 E46.87473
G1 X1.53 Y-11.435 E46.90231
G1 X-40.883 Y-11.435 E49.01831
G1 X-41.63 Y-11.475 E49.05563
G1 X-42.368 Y-11.594 E49.09292
G1 X-43.09 Y-11.792 E49.13027
G1 X-43.786 Y-12.065 E49.16757
G1 X-44.449 Y-12.412 E49.20491
G1 X-45.072 Y-12.827 E49.24225
G1 X-45.833 Y-13.485 E49.29244
G1 X-45.95 Y-13.602 E49.3007
G1 X-46.45 Y-14.159 E49.33804
G1 X-46.887 Y-14.765 E49.37532
G1 X-47.258 Y-15.415 E49.41266
G1 X-47.557 Y-16.101 E49.44999
G1 X-47.781 Y-16.815 E49.48732
G1 X-47.928 Y-17.548 E49.52462
G1 X-48 Y-18.552 E49.57484
G1 X-48 Y-23.435 E49.81845
G1 X-56.883 Y-23.435 E50.26163
G1 X-57.63 Y-23.475 E50.29895
G1 X-58.368 Y-23.594 E50.33624
G1 X-59.09 Y-23.792 E50.37359
G1 X-59.786 Y-24.065 E50.41089
G1 X-60.449 Y-24.412 E50.44823
G1 X-61.072 Y-24.827 E50.48557
G1 X-61.833 Y-25.485 E50.53576
G1 X-61.95 Y-25.602 E50.54402
G1 X-62.45 Y-26.159 E50.58136
G1 X-62.887 Y-26.765 E50.61864
G1 X-63.258 Y-27.415 E50.65598
G1 X-63.557 Y-28.101 E50.69331
G1 X-63.781 Y-28.815 E50.73064
G1 X-63.928 Y-29.548 E50.76794
G1 X-64 Y-30.552 E50.81816
G1 X-64 Y-86.318 E53.60034
G1 X-63.96 Y-87.065 E53.63766
G1 X-63.841 Y-87.803 E53.67495
G1 X-63.643 Y-88.525 E53.7123
G1 X-63.37 Y-89.221 E53.7496
G1 X-63.023 Y-89.884 E53.78694
G1 X-62.608 Y-90.507 E53.82428
G1 X-61.95 Y-91.268 E53.87447
G1 X-61.833 Y-91.385 E53.88273
G1 X-61.276 Y-91.885 E53.92007
G1 X-60.67 Y-92.322 E53.95734
G1 X-60.02 Y-92.693 E53.99468
G1 X-59.334 Y-92.992 E54.03202
G1 X-58.62 Y-93.216 E54.06935
G1 X-57.887 Y-93.363 E54.10665
G1 X-56.883 Y-93.435 E54.15687
G1 X-38 Y-93.435 E55.09894
G1 X-38 Y-98.318 E55.34256
G1 X-37.96 Y-99.065 E55.37988
G1 X-37.841 Y-99.803 E55.41717
G1 X-37.643 Y-100.525 E55.45452
G1 X-37.37 Y-101.221 E55.49182
G1 X-37.023 Y-101.884 E55.52916
G1 X-36.608 Y-102.507 E55.5665
G1 X-35.95 Y-103.268 E55.61669
G1 X-35.833 Y-103.385 E55.62495
G1 X-35.276 Y-103.885 E55.66229
G1 X-34.67 Y-104.322 E55.69957
G1 X-34.02 Y-104.693 E55.73691
G1 X-33.334 Y-104.992 E55.77424
G1 X-32.62 Y-105.216 E55.81157
G1 X-31.887 Y-105.363 E55.84887
G1 X-30.883 Y-105.435 E55.89909
