;FLAVOR:Marlin
;TIME:7595
;Filament used: 10.8493m
;Layer height: 0.3
;MINX:-83.316
;MINY:-88.393
;MINZ:0.3
;MAXX:82.056
;MAXY:7.888
;MAXZ:30
;Generated with Cura_SteamEngine 4.7.1
M140 S50
M105
M190 S50
M104 S250
M105
M109 S250
M82 ;absolute extrusion mode
G28 ;Home
G1 Z15.0 F6000 ;Move the platform down 15mm
;Prime the extruder
G92 E0
G1 F200 E3
G92 E0
G92 E0
G92 E0
G1 F1500 E-6.5
;LAYER_COUNT:100
;LAYER:0
M107
G0 F3600 X5.964 Y-11.976 Z0.3
;TYPE:SKIRT
G1 F1500 E0
G1 F1800 X6.542 Y-12.225 E0.0314
G1 X7.295 Y-12.462 E0.07078
G1 X8.069 Y-12.621 E0.1102
G1 X8.854 Y-12.702 E0.14958
G1 X9.256 Y-12.712 E0.16964
G1 X61.456 Y-12.712 E2.77391
G1 X61.456 Y-67.112 E5.48793
G1 X9.256 Y-67.112 E8.0922
G1 X8.467 Y-67.152 E8.13162
G1 X7.687 Y-67.271 E8.17098
G1 X6.922 Y-67.469 E8.2104
G1 X6.182 Y-67.743 E8.24977
G1 X5.473 Y-68.091 E8.28918
G1 X4.802 Y-68.509 E8.32862
G1 X4.776 Y-68.529 E8.33025
G1 X4.198 Y-68.28 E8.36165
G1 X3.445 Y-68.043 E8.40104
G1 X2.671 Y-67.884 E8.44046
G1 X1.886 Y-67.803 E8.47983
G1 X1.484 Y-67.793 E8.49989
G1 X-62.716 Y-67.793 E11.70284
G1 X-62.716 Y-13.393 E14.41687
G1 X1.484 Y-13.393 E17.61982
G1 X2.273 Y-13.353 E17.65923
G1 X3.053 Y-13.234 E17.6986
G1 X3.818 Y-13.036 E17.73802
G1 X4.558 Y-12.762 E17.77739
G1 X5.267 Y-12.414 E17.81679
G1 X5.938 Y-11.996 E17.85623
G1 X5.964 Y-11.976 E17.85787
G0 F3600 X6.192 Y-11.648
G1 F1800 X6.907 Y-11.929 E17.8962
G1 X7.649 Y-12.135 E17.93462
G1 X8.407 Y-12.263 E17.97297
G1 X9.256 Y-12.312 E18.0154
G1 X61.856 Y-12.312 E20.63962
G1 X61.856 Y-67.512 E23.39356
G1 X9.256 Y-67.512 E26.01778
G1 X8.488 Y-67.552 E26.05615
G1 X7.728 Y-67.671 E26.09453
G1 X6.985 Y-67.869 E26.13289
G1 X6.266 Y-68.143 E26.17128
G1 X5.58 Y-68.49 E26.20963
G1 X4.933 Y-68.906 E26.24801
G1 X4.819 Y-68.998 E26.25532
G1 X4.548 Y-68.857 E26.27056
G1 X3.833 Y-68.576 E26.30889
G1 X3.091 Y-68.37 E26.34731
G1 X2.333 Y-68.242 E26.38566
G1 X1.484 Y-68.193 E26.42808
G1 X-63.116 Y-68.193 E29.65099
G1 X-63.116 Y-12.993 E32.40493
G1 X1.484 Y-12.993 E35.62784
G1 X2.252 Y-12.953 E35.66621
G1 X3.012 Y-12.834 E35.70458
G1 X3.755 Y-12.636 E35.74295
G1 X4.474 Y-12.362 E35.78133
G1 X5.16 Y-12.015 E35.81969
G1 X5.807 Y-11.599 E35.85806
G1 X5.921 Y-11.507 E35.86537
G1 X6.192 Y-11.648 E35.88061
G0 F3600 X5.673 Y-11.201
G1 F1800 X5.89 Y-11.05 E35.8938
G1 X6.564 Y-11.374 E35.93111
G1 X7.269 Y-11.624 E35.96843
G1 X7.997 Y-11.798 E36.00577
G1 X8.739 Y-11.893 E36.04309
G1 X9.256 Y-11.912 E36.0689
G1 X62.256 Y-11.912 E38.71309
G1 X62.256 Y-67.912 E41.50694
G1 X9.256 Y-67.912 E44.15112
G1 X8.509 Y-67.952 E44.18844
G1 X7.771 Y-68.071 E44.22573
G1 X7.049 Y-68.269 E44.26308
G1 X6.353 Y-68.542 E44.30038
G1 X5.69 Y-68.889 E44.33772
G1 X5.067 Y-69.304 E44.37506
G1 X4.85 Y-69.455 E44.38825
G1 X4.176 Y-69.131 E44.42556
G1 X3.471 Y-68.881 E44.46288
G1 X2.743 Y-68.707 E44.50022
G1 X2.001 Y-68.612 E44.53754
G1 X1.484 Y-68.593 E44.56335
G1 X-63.516 Y-68.593 E47.80622
G1 X-63.516 Y-12.593 E50.60007
G1 X1.484 Y-12.593 E53.84293
G1 X2.231 Y-12.553 E53.88025
G1 X2.969 Y-12.434 E53.91755
G1 X3.691 Y-12.236 E53.9549
G1 X4.387 Y-11.963 E53.9922
G1 X5.05 Y-11.616 E54.02953
G1 X5.673 Y-11.201 E54.06688
G0 F3600 X6.269 Y-10.797
G1 F1800 X6.934 Y-11.09 E54.10313
G1 X7.627 Y-11.308 E54.13938
G1 X8.339 Y-11.448 E54.17558
G1 X9.256 Y-11.512 E54.22144
G1 X62.656 Y-11.512 E56.88558
G1 X62.656 Y-68.312 E59.71934
G1 X9.256 Y-68.312 E62.38348
G1 X8.531 Y-68.352 E62.4197
G1 X7.814 Y-68.471 E62.45596
G1 X7.115 Y-68.669 E62.49221
G1 X6.442 Y-68.942 E62.52844
G1 X5.803 Y-69.287 E62.56467
G1 X5.206 Y-69.701 E62.60092
G1 X4.907 Y-69.96 E62.62065
G1 X4.471 Y-69.708 E62.64578
G1 X3.806 Y-69.415 E62.68203
G1 X3.113 Y-69.197 E62.71827
G1 X2.401 Y-69.057 E62.75448
G1 X1.484 Y-68.993 E62.80034
G1 X-63.916 Y-68.993 E66.06316
G1 X-63.916 Y-12.193 E68.89692
G1 X1.484 Y-12.193 E72.15974
G1 X2.209 Y-12.153 E72.19596
G1 X2.926 Y-12.034 E72.23223
G1 X3.625 Y-11.836 E72.26847
G1 X4.298 Y-11.563 E72.3047
G1 X4.937 Y-11.218 E72.34093
G1 X5.534 Y-10.804 E72.37718
G1 X5.833 Y-10.545 E72.39691
G1 X6.269 Y-10.797 E72.42204
G0 F3600 X6.645 Y-10.535
G1 F1800 X7.299 Y-10.795 E72.45715
G1 X7.979 Y-10.979 E72.4923
G1 X8.675 Y-11.085 E72.52742
G1 X9.256 Y-11.112 E72.55644
G1 X63.056 Y-11.112 E75.24053
G1 X63.056 Y-68.712 E78.11421
G1 X9.256 Y-68.712 E80.7983
G1 X8.553 Y-68.752 E80.83343
G1 X7.859 Y-68.871 E80.86856
G1 X7.184 Y-69.069 E80.90365
G1 X6.535 Y-69.341 E80.93876
G1 X5.921 Y-69.686 E80.9739
G1 X5.35 Y-70.097 E81.009
G1 X4.948 Y-70.462 E81.03609
G1 X4.716 Y-70.302 E81.05015
G1 X4.095 Y-69.97 E81.08528
G1 X3.441 Y-69.71 E81.12039
G1 X2.761 Y-69.526 E81.15553
G1 X2.065 Y-69.42 E81.19066
G1 X1.484 Y-69.393 E81.21968
G1 X-64.316 Y-69.393 E84.50245
G1 X-64.316 Y-11.793 E87.37613
G1 X1.484 Y-11.793 E90.6589
G1 X2.187 Y-11.753 E90.69403
G1 X2.881 Y-11.634 E90.72916
G1 X3.556 Y-11.436 E90.76426
G1 X4.205 Y-11.164 E90.79936
G1 X4.819 Y-10.819 E90.8345
G1 X5.39 Y-10.408 E90.8696
G1 X5.792 Y-10.043 E90.89669
G1 X6.024 Y-10.203 E90.91075
G1 X6.645 Y-10.535 E90.94588
G0 F3600 X7.162 Y-9.452
G1 F1800 X7.751 Y-9.68 E90.97739
G1 X8.365 Y-9.832 E91.00895
G1 X9.256 Y-9.912 E91.05358
G1 X64.256 Y-9.912 E93.79754
G1 X64.256 Y-69.912 E96.79095
G1 X9.256 Y-69.912 E99.53491
G1 X8.625 Y-69.952 E99.56646
G1 X8.004 Y-70.071 E99.598
G1 X7.404 Y-70.268 E99.62951
G1 X6.832 Y-70.539 E99.66109
G1 X6.3 Y-70.879 E99.69259
G1 X5.815 Y-71.285 E99.72414
G1 X5.385 Y-71.748 E99.75567
G1 X5.101 Y-72.143 E99.77994
G1 X4.648 Y-71.722 E99.81079
G1 X4.134 Y-71.353 E99.84236
G1 X3.578 Y-71.053 E99.87388
G1 X2.989 Y-70.825 E99.90539
G1 X2.375 Y-70.673 E99.93695
G1 X1.484 Y-70.593 E99.98158
G1 X-65.516 Y-70.593 E103.32422
G1 X-65.516 Y-10.593 E106.31763
G1 X1.484 Y-10.593 E109.66028
G1 X2.115 Y-10.553 E109.69182
G1 X2.736 Y-10.434 E109.72337
G1 X3.336 Y-10.237 E109.75487
G1 X3.908 Y-9.966 E109.78645
G1 X4.44 Y-9.626 E109.81795
G1 X4.925 Y-9.22 E109.8495
G1 X5.355 Y-8.757 E109.88103
G1 X5.639 Y-8.362 E109.9053
G1 X6.092 Y-8.783 E109.93615
G1 X6.606 Y-9.152 E109.96772
G1 X7.162 Y-9.452 E109.99924
G0 F3600 X7.534 Y-9.178
G1 F1800 X8.11 Y-9.367 E110.02948
G1 X8.706 Y-9.479 E110.05974
G1 X9.256 Y-9.512 E110.08723
G1 X64.656 Y-9.512 E112.85115
G1 X64.656 Y-70.312 E115.88447
G1 X9.256 Y-70.312 E118.64839
G1 X8.651 Y-70.352 E118.67864
G1 X8.057 Y-70.471 E118.70886
G1 X7.483 Y-70.667 E118.73912
G1 X6.94 Y-70.938 E118.7694
G1 X6.437 Y-71.277 E118.79966
G1 X5.984 Y-71.679 E118.82988
G1 X5.587 Y-72.137 E118.86012
G1 X5.254 Y-72.644 E118.89038
G1 X5.161 Y-72.836 E118.90102
G1 X5.119 Y-72.774 E118.90476
G1 X4.717 Y-72.321 E118.93497
G1 X4.259 Y-71.924 E118.96521
G1 X3.752 Y-71.591 E118.99547
G1 X3.206 Y-71.327 E119.02573
G1 X2.63 Y-71.138 E119.05598
G1 X2.034 Y-71.026 E119.08623
G1 X1.484 Y-70.993 E119.11372
G1 X-65.916 Y-70.993 E122.47632
G1 X-65.916 Y-10.193 E125.50964
G1 X1.484 Y-10.193 E128.87224
G1 X2.089 Y-10.153 E128.90249
G1 X2.683 Y-10.034 E128.93272
G1 X3.257 Y-9.838 E128.96298
G1 X3.8 Y-9.567 E128.99325
G1 X4.303 Y-9.228 E129.02352
G1 X4.756 Y-8.826 E129.05373
G1 X5.153 Y-8.368 E129.08397
G1 X5.486 Y-7.861 E129.11423
G1 X5.579 Y-7.669 E129.12488
G1 X5.621 Y-7.731 E129.12861
G1 X6.023 Y-8.184 E129.15883
G1 X6.481 Y-8.581 E129.18907
G1 X6.988 Y-8.914 E129.21933
G1 X7.534 Y-9.178 E129.24959
G0 F3600 X7.367 Y-8.663
G1 F1800 X7.901 Y-8.888 E129.2785
G1 X8.461 Y-9.036 E129.3074
G1 X9.256 Y-9.112 E129.34724
G1 X65.056 Y-9.112 E132.13111
G1 X65.056 Y-70.712 E135.20435
G1 X9.256 Y-70.712 E137.98822
G1 X8.678 Y-70.752 E138.01713
G1 X8.111 Y-70.871 E138.04603
G1 X7.566 Y-71.067 E138.07493
G1 X7.053 Y-71.336 E138.10383
G1 X6.582 Y-71.673 E138.13272
G1 X6.162 Y-72.072 E138.16162
G1 X5.8 Y-72.525 E138.19055
G1 X5.505 Y-73.023 E138.21943
G1 X5.28 Y-73.557 E138.24834
G1 X5.236 Y-73.725 E138.257
G1 X5.06 Y-73.39 E138.27588
G1 X4.723 Y-72.919 E138.30478
G1 X4.324 Y-72.499 E138.33368
G1 X3.871 Y-72.137 E138.36261
G1 X3.373 Y-71.842 E138.39148
G1 X2.839 Y-71.617 E138.42039
G1 X2.279 Y-71.469 E138.44929
G1 X1.484 Y-71.393 E138.48914
G1 X-66.316 Y-71.393 E141.87169
G1 X-66.316 Y-9.793 E144.94493
G1 X1.484 Y-9.793 E148.32748
G1 X2.062 Y-9.753 E148.35639
G1 X2.629 Y-9.634 E148.38529
G1 X3.174 Y-9.438 E148.41419
G1 X3.687 Y-9.169 E148.44309
G1 X4.158 Y-8.832 E148.47198
G1 X4.578 Y-8.433 E148.50088
G1 X4.94 Y-7.98 E148.52981
G1 X5.235 Y-7.482 E148.55869
G1 X5.46 Y-6.948 E148.5876
G1 X5.504 Y-6.78 E148.59626
G1 X5.68 Y-7.115 E148.61514
G1 X6.017 Y-7.586 E148.64404
G1 X6.416 Y-8.006 E148.67294
G1 X6.869 Y-8.368 E148.70187
G1 X7.367 Y-8.663 E148.73075
G0 F3600 X7.742 Y-8.397
G1 F1800 X8.262 Y-8.58 E148.75825
G1 X8.803 Y-8.685 E148.78574
G1 X9.256 Y-8.712 E148.80838
G1 X65.456 Y-8.712 E151.61221
G1 X65.456 Y-71.112 E154.72536
G1 X9.256 Y-71.112 E157.52919
G1 X8.706 Y-71.152 E157.5567
G1 X8.168 Y-71.271 E157.58419
G1 X7.653 Y-71.467 E157.61168
G1 X7.172 Y-71.735 E157.63915
G1 X6.734 Y-72.069 E157.66663
G1 X6.35 Y-72.464 E157.69412
G1 X6.026 Y-72.91 E157.72162
G1 X5.771 Y-73.398 E157.74909
G1 X5.588 Y-73.918 E157.77659
G1 X5.483 Y-74.459 E157.80409
G1 X5.456 Y-74.912 E157.82673
G1 X5.456 Y-79.912 E158.07618
G1 X5.496 Y-80.462 E158.10369
G1 X5.615 Y-81 E158.13118
G1 X5.811 Y-81.515 E158.15867
G1 X6.079 Y-81.996 E158.18614
G1 X6.413 Y-82.434 E158.21362
G1 X6.808 Y-82.818 E158.24111
G1 X7.254 Y-83.142 E158.26861
G1 X7.742 Y-83.397 E158.29608
G1 X8.262 Y-83.58 E158.32358
G1 X8.803 Y-83.685 E158.35108
G1 X9.256 Y-83.712 E158.37372
G1 X74.256 Y-83.712 E161.61658
G1 X74.806 Y-83.672 E161.64409
G1 X75.344 Y-83.553 E161.67158
G1 X75.859 Y-83.357 E161.69907
G1 X76.34 Y-83.089 E161.72654
G1 X76.778 Y-82.755 E161.75402
G1 X77.162 Y-82.36 E161.78151
G1 X77.486 Y-81.914 E161.80901
G1 X77.741 Y-81.426 E161.83648
G1 X77.924 Y-80.906 E161.86398
G1 X78.029 Y-80.365 E161.89148
G1 X78.056 Y-79.912 E161.91412
G1 X78.056 Y0.088 E165.90533
G1 X78.016 Y0.638 E165.93285
G1 X77.897 Y1.176 E165.96034
G1 X77.701 Y1.691 E165.98783
G1 X77.433 Y2.172 E166.0153
G1 X77.099 Y2.61 E166.04278
G1 X76.704 Y2.994 E166.07026
G1 X76.258 Y3.318 E166.09777
G1 X75.77 Y3.573 E166.12524
G1 X75.25 Y3.756 E166.15274
G1 X74.709 Y3.861 E166.18023
G1 X74.256 Y3.888 E166.20287
G1 X9.256 Y3.888 E169.44574
G1 X8.706 Y3.848 E169.47325
G1 X8.168 Y3.729 E169.50074
G1 X7.653 Y3.533 E169.52823
G1 X7.172 Y3.265 E169.5557
G1 X6.734 Y2.931 E169.58318
G1 X6.35 Y2.536 E169.61066
G1 X6.026 Y2.09 E169.63817
G1 X5.771 Y1.602 E169.66564
G1 X5.588 Y1.082 E169.69314
G1 X5.483 Y0.541 E169.72063
G1 X5.456 Y0.088 E169.74327
G1 X5.456 Y-4.912 E169.99273
G1 X5.496 Y-5.462 E170.02024
G1 X5.615 Y-6 E170.04773
G1 X5.811 Y-6.515 E170.07522
G1 X6.079 Y-6.996 E170.10269
G1 X6.413 Y-7.434 E170.13017
G1 X6.808 Y-7.818 E170.15765
G1 X7.254 Y-8.142 E170.18516
G1 X7.742 Y-8.397 E170.21263
G0 F3600 X7.636 Y-7.901
G1 F1800 X8.111 Y-8.114 E170.2386
G1 X8.614 Y-8.251 E170.26461
G1 X9.256 Y-8.312 E170.29678
G1 X65.856 Y-8.312 E173.12057
G1 X65.856 Y-71.512 E176.27363
G1 X9.256 Y-71.512 E179.09741
G1 X8.736 Y-71.552 E179.12343
G1 X8.229 Y-71.671 E179.14941
G1 X7.746 Y-71.866 E179.1754
G1 X7.298 Y-72.132 E179.20139
G1 X6.896 Y-72.464 E179.2274
G1 X6.55 Y-72.854 E179.25342
G1 X6.267 Y-73.292 E179.27943
G1 X6.054 Y-73.767 E179.3054
G1 X5.917 Y-74.27 E179.33141
G1 X5.856 Y-74.912 E179.36359
G1 X5.856 Y-79.912 E179.61304
G1 X5.896 Y-80.432 E179.63906
G1 X6.015 Y-80.939 E179.66504
G1 X6.21 Y-81.422 E179.69102
G1 X6.476 Y-81.87 E179.71702
G1 X6.808 Y-82.272 E179.74303
G1 X7.198 Y-82.618 E179.76904
G1 X7.636 Y-82.901 E179.79506
G1 X8.111 Y-83.114 E179.82103
G1 X8.614 Y-83.251 E179.84704
G1 X9.256 Y-83.312 E179.87921
G1 X74.256 Y-83.312 E183.12207
G1 X74.776 Y-83.272 E183.14809
G1 X75.283 Y-83.153 E183.17408
G1 X75.766 Y-82.958 E183.20006
G1 X76.214 Y-82.692 E183.22606
G1 X76.616 Y-82.36 E183.25207
G1 X76.962 Y-81.97 E183.27808
G1 X77.245 Y-81.532 E183.30409
G1 X77.458 Y-81.057 E183.33007
G1 X77.595 Y-80.554 E183.35607
G1 X77.656 Y-79.912 E183.38825
G1 X77.656 Y0.088 E187.37946
G1 X77.616 Y0.608 E187.40548
G1 X77.497 Y1.115 E187.43147
G1 X77.302 Y1.598 E187.45745
G1 X77.036 Y2.046 E187.48345
G1 X76.704 Y2.448 E187.50946
G1 X76.314 Y2.794 E187.53547
G1 X75.876 Y3.077 E187.56148
G1 X75.401 Y3.29 E187.58746
G1 X74.898 Y3.427 E187.61347
G1 X74.256 Y3.488 E187.64564
G1 X9.256 Y3.488 E190.8885
G1 X8.736 Y3.448 E190.91452
G1 X8.229 Y3.329 E190.9405
G1 X7.746 Y3.134 E190.96649
G1 X7.298 Y2.868 E190.99248
G1 X6.896 Y2.536 E191.01849
G1 X6.55 Y2.146 E191.04451
G1 X6.267 Y1.708 E191.07052
G1 X6.054 Y1.233 E191.09649
G1 X5.917 Y0.73 E191.1225
G1 X5.856 Y0.088 E191.15468
G1 X5.856 Y-4.912 E191.40413
G1 X5.896 Y-5.432 E191.43015
G1 X6.015 Y-5.939 E191.45613
G1 X6.21 Y-6.422 E191.48212
G1 X6.476 Y-6.87 E191.50811
G1 X6.808 Y-7.272 E191.53412
G1 X7.198 Y-7.618 E191.56013
G1 X7.636 Y-7.901 E191.58615
G0 F3600 X8.013 Y-7.642
G1 F1800 X8.473 Y-7.808 E191.61055
G1 X9.256 Y-7.912 E191.64995
G1 X66.256 Y-7.912 E194.49369
G1 X66.256 Y-71.912 E197.68667
G1 X9.256 Y-71.912 E200.53041
G1 X8.768 Y-71.952 E200.55484
G1 X8.293 Y-72.071 E200.57927
G1 X7.844 Y-72.265 E200.60367
G1 X7.432 Y-72.53 E200.62811
G1 X7.069 Y-72.858 E200.65252
G1 X6.764 Y-73.241 E200.67694
G1 X6.526 Y-73.669 E200.70138
G1 X6.36 Y-74.129 E200.72577
G1 X6.256 Y-74.912 E200.76518
G1 X6.256 Y-79.912 E201.01463
G1 X6.296 Y-80.4 E201.03906
G1 X6.415 Y-80.875 E201.06349
G1 X6.609 Y-81.324 E201.08789
G1 X6.874 Y-81.736 E201.11233
G1 X7.202 Y-82.099 E201.13674
G1 X7.585 Y-82.404 E201.16117
G1 X8.013 Y-82.642 E201.1856
G1 X8.473 Y-82.808 E201.21
G1 X9.256 Y-82.912 E201.2494
G1 X74.256 Y-82.912 E204.49227
G1 X74.744 Y-82.872 E204.5167
G1 X75.219 Y-82.753 E204.54113
G1 X75.668 Y-82.559 E204.56553
G1 X76.08 Y-82.294 E204.58997
G1 X76.443 Y-81.966 E204.61438
G1 X76.748 Y-81.583 E204.6388
G1 X76.986 Y-81.155 E204.66323
G1 X77.152 Y-80.695 E204.68763
G1 X77.256 Y-79.912 E204.72704
G1 X77.256 Y0.088 E208.71826
G1 X77.216 Y0.576 E208.74268
G1 X77.097 Y1.051 E208.76711
G1 X76.903 Y1.5 E208.79152
G1 X76.638 Y1.912 E208.81596
G1 X76.31 Y2.275 E208.84036
G1 X75.927 Y2.58 E208.86479
G1 X75.499 Y2.818 E208.88922
G1 X75.039 Y2.984 E208.91362
G1 X74.256 Y3.088 E208.95303
G1 X9.256 Y3.088 E212.19589
G1 X8.768 Y3.048 E212.22032
G1 X8.293 Y2.929 E212.24475
G1 X7.844 Y2.735 E212.26915
G1 X7.432 Y2.47 E212.29359
G1 X7.069 Y2.142 E212.318
G1 X6.764 Y1.759 E212.34243
G1 X6.526 Y1.331 E212.36686
G1 X6.36 Y0.871 E212.39126
G1 X6.256 Y0.088 E212.43066
G1 X6.256 Y-4.912 E212.68011
G1 X6.296 Y-5.4 E212.70454
G1 X6.415 Y-5.875 E212.72897
G1 X6.609 Y-6.324 E212.75337
G1 X6.874 Y-6.736 E212.77781
G1 X7.202 Y-7.099 E212.80222
G1 X7.585 Y-7.404 E212.82665
G1 X8.013 Y-7.642 E212.85108
G0 F3600 X7.969 Y-7.171
G1 F1800 X8.383 Y-7.361 E212.87381
G1 X8.824 Y-7.476 E212.89654
G1 X9.256 Y-7.512 E212.91817
G1 X66.656 Y-7.512 E215.78187
G1 X66.656 Y-72.312 E219.01475
G1 X9.256 Y-72.312 E221.87845
G1 X8.802 Y-72.352 E221.90119
G1 X8.362 Y-72.47 E221.92392
G1 X7.95 Y-72.664 E221.94664
G1 X7.577 Y-72.927 E221.96941
G1 X7.256 Y-73.25 E221.99213
G1 X6.997 Y-73.625 E222.01486
G1 X6.807 Y-74.039 E222.03759
G1 X6.692 Y-74.48 E222.06033
G1 X6.656 Y-74.912 E222.08195
G1 X6.656 Y-79.912 E222.3314
G1 X6.696 Y-80.366 E222.35414
G1 X6.814 Y-80.806 E222.37687
G1 X7.008 Y-81.218 E222.39959
G1 X7.271 Y-81.591 E222.42236
G1 X7.594 Y-81.912 E222.44508
G1 X7.969 Y-82.171 E222.46782
G1 X8.383 Y-82.361 E222.49054
G1 X8.824 Y-82.476 E222.51328
G1 X9.256 Y-82.512 E222.53491
G1 X74.256 Y-82.512 E225.77777
G1 X74.71 Y-82.472 E225.80051
G1 X75.15 Y-82.354 E225.82323
G1 X75.562 Y-82.16 E225.84595
G1 X75.935 Y-81.897 E225.86872
G1 X76.256 Y-81.574 E225.89144
G1 X76.515 Y-81.199 E225.91418
G1 X76.705 Y-80.785 E225.93691
G1 X76.82 Y-80.344 E225.95964
G1 X76.856 Y-79.912 E225.98127
G1 X76.856 Y0.088 E229.97249
G1 X76.816 Y0.542 E229.99522
G1 X76.698 Y0.982 E230.01795
G1 X76.504 Y1.394 E230.04067
G1 X76.241 Y1.767 E230.06344
G1 X75.918 Y2.088 E230.08616
G1 X75.543 Y2.347 E230.1089
G1 X75.129 Y2.537 E230.13162
G1 X74.688 Y2.652 E230.15436
G1 X74.256 Y2.688 E230.17599
G1 X9.256 Y2.688 E233.41885
G1 X8.802 Y2.648 E233.44159
G1 X8.362 Y2.53 E233.46432
G1 X7.95 Y2.336 E233.48704
