;FLAVOR:Marlin
;TIME:2806
;Filament used: 3.93828m
;Layer height: 0.3
;MINX:-23.8
;MINY:-71.3
;MINZ:0.3
;MAXX:23.8
;MAXY:71.3
;MAXZ:3.9
;Generated with Cura_SteamEngine 4.7.1
M140 S50
M105
M190 S50
M104 S255
M105
M109 S255
M82 ;absolute extrusion mode
G28 ;Home
G1 Z15.0 F6000 ;Move the platform down 15mm
;Prime the extruder
G92 E0
G1 F200 E3
G92 E0
G92 E0
G92 E0
G1 F1500 E-6.5
;LAYER_COUNT:13
;LAYER:0
M107
;MESH:spine2020_10_02.stl
G0 F3600 X0.094 Y-1.516 Z0.3
;TYPE:WALL-INNER
G1 F1500 E0
G1 F1800 X0.169 Y-.884 E0.03175
G1 X0.185 Y-.79 E0.03651
G1 X0.428 Y-.15 E0.07066
G1 X0.825 Y0.426 E0.10556
G1 X1.349 Y0.891 E0.14052
G1 X1.97 Y1.216 E0.17548
G1 X2.651 Y1.383 E0.21047
G1 X3.349 Y1.383 E0.24529
G1 X4.03 Y1.216 E0.28027
G1 X4.651 Y0.891 E0.31524
G1 X5.175 Y0.426 E0.35019
G1 X5.572 Y-.15 E0.38509
G1 X5.82 Y-.806 E0.42008
G1 X5.889 Y-1.385 E0.44917
G1 X5.906 Y-1.483 E0.45413
G1 X5.831 Y-2.116 E0.48594
G1 X5.815 Y-2.21 E0.49069
G1 X5.572 Y-2.85 E0.52485
G1 X5.175 Y-3.426 E0.55975
G1 X4.651 Y-3.891 E0.5947
G1 X4.03 Y-4.216 E0.62967
G1 X3.349 Y-4.383 E0.66465
G1 X2.651 Y-4.383 E0.69947
G1 X1.97 Y-4.216 E0.73445
G1 X1.349 Y-3.891 E0.76942
G1 X0.825 Y-3.426 E0.80437
G1 X0.428 Y-2.85 E0.83928
G1 X0.18 Y-2.194 E0.87426
G1 X0.109 Y-1.601 E0.90406
G1 X0.094 Y-1.516 E0.90837
G0 F3600 X-0.005 Y-1.518
G0 X-7.372 Y15.128
G0 X-19.316 Y15.126
G0 X-21.648 Y17.136
G0 X-21.574 Y17.202
G1 F1800 X-21.863 Y17.623 E0.93384
G1 X-22.043 Y18.096 E0.95909
G1 X-22.104 Y18.6 E0.98442
G1 X-22.043 Y19.104 E1.00975
G1 X-21.863 Y19.577 E1.035
G1 X-21.576 Y19.996 E1.06034
G1 X-21.195 Y20.332 E1.08568
G1 X-20.747 Y20.568 E1.11094
G1 X-20.253 Y20.689 E1.13632
G1 X-19.747 Y20.689 E1.16156
G1 X-19.253 Y20.568 E1.18693
G1 X-18.805 Y20.332 E1.2122
G1 X-18.424 Y19.996 E1.23754
G1 X-18.137 Y19.577 E1.26288
G1 X-17.957 Y19.104 E1.28813
G1 X-17.896 Y18.6 E1.31346
G1 X-17.957 Y18.096 E1.33878
G1 X-18.137 Y17.623 E1.36403
G1 X-18.424 Y17.204 E1.38937
G1 X-18.805 Y16.868 E1.41471
G1 X-19.253 Y16.632 E1.43998
G1 X-19.747 Y16.511 E1.46535
G1 X-20.253 Y16.511 E1.4906
G1 X-20.747 Y16.632 E1.51597
G1 X-21.18 Y16.861 E1.54041
G1 X-21.574 Y17.202 E1.5664
G0 F3600 X-21.648 Y17.136
G0 X-20.761 Y16.595
G0 X-19.743 Y16.472
G0 X-2.372 Y21.872
G0 X3.372 Y35.128
G0 X18.352 Y37.136
G0 X18.426 Y37.202
G1 F1800 X18.137 Y37.623 E1.59188
G1 X17.957 Y38.096 E1.61713
G1 X17.896 Y38.6 E1.64246
G1 X17.957 Y39.104 E1.66779
G1 X18.137 Y39.577 E1.69303
G1 X18.424 Y39.996 E1.71837
G1 X18.805 Y40.332 E1.74372
G1 X19.253 Y40.568 E1.76898
G1 X19.747 Y40.689 E1.79435
G1 X20.253 Y40.689 E1.8196
G1 X20.747 Y40.568 E1.84497
G1 X21.195 Y40.332 E1.87023
G1 X21.576 Y39.996 E1.89558
G1 X21.863 Y39.577 E1.92092
G1 X22.043 Y39.104 E1.94616
G1 X22.104 Y38.6 E1.97149
G1 X22.043 Y38.096 E1.99682
G1 X21.863 Y37.623 E2.02207
G1 X21.576 Y37.204 E2.04741
G1 X21.195 Y36.868 E2.07275
G1 X20.747 Y36.632 E2.09801
G1 X20.253 Y36.511 E2.12339
G1 X19.747 Y36.511 E2.14863
G1 X19.253 Y36.632 E2.17401
G1 X18.82 Y36.861 E2.19844
G1 X18.426 Y37.202 E2.22444
G0 F3600 X18.352 Y37.136
G0 X12.372 Y41.872
G0 X8.592 Y67.036
G0 X8.666 Y67.102
G1 F1800 X8.377 Y67.523 E2.24992
G1 X8.197 Y67.996 E2.27517
G1 X8.136 Y68.5 E2.30049
G1 X8.197 Y69.004 E2.32582
G1 X8.377 Y69.477 E2.35107
G1 X8.664 Y69.896 E2.37641
G1 X9.045 Y70.232 E2.40175
G1 X9.493 Y70.468 E2.42702
G1 X9.63 Y70.502 E2.43406
G1 X9.987 Y70.589 E2.45239
G1 X10.493 Y70.589 E2.47763
G1 X10.85 Y70.502 E2.49597
G1 X10.987 Y70.468 E2.50301
G1 X11.435 Y70.232 E2.52827
G1 X11.816 Y69.896 E2.55361
G1 X12.01 Y69.614 E2.57069
G1 X12.103 Y69.477 E2.57895
G1 X12.283 Y69.004 E2.6042
G1 X12.344 Y68.5 E2.62953
G1 X12.283 Y67.996 E2.65486
G1 X12.103 Y67.523 E2.68011
G1 X12.01 Y67.386 E2.68837
G1 X11.816 Y67.104 E2.70544
G1 X11.435 Y66.768 E2.73079
G1 X10.987 Y66.532 E2.75605
G1 X10.493 Y66.411 E2.78142
G1 X9.987 Y66.411 E2.80667
G1 X9.493 Y66.532 E2.83204
G1 X9.06 Y66.761 E2.85648
G1 X8.666 Y67.102 E2.88248
G0 F3600 X8.592 Y67.036
G0 X3.372 Y35.128
G0 X3.372 Y4.872
G0 X7.974 Y4.86
G0 X7.372 Y-18.872
G0 X7.33 Y-60.17
G0 X7.4 Y-60.1
G1 F1800 X7.4 Y-18.9 E4.93795
G1 X12.4 Y-18.9 E5.18741
G1 X12.4 Y4.9 E6.37479
G1 X3.4 Y4.9 E6.8238
G1 X3.4 Y35.1 E8.33049
G1 X23.4 Y35.1 E9.32829
G1 X23.4 Y41.9 E9.66755
G1 X12.4 Y41.9 E10.21634
G1 X12.4 Y67.357 E11.48639
G1 X12.4 Y67.523 E11.49366
G1 X12.4 Y67.996 E11.50568
G1 X12.4 Y68.5 E11.5111
G1 X12.4 Y69.004 E11.51651
G1 X12.4 Y69.477 E11.52853
G1 X12.4 Y69.643 E11.5358
G1 X12.4 Y70.9 E11.59851
G1 X10.861 Y70.9 E11.67529
G1 X10.493 Y70.9 E11.69163
G1 X9.987 Y70.9 E11.71126
G1 X9.619 Y70.9 E11.72759
G1 X4.6 Y70.9 E11.97799
G1 X4.6 Y50.9 E12.97579
G1 X-2.4 Y50.9 E13.32502
G1 X-2.4 Y21.9 E14.77184
G1 X-23.4 Y21.9 E15.81953
G1 X-23.4 Y15.1 E16.15879
G1 X-7.4 Y15.1 E16.95703
G1 X-7.4 Y-13.1 E18.36393
G1 X-12.4 Y-13.1 E18.61339
G1 X-12.4 Y-18.9 E18.90275
G1 X-7.4 Y-18.9 E19.1522
G1 X-7.4 Y-60.1 E21.20768
G1 X-12.4 Y-60.1 E21.45713
G1 X-12.4 Y-70.9 E21.99594
G1 X12.4 Y-70.9 E23.23322
G1 X12.4 Y-60.1 E23.77203
G1 X7.4 Y-60.1 E24.02148
G0 F3600 X7.33 Y-60.17
G0 X0.353 Y-58.578
G0 X-1.044 Y-58.747
G0 X-2.204 Y-59.548
G0 X-2.755 Y-60.554
G0 X-3.005 Y-61.518
G0 X-2.906 Y-61.516
G1 F1800 X-2.831 Y-60.884 E24.05323
G1 X-2.815 Y-60.79 E24.05799
G1 X-2.572 Y-60.15 E24.09215
G1 X-2.175 Y-59.574 E24.12705
G1 X-1.651 Y-59.109 E24.162
G1 X-1.03 Y-58.784 E24.19697
G1 X-.349 Y-58.617 E24.23195
G1 X0.349 Y-58.617 E24.26677
G1 X1.03 Y-58.784 E24.30175
G1 X1.651 Y-59.109 E24.33672
G1 X2.175 Y-59.574 E24.37167
G1 X2.572 Y-60.15 E24.40658
G1 X2.82 Y-60.806 E24.44156
G1 X2.889 Y-61.385 E24.47065
G1 X2.906 Y-61.483 E24.47562
G1 X2.831 Y-62.116 E24.50742
G1 X2.815 Y-62.21 E24.51218
G1 X2.572 Y-62.85 E24.54633
G1 X2.175 Y-63.426 E24.58123
G1 X1.651 Y-63.891 E24.61618
G1 X1.03 Y-64.216 E24.65115
G1 X0.349 Y-64.383 E24.68613
G1 X-.349 Y-64.383 E24.72096
G1 X-1.03 Y-64.216 E24.75594
G1 X-1.651 Y-63.891 E24.79091
G1 X-2.175 Y-63.426 E24.82586
G1 X-2.572 Y-62.85 E24.86076
G1 X-2.82 Y-62.194 E24.89575
G1 X-2.891 Y-61.601 E24.92554
G1 X-2.906 Y-61.516 E24.92985
G0 F3600 X-3.005 Y-61.518
G0 X-2.607 Y-60.132
G0 X-1.673 Y-59.077
G0 X-.353 Y-58.578
G0 X1.044 Y-58.747
G0 X2.204 Y-59.548
G0 X2.748 Y-60.508
G0 X2.994 Y-61.408
G0 X2.502 Y-61.494
;TYPE:WALL-OUTER
G1 F1800 X2.435 Y-62.058 E24.95819
G1 X2.427 Y-62.104 E24.96052
G1 X2.215 Y-62.663 E24.99034
G1 X1.873 Y-63.159 E25.0204
G1 X1.422 Y-63.559 E25.05047
G1 X0.887 Y-63.839 E25.0806
G1 X0.301 Y-63.983 E25.11071
G1 X-.301 Y-63.983 E25.14074
G1 X-.887 Y-63.839 E25.17085
G1 X-1.422 Y-63.559 E25.20097
G1 X-1.873 Y-63.159 E25.23105
G1 X-2.215 Y-62.663 E25.2611
G1 X-2.429 Y-62.098 E25.29125
G1 X-2.495 Y-61.547 E25.31893
G1 X-2.502 Y-61.506 E25.32101
G1 X-2.435 Y-60.942 E25.34934
G1 X-2.427 Y-60.896 E25.35167
G1 X-2.215 Y-60.337 E25.3815
G1 X-1.873 Y-59.841 E25.41156
G1 X-1.422 Y-59.441 E25.44163
G1 X-.887 Y-59.161 E25.47176
G1 X-.301 Y-59.017 E25.50186
G1 X0.301 Y-59.017 E25.5319
G1 X0.887 Y-59.161 E25.562
G1 X1.422 Y-59.441 E25.59213
G1 X1.873 Y-59.841 E25.6222
G1 X2.215 Y-60.337 E25.65226
G1 X2.429 Y-60.902 E25.6824
G1 X2.495 Y-61.454 E25.71014
G1 X2.502 Y-61.494 E25.71217
G0 F3600 X2.479 Y-61.692
G0 X2.975 Y-61.749
G0 X7.3 Y-59.7
G0 X7.8 Y-59.7
G1 F1800 X7.8 Y-19.3 E27.72773
G1 X12.8 Y-19.3 E27.97718
G1 X12.8 Y5.3 E29.20448
G1 X3.8 Y5.3 E29.65349
G1 X3.8 Y34.7 E31.12026
G1 X23.8 Y34.7 E32.11807
G1 X23.8 Y42.3 E32.49723
G1 X12.8 Y42.3 E33.04603
G1 X12.8 Y71.3 E34.49284
G1 X4.2 Y71.3 E34.9219
G1 X4.2 Y51.3 E35.9197
G1 X-2.8 Y51.3 E36.26893
G1 X-2.8 Y22.3 E37.71575
G1 X-23.8 Y22.3 E38.76344
G1 X-23.8 Y14.7 E39.14261
G1 X-7.8 Y14.7 E39.94085
G1 X-7.8 Y-12.7 E41.30784
G1 X-12.8 Y-12.7 E41.55729
G1 X-12.8 Y-19.3 E41.88657
G1 X-7.8 Y-19.3 E42.13602
G1 X-7.8 Y-59.7 E44.15158
G1 X-12.8 Y-59.7 E44.40104
G1 X-12.8 Y-71.3 E44.97976
G1 X12.8 Y-71.3 E46.25695
G1 X12.8 Y-59.7 E46.83568
G1 X7.8 Y-59.7 E47.08513
G0 F3600 X7.8 Y-59.5
G0 X7.3 Y-59.5
G0 X5.994 Y-1.408
G0 X5.502 Y-1.494
G1 F1800 X5.435 Y-2.058 E47.11346
G1 X5.427 Y-2.104 E47.11579
G1 X5.215 Y-2.663 E47.14562
G1 X4.873 Y-3.159 E47.17568
G1 X4.422 Y-3.559 E47.20575
G1 X3.887 Y-3.839 E47.23588
G1 X3.301 Y-3.983 E47.26598
G1 X2.699 Y-3.983 E47.29602
G1 X2.113 Y-3.839 E47.32612
G1 X1.578 Y-3.559 E47.35625
G1 X1.127 Y-3.159 E47.38632
G1 X0.785 Y-2.663 E47.41638
G1 X0.571 Y-2.098 E47.44652
G1 X0.505 Y-1.547 E47.47421
G1 X0.498 Y-1.506 E47.47629
G1 X0.565 Y-.942 E47.50462
G1 X0.573 Y-.896 E47.50695
G1 X0.785 Y-.337 E47.53678
G1 X1.127 Y0.159 E47.56684
G1 X1.578 Y0.559 E47.59691
G1 X2.113 Y0.839 E47.62704
G1 X2.699 Y0.983 E47.65714
G1 X3.301 Y0.983 E47.68718
G1 X3.887 Y0.839 E47.71728
G1 X4.422 Y0.559 E47.74741
G1 X4.873 Y0.159 E47.77748
G1 X5.215 Y-.337 E47.80754
G1 X5.429 Y-.902 E47.83768
G1 X5.495 Y-1.454 E47.86542
G1 X5.502 Y-1.494 E47.86744
G0 F3600 X5.479 Y-1.692
G0 X5.975 Y-1.749
G0 X5.858 Y-.797
G0 X5.204 Y0.452
G0 X-7.372 Y15.128
G0 X-18.669 Y15.122
G0 X-21.685 Y17.188
G0 X-21.273 Y17.471
G1 F1800 X-21.506 Y17.81 E47.88797
G1 X-21.652 Y18.193 E47.90842
G1 X-21.701 Y18.6 E47.92887
G1 X-21.652 Y19.007 E47.94932
G1 X-21.506 Y19.39 E47.96977
G1 X-21.274 Y19.729 E47.99026
G1 X-20.966 Y20 E48.01073
G1 X-20.604 Y20.191 E48.03115
G1 X-20.205 Y20.289 E48.05165
G1 X-19.795 Y20.289 E48.0721
G1 X-19.396 Y20.191 E48.0926
G1 X-19.034 Y20 E48.11302
G1 X-18.726 Y19.729 E48.13349
G1 X-18.494 Y19.39 E48.15398
G1 X-18.348 Y19.007 E48.17443
G1 X-18.299 Y18.6 E48.19488
G1 X-18.348 Y18.193 E48.21534
G1 X-18.494 Y17.81 E48.23578
G1 X-18.726 Y17.471 E48.25628
G1 X-19.034 Y17.2 E48.27675
G1 X-19.396 Y17.009 E48.29717
G1 X-19.795 Y16.911 E48.31766
G1 X-20.205 Y16.911 E48.33812
G1 X-20.604 Y17.009 E48.35862
G1 X-20.953 Y17.193 E48.3783
G1 X-21.273 Y17.471 E48.39945
G0 F3600 X-21.386 Y17.635
G0 X-21.797 Y17.352
G0 X-20.761 Y16.595
G0 X-19.743 Y16.472
G0 X-2.372 Y21.872
G0 X3.372 Y35.128
G0 X18.315 Y37.188
G0 X18.727 Y37.471
G1 F1800 X18.494 Y37.81 E48.41997
G1 X18.348 Y38.193 E48.44042
G1 X18.299 Y38.6 E48.46087
G1 X18.348 Y39.007 E48.48132
G1 X18.494 Y39.39 E48.50177
G1 X18.726 Y39.729 E48.52227
G1 X19.034 Y40 E48.54273
G1 X19.396 Y40.191 E48.56315
G1 X19.795 Y40.289 E48.58365
G1 X20.205 Y40.289 E48.60411
G1 X20.604 Y40.191 E48.62461
G1 X20.966 Y40 E48.64503
G1 X21.274 Y39.729 E48.66549
G1 X21.506 Y39.39 E48.68599
G1 X21.652 Y39.007 E48.70644
G1 X21.701 Y38.6 E48.72689
G1 X21.652 Y38.193 E48.74734
G1 X21.506 Y37.81 E48.76779
G1 X21.274 Y37.471 E48.78828
G1 X20.966 Y37.2 E48.80875
G1 X20.604 Y37.009 E48.82917
G1 X20.205 Y36.911 E48.84967
G1 X19.795 Y36.911 E48.87012
G1 X19.396 Y37.009 E48.89062
G1 X19.047 Y37.193 E48.9103
G1 X18.727 Y37.471 E48.93145
G0 F3600 X18.614 Y37.635
G0 X18.203 Y37.352
G0 X12.372 Y41.872
G0 X8.555 Y67.088
G0 X8.967 Y67.371
G1 F1800 X8.734 Y67.71 E48.95198
G1 X8.588 Y68.093 E48.97242
G1 X8.539 Y68.5 E48.99288
G1 X8.588 Y68.907 E49.01333
G1 X8.734 Y69.29 E49.03378
G1 X8.966 Y69.629 E49.05427
G1 X9.274 Y69.9 E49.07474
G1 X9.636 Y70.091 E49.09516
G1 X10.035 Y70.189 E49.11566
G1 X10.445 Y70.189 E49.13611
G1 X10.844 Y70.091 E49.15661
G1 X11.206 Y69.9 E49.17703
G1 X11.514 Y69.629 E49.1975
G1 X11.746 Y69.29 E49.21799
G1 X11.892 Y68.907 E49.23844
G1 X11.941 Y68.5 E49.25889
G1 X11.892 Y68.093 E49.27934
G1 X11.746 Y67.71 E49.29979
G1 X11.514 Y67.371 E49.32029
G1 X11.206 Y67.1 E49.34076
G1 X10.844 Y66.909 E49.36118
G1 X10.445 Y66.811 E49.38167
G1 X10.035 Y66.811 E49.40213
G1 X9.636 Y66.909 E49.42263
G1 X9.287 Y67.093 E49.44231
G1 X8.967 Y67.371 E49.46346
G0 F3600 X8.854 Y67.535
G0 X8.373 Y66.84
;TYPE:SKIN
G1 F1800 X8.03 Y67.341 E49.49375
G1 X7.815 Y67.902 E49.52372
G1 X7.744 Y68.5 E49.55377
G1 X7.815 Y69.098 E49.58381
G1 X8.029 Y69.659 E49.61377
G1 X8.37 Y70.157 E49.64388
G1 X8.771 Y70.51 E49.67053
G1 X4.99 Y70.51 E49.85917
G1 X4.99 Y50.51 E50.85697
G1 X-2.01 Y50.51 E51.2062
G1 X-2.01 Y21.51 E52.65302
G1 X-23.01 Y21.51 E53.70071
G1 X-23.01 Y15.49 E54.00105
G1 X-7.01 Y15.49 E54.79929
G1 X-7.01 Y-13.49 E56.24511
G1 X-12.01 Y-13.49 E56.49456
G1 X-12.01 Y-18.51 E56.74501
G1 X-7.01 Y-18.51 E56.99446
G1 X-7.01 Y-60.49 E59.08885
G1 X-12.01 Y-60.49 E59.3383
G1 X-12.01 Y-70.51 E59.8382
G1 X12.01 Y-70.51 E61.03657
G1 X12.01 Y-60.49 E61.53647
G1 X7.01 Y-60.49 E61.78592
G1 X7.01 Y-18.51 E63.88031
G1 X12.01 Y-18.51 E64.12976
G1 X12.01 Y4.51 E65.27823
G1 X3.01 Y4.51 E65.72724
G1 X3.01 Y35.49 E67.27284
G1 X23.01 Y35.49 E68.27065
G1 X23.01 Y41.51 E68.57099
G1 X12.01 Y41.51 E69.11978
G1 X12.01 Y66.755 E70.37926
G1 X11.657 Y66.444 E70.40273
G1 X11.126 Y66.165 E70.43265
G1 X10.54 Y66.021 E70.46276
G1 X9.94 Y66.021 E70.49269
G1 X9.353 Y66.165 E70.52285
G1 X8.838 Y66.437 E70.5519
G1 X8.373 Y66.84 E70.5826
G0 F3600 X12.372 Y41.872
G0 X19.114 Y40.935
G1 F1800 X19.7 Y41.079 E70.61271
G1 X20.3 Y41.079 E70.64264
G1 X20.886 Y40.935 E70.67275
G1 X21.417 Y40.656 E70.70267
G1 X21.87 Y40.257 E70.73279
G1 X22.211 Y39.759 E70.7629
G1 X22.425 Y39.198 E70.79286
G1 X22.496 Y38.6 E70.8229
G1 X22.425 Y38.002 E70.85294
G1 X22.211 Y37.441 E70.8829
G1 X21.87 Y36.943 E70.91301
G1 X21.417 Y36.544 E70.94313
G1 X20.886 Y36.265 E70.97305
G1 X20.3 Y36.121 E71.00316
G1 X19.7 Y36.121 E71.03309
G1 X19.113 Y36.265 E71.06325
G1 X18.598 Y36.537 E71.09231
G1 X18.133 Y36.94 E71.123
G1 X17.79 Y37.441 E71.1533
G1 X17.575 Y38.002 E71.18327
G1 X17.504 Y38.6 E71.21331
G1 X17.575 Y39.198 E71.24336
G1 X17.789 Y39.759 E71.27331
G1 X18.13 Y40.257 E71.30342
G1 X18.583 Y40.656 E71.33354
G1 X19.114 Y40.935 E71.36347
G0 F3600 X3.372 Y35.128
G0 X3.396 Y1.773
G1 F1800 X4.169 Y1.583 E71.40318
G1 X4.874 Y1.215 E71.44286
G1 X5.469 Y0.686 E71.48258
G1 X5.92 Y0.032 E71.52221
G1 X6.202 Y-.712 E71.56191
G1 X6.277 Y-1.338 E71.59336
G1 X6.3 Y-1.473 E71.60019
G1 X6.217 Y-2.172 E71.63531
G1 X6.193 Y-2.313 E71.64245
G1 X5.919 Y-3.033 E71.68088
G1 X5.469 Y-3.686 E71.72045
G1 X4.874 Y-4.215 E71.76017
G1 X4.169 Y-4.583 E71.79984
G1 X3.396 Y-4.773 E71.83956
G1 X2.604 Y-4.773 E71.87907
G1 X1.831 Y-4.583 E71.91878
G1 X1.126 Y-4.215 E71.95846
G1 X0.531 Y-3.686 E71.99818
G1 X0.08 Y-3.032 E72.03781
G1 X-.202 Y-2.288 E72.07751
G1 X-.279 Y-1.648 E72.10967
G1 X-.3 Y-1.527 E72.11579
G1 X-.217 Y-.828 E72.15091
G1 X-.193 Y-.687 E72.15805
G1 X0.081 Y0.033 E72.19648
G1 X0.531 Y0.686 E72.23605
G1 X1.126 Y1.215 E72.27577
G1 X1.831 Y1.583 E72.31544
G1 X2.604 Y1.773 E72.35516
G1 X3.396 Y1.773 E72.39467
G0 F3600 X-7.372 Y15.128
G0 X-18.583 Y20.656
G1 F1800 X-18.13 Y20.257 E72.42479
G1 X-17.789 Y19.759 E72.4549
G1 X-17.575 Y19.198 E72.48485
G1 X-17.504 Y18.6 E72.5149
G1 X-17.575 Y18.002 E72.54494
G1 X-17.789 Y17.441 E72.5749
G1 X-18.13 Y16.943 E72.60501
G1 X-18.583 Y16.544 E72.63513
G1 X-19.114 Y16.265 E72.66505
G1 X-19.7 Y16.121 E72.69516
G1 X-20.3 Y16.121 E72.72509
G1 X-20.887 Y16.265 E72.75525
G1 X-21.402 Y16.537 E72.7843
G1 X-21.867 Y16.94 E72.815
G1 X-22.21 Y17.441 E72.84529
G1 X-22.425 Y18.002 E72.87527
G1 X-22.496 Y18.6 E72.90531
G1 X-22.425 Y19.198 E72.93535
G1 X-22.211 Y19.759 E72.96531
G1 X-21.87 Y20.257 E72.99542
G1 X-21.417 Y20.656 E73.02554
G1 X-20.886 Y20.935 E73.05546
G1 X-20.3 Y21.079 E73.08557
G1 X-19.7 Y21.079 E73.1155
G1 X-19.114 Y20.935 E73.14561
G1 X-18.583 Y20.656 E73.17553
G0 F3600 X-7.372 Y15.128
G0 X0.396 Y-58.227
G1 F1800 X1.169 Y-58.417 E73.21525
G1 X1.874 Y-58.785 E73.25492
G1 X2.469 Y-59.314 E73.29464
G1 X2.92 Y-59.968 E73.33428
G1 X3.202 Y-60.712 E73.37397
G1 X3.277 Y-61.338 E73.40543
G1 X3.3 Y-61.473 E73.41226
G1 X3.217 Y-62.172 E73.44738
G1 X3.193 Y-62.313 E73.45451
G1 X2.919 Y-63.033 E73.49295
G1 X2.469 Y-63.686 E73.53251
G1 X1.874 Y-64.215 E73.57223
G1 X1.169 Y-64.583 E73.61191
G1 X0.396 Y-64.773 E73.65162
G1 X-.396 Y-64.773 E73.69114
G1 X-1.169 Y-64.583 E73.73085
G1 X-1.874 Y-64.215 E73.77052
G1 X-2.469 Y-63.686 E73.81025
G1 X-2.92 Y-63.032 E73.84988
G1 X-3.202 Y-62.288 E73.88957
G1 X-3.279 Y-61.648 E73.92173
G1 X-3.3 Y-61.527 E73.92786
G1 X-3.217 Y-60.828 E73.96298
G1 X-3.193 Y-60.687 E73.97012
G1 X-2.919 Y-59.967 E74.00855
G1 X-2.469 Y-59.314 E74.04811
G1 X-1.874 Y-58.785 E74.08783
G1 X-1.169 Y-58.417 E74.12751
G1 X-.396 Y-58.227 E74.16722
G1 X0.396 Y-58.227 E74.20674
G0 F3600 X1.673 Y-59.077
G0 X11.695 Y-70.328
G1 F1800 X11.829 Y-70.194 E74.21619
