;FLAVOR:Marlin
;TIME:3099
;Filament used: 4.39762m
;Layer height: 0.3
;MINX:-27.091
;MINY:-119.029
;MINZ:0.3
;MAXX:20.509
;MAXY:23.571
;MAXZ:3.9
;Generated with Cura_SteamEngine 4.7.1
M140 S50
M105
M190 S50
M104 S255
M105
M109 S255
M82 ;absolute extrusion mode
G28 ;Home
G1 Z15.0 F6000 ;Move the platform down 15mm
;Prime the extruder
G92 E0
G1 F200 E3
G92 E0
G92 E0
G92 E0
G1 F1500 E-6.5
;LAYER_COUNT:13
;LAYER:0
M107
;MESH:spine2020_10_01.stl
G0 F3600 X-10.932 Y0.77 Z0.3
;TYPE:WALL-INNER
G1 F1500 E0
G1 F1800 X-11.052 Y0.076 E0.03514
G1 X-11.38 Y-.528 E0.06943
G1 X-11.887 Y-.993 E0.10375
G1 X-12.532 Y-1.274 E0.13885
G1 X-13.219 Y-1.33 E0.17324
G1 X-13.899 Y-1.154 E0.20828
G1 X-14.475 Y-.776 E0.24265
G1 X-14.897 Y-.229 E0.27712
G1 X-15.119 Y0.419 E0.31129
G1 X-15.12 Y1.121 E0.34632
G1 X-14.897 Y1.773 E0.3807
G1 X-14.462 Y2.329 E0.41592
G1 X-13.884 Y2.704 E0.45029
G1 X-13.61 Y2.773 E0.46439
G1 X-13.217 Y2.871 E0.48459
G1 X-12.517 Y2.812 E0.51964
G1 X-12.429 Y2.773 E0.52444
G1 X-11.884 Y2.533 E0.55415
G1 X-11.371 Y2.056 E0.5891
G1 X-11.046 Y1.45 E0.62341
G1 X-10.932 Y0.77 E0.65781
G0 F3600 X-10.832 Y0.77
G0 X1.337 Y3.143
G0 X8.975 Y20.063
G0 X9.058 Y20.77
G1 F1800 X8.938 Y20.076 E0.69294
G1 X8.724 Y19.681 E0.71536
G1 X8.61 Y19.472 E0.72723
G1 X8.103 Y19.007 E0.76156
G1 X7.458 Y18.726 E0.79666
G1 X6.771 Y18.67 E0.83104
G1 X6.091 Y18.846 E0.86609
G1 X5.515 Y19.224 E0.90046
G1 X5.093 Y19.771 E0.93493
G1 X4.871 Y20.419 E0.9691
G1 X4.87 Y21.121 E1.00412
G1 X5.093 Y21.773 E1.0385
G1 X5.528 Y22.329 E1.07372
G1 X6.106 Y22.704 E1.1081
G1 X6.38 Y22.773 E1.12219
G1 X6.773 Y22.871 E1.1424
G1 X7.473 Y22.812 E1.17745
G1 X7.561 Y22.773 E1.18225
G1 X8.106 Y22.533 E1.21196
G1 X8.619 Y22.056 E1.24691
G1 X8.724 Y21.861 E1.25796
G1 X8.944 Y21.45 E1.28121
G1 X9.058 Y20.77 E1.31561
G0 F3600 X9.158 Y20.77
G0 X18.671 Y-8.375
G0 X18.818 Y-9.13
G1 F1800 X18.698 Y-9.824 E1.35075
G1 X18.37 Y-10.428 E1.38504
G1 X17.863 Y-10.893 E1.41936
G1 X17.218 Y-11.174 E1.45446
G1 X16.531 Y-11.23 E1.48885
G1 X15.851 Y-11.054 E1.52389
G1 X15.275 Y-10.676 E1.55827
G1 X14.853 Y-10.129 E1.59273
G1 X14.631 Y-9.481 E1.62691
G1 X14.63 Y-8.779 E1.66193
G1 X14.853 Y-8.127 E1.69631
G1 X15.288 Y-7.571 E1.73153
G1 X15.866 Y-7.196 E1.7659
G1 X16.533 Y-7.029 E1.80021
G1 X17.233 Y-7.088 E1.83525
G1 X17.866 Y-7.367 E1.86977
G1 X18.379 Y-7.844 E1.90471
G1 X18.704 Y-8.45 E1.93902
G1 X18.818 Y-9.13 E1.97342
G0 F3600 X18.918 Y-9.13
G0 X18.401 Y-10.452
G0 X17.227 Y-11.212
G0 X0.081 Y-12.601
G0 X0.075 Y-17.42
G0 X-21.082 Y-29.13
G0 X-21.182 Y-29.13
G1 F1800 X-21.302 Y-29.824 E2.00856
G1 X-21.63 Y-30.428 E2.04285
G1 X-22.137 Y-30.893 E2.07717
G1 X-22.782 Y-31.174 E2.11227
G1 X-23.469 Y-31.23 E2.14666
G1 X-24.149 Y-31.054 E2.1817
G1 X-24.725 Y-30.676 E2.21607
G1 X-25.147 Y-30.129 E2.25054
G1 X-25.369 Y-29.481 E2.28471
G1 X-25.37 Y-28.779 E2.31974
G1 X-25.147 Y-28.127 E2.35411
G1 X-24.712 Y-27.571 E2.38933
G1 X-24.134 Y-27.196 E2.42371
G1 X-23.467 Y-27.029 E2.45801
G1 X-22.767 Y-27.088 E2.49306
G1 X-22.134 Y-27.367 E2.52757
G1 X-21.621 Y-27.844 E2.56252
G1 X-21.296 Y-28.45 E2.59683
G1 X-21.182 Y-29.13 E2.63123
G0 F3600 X-21.082 Y-29.13
G0 X-10.663 Y-32.601
G0 X-2.871 Y-50.646
G0 X-2.02 Y-51.611
G0 X-.828 Y-52.188
G0 X-.811 Y-52.09
G1 F1800 X-1.587 Y-51.826 E2.67212
G1 X-1.996 Y-51.58 E2.69593
G1 X-2.57 Y-51.027 E2.7357
G1 X-2.836 Y-50.628 E2.75962
G1 X-3.126 Y-49.864 E2.80039
G1 X-3.191 Y-49.026 E2.84232
G1 X-3.016 Y-48.225 E2.88323
G1 X-2.815 Y-47.793 E2.907
G1 X-2.33 Y-47.162 E2.9467
G1 X-1.962 Y-46.853 E2.97068
G1 X-1.254 Y-46.49 E3.01037
G1 X-.791 Y-46.369 E3.03425
G1 X0.028 Y-46.341 E3.07513
G1 X0.84 Y-46.551 E3.11697
G1 X1.56 Y-46.987 E3.15897
G1 X2.123 Y-47.613 E3.20097
G1 X2.474 Y-48.352 E3.24179
G1 X2.585 Y-48.839 E3.26671
G1 X2.586 Y-49.617 E3.30552
G1 X2.476 Y-50.103 E3.33038
G1 X2.148 Y-50.803 E3.36895
G1 X1.858 Y-51.181 E3.39272
G1 X1.246 Y-51.691 E3.43246
G1 X0.82 Y-51.912 E3.45641
G1 X0.029 Y-52.117 E3.49717
G1 X-.811 Y-52.09 E3.5391
G0 F3600 X-.828 Y-52.188
G0 X4.039 Y-107.899
G0 X4.109 Y-107.829
G1 F1800 X4.109 Y-66.629 E5.59458
G1 X9.109 Y-66.629 E5.84403
G1 X9.109 Y-42.829 E7.03142
G1 X0.109 Y-42.829 E7.48043
G1 X0.109 Y-12.629 E8.98711
G1 X20.109 Y-12.629 E9.98492
G1 X20.109 Y-5.829 E10.32417
G1 X9.109 Y-5.829 E10.87296
G1 X9.109 Y19.626 E12.14292
G1 X9.109 Y20.076 E12.15915
G1 X9.109 Y20.77 E12.16867
G1 X9.109 Y21.45 E12.17775
G1 X9.109 Y21.917 E12.19442
G1 X9.109 Y23.171 E12.25698
G1 X7.57 Y23.171 E12.33376
G1 X7.473 Y23.171 E12.33836
G1 X6.773 Y23.171 E12.36713
G1 X6.368 Y23.171 E12.38483
G1 X1.309 Y23.171 E12.63722
G1 X1.309 Y3.171 E13.63503
G1 X-12.42 Y3.171 E14.31997
G1 X-12.517 Y3.171 E14.32457
G1 X-13.217 Y3.171 E14.35333
G1 X-13.622 Y3.171 E14.37103
G1 X-15.691 Y3.171 E14.47425
G1 X-15.691 Y-25.829 E15.92107
G1 X-26.691 Y-25.829 E16.46986
G1 X-26.691 Y-32.629 E16.80912
G1 X-10.691 Y-32.629 E17.60736
G1 X-10.691 Y-60.829 E19.01426
G1 X-15.691 Y-60.829 E19.26371
G1 X-15.691 Y-66.629 E19.55308
G1 X-10.691 Y-66.629 E19.80253
G1 X-10.691 Y-107.829 E21.858
G1 X-15.691 Y-107.829 E22.10746
G1 X-15.691 Y-118.629 E22.64627
G1 X9.109 Y-118.629 E23.88355
G1 X9.109 Y-107.829 E24.42236
G1 X4.109 Y-107.829 E24.67181
G0 F3600 X4.039 Y-107.899
G0 X-1.732 Y-111.724
G0 X-2.814 Y-112.116
G0 X-3.828 Y-112.188
G0 X-3.811 Y-112.09
G1 F1800 X-4.587 Y-111.826 E24.71271
G1 X-4.995 Y-111.582 E24.73642
G1 X-5.57 Y-111.027 E24.77629
G1 X-5.836 Y-110.628 E24.80022
G1 X-6.126 Y-109.864 E24.84099
G1 X-6.191 Y-109.026 E24.88292
G1 X-6.016 Y-108.225 E24.92383
G1 X-5.815 Y-107.793 E24.9476
G1 X-5.33 Y-107.162 E24.9873
G1 X-4.962 Y-106.853 E25.01128
G1 X-4.254 Y-106.49 E25.05097
G1 X-3.791 Y-106.369 E25.07485
G1 X-2.972 Y-106.341 E25.11573
G1 X-2.16 Y-106.551 E25.15757
G1 X-1.44 Y-106.987 E25.19957
G1 X-.877 Y-107.613 E25.24157
G1 X-.526 Y-108.352 E25.28239
G1 X-.415 Y-108.839 E25.30731
G1 X-.414 Y-109.617 E25.34612
G1 X-.524 Y-110.103 E25.37098
G1 X-.852 Y-110.803 E25.40955
G1 X-1.142 Y-111.181 E25.43332
G1 X-1.754 Y-111.691 E25.47306
G1 X-2.18 Y-111.912 E25.497
G1 X-2.971 Y-112.117 E25.53777
G1 X-3.811 Y-112.09 E25.5797
G0 F3600 X-3.739 Y-111.692
;TYPE:WALL-OUTER
G1 F1800 X-4.418 Y-111.461 E25.61548
G1 X-4.75 Y-111.262 E25.63479
G1 X-5.261 Y-110.769 E25.67022
G1 X-5.478 Y-110.444 E25.68972
G1 X-5.732 Y-109.776 E25.72537
G1 X-5.788 Y-109.054 E25.7615
G1 X-5.635 Y-108.354 E25.79725
G1 X-5.471 Y-108.002 E25.81662
G1 X-5.039 Y-107.44 E25.85199
G1 X-4.739 Y-107.188 E25.87153
G1 X-4.11 Y-106.866 E25.90679
G1 X-3.733 Y-106.767 E25.92623
G1 X-3.016 Y-106.743 E25.96202
G1 X-2.317 Y-106.924 E25.99805
G1 X-1.698 Y-107.299 E26.03415
G1 X-1.213 Y-107.837 E26.07029
G1 X-.906 Y-108.484 E26.10602
G1 X-.815 Y-108.884 E26.12649
G1 X-.814 Y-109.572 E26.16081
G1 X-.905 Y-109.972 E26.18128
G1 X-1.196 Y-110.594 E26.21554
G1 X-1.432 Y-110.902 E26.23489
G1 X-1.977 Y-111.356 E26.27028
G1 X-2.324 Y-111.536 E26.28979
G1 X-3.016 Y-111.715 E26.32545
G1 X-3.739 Y-111.692 E26.36153
G0 F3600 X-3.928 Y-111.628
G0 X-4.088 Y-112.101
G0 X-2.967 Y-112.156
G0 X-2.166 Y-111.949
G0 X4.009 Y-107.429
G0 X4.509 Y-107.429
G1 F1800 X4.509 Y-67.029 E28.3771
G1 X9.509 Y-67.029 E28.62655
G1 X9.509 Y-42.429 E29.85385
G1 X0.509 Y-42.429 E30.30286
G1 X0.509 Y-13.029 E31.76963
G1 X20.509 Y-13.029 E32.76744
G1 X20.509 Y-5.429 E33.1466
G1 X9.509 Y-5.429 E33.69539
G1 X9.509 Y23.571 E35.14221
G1 X0.909 Y23.571 E35.57127
G1 X0.909 Y3.571 E36.56907
G1 X-16.091 Y3.571 E37.4172
G1 X-16.091 Y-25.429 E38.86402
G1 X-27.091 Y-25.429 E39.41281
G1 X-27.091 Y-33.029 E39.79198
G1 X-11.091 Y-33.029 E40.59022
G1 X-11.091 Y-60.429 E41.95721
G1 X-16.091 Y-60.429 E42.20666
G1 X-16.091 Y-67.029 E42.53594
G1 X-11.091 Y-67.029 E42.78539
G1 X-11.091 Y-107.429 E44.80095
G1 X-16.091 Y-107.429 E45.0504
G1 X-16.091 Y-119.029 E45.62913
G1 X9.509 Y-119.029 E46.90632
G1 X9.509 Y-107.429 E47.48505
G1 X4.509 Y-107.429 E47.7345
G0 F3600 X4.509 Y-107.229
G0 X4.009 Y-107.229
G0 X-.899 Y-52.165
G0 X-.739 Y-51.692
G1 F1800 X-1.418 Y-51.461 E47.77028
G1 X-1.751 Y-51.261 E47.78966
G1 X-2.261 Y-50.769 E47.82501
G1 X-2.478 Y-50.444 E47.84451
G1 X-2.732 Y-49.776 E47.88016
G1 X-2.788 Y-49.054 E47.91629
G1 X-2.635 Y-48.354 E47.95204
G1 X-2.471 Y-48.002 E47.97141
G1 X-2.039 Y-47.44 E48.00678
G1 X-1.739 Y-47.188 E48.02633
G1 X-1.11 Y-46.866 E48.06158
G1 X-.733 Y-46.767 E48.08103
G1 X-0.016 Y-46.743 E48.11682
G1 X0.683 Y-46.924 E48.15284
G1 X1.302 Y-47.299 E48.18895
G1 X1.787 Y-47.837 E48.22509
G1 X2.094 Y-48.484 E48.26081
G1 X2.185 Y-48.884 E48.28128
G1 X2.186 Y-49.572 E48.3156
G1 X2.095 Y-49.972 E48.33607
G1 X1.804 Y-50.594 E48.37033
G1 X1.568 Y-50.902 E48.38969
G1 X1.023 Y-51.356 E48.42508
G1 X0.676 Y-51.536 E48.44458
G1 X-0.016 Y-51.715 E48.48024
G1 X-.739 Y-51.692 E48.51633
G0 F3600 X-.928 Y-51.628
G0 X-1.088 Y-52.101
G0 X-2.02 Y-51.611
G0 X-2.6 Y-51.052
G0 X-10.664 Y-41.064
G0 X-10.663 Y-32.601
G0 X-21.096 Y-29.046
G0 X-21.588 Y-29.129
G1 F1800 X-21.685 Y-29.691 E48.54478
G1 X-21.95 Y-30.178 E48.57244
G1 X-22.358 Y-30.553 E48.60009
G1 X-22.881 Y-30.781 E48.62855
G1 X-23.434 Y-30.826 E48.65623
G1 X-23.985 Y-30.683 E48.68463
G1 X-24.449 Y-30.378 E48.71234
G1 X-24.79 Y-29.937 E48.74015
G1 X-24.969 Y-29.414 E48.76773
G1 X-24.97 Y-28.845 E48.79611
G1 X-24.79 Y-28.32 E48.8238
G1 X-24.438 Y-27.87 E48.85231
G1 X-23.972 Y-27.568 E48.88001
G1 X-23.434 Y-27.433 E48.90768
G1 X-22.867 Y-27.481 E48.93607
G1 X-22.357 Y-27.706 E48.96388
G1 X-21.942 Y-28.092 E48.99216
G1 X-21.68 Y-28.581 E49.01984
G1 X-21.588 Y-29.129 E49.04756
G0 F3600 X-21.622 Y-29.326
G0 X-21.129 Y-29.411
G0 X-15.663 Y-25.857
G0 X-10.846 Y0.854
G0 X-11.338 Y0.771
G1 F1800 X-11.435 Y0.209 E49.07601
G1 X-11.7 Y-.278 E49.10367
G1 X-12.108 Y-.653 E49.13132
G1 X-12.631 Y-.881 E49.15978
G1 X-13.184 Y-.926 E49.18746
G1 X-13.735 Y-.783 E49.21586
G1 X-14.199 Y-.478 E49.24357
G1 X-14.54 Y-0.037 E49.27138
G1 X-14.719 Y0.486 E49.29896
G1 X-14.72 Y1.055 E49.32734
G1 X-14.54 Y1.58 E49.35503
G1 X-14.188 Y2.03 E49.38354
G1 X-13.722 Y2.332 E49.41124
G1 X-13.184 Y2.467 E49.43891
G1 X-12.617 Y2.419 E49.4673
G1 X-12.107 Y2.194 E49.49511
G1 X-11.692 Y1.808 E49.52339
G1 X-11.43 Y1.319 E49.55107
G1 X-11.338 Y0.771 E49.57879
G0 F3600 X-11.372 Y0.574
G0 X-10.879 Y0.489
G0 X1.337 Y3.143
G0 X8.975 Y20.063
G0 X9.144 Y20.854
G0 X8.652 Y20.771
G1 F1800 X8.555 Y20.209 E49.60724
G1 X8.29 Y19.722 E49.6349
G1 X7.882 Y19.347 E49.66255
G1 X7.359 Y19.119 E49.69101
G1 X6.806 Y19.074 E49.71869
G1 X6.255 Y19.217 E49.74709
G1 X5.791 Y19.522 E49.7748
G1 X5.45 Y19.963 E49.80261
G1 X5.271 Y20.486 E49.83019
G1 X5.27 Y21.055 E49.85857
G1 X5.45 Y21.58 E49.88626
G1 X5.802 Y22.03 E49.91477
G1 X6.268 Y22.332 E49.94247
G1 X6.806 Y22.467 E49.97014
G1 X7.373 Y22.419 E49.99853
G1 X7.883 Y22.194 E50.02634
G1 X8.298 Y21.808 E50.05462
G1 X8.56 Y21.319 E50.0823
G1 X8.652 Y20.771 E50.11002
G0 F3600 X8.618 Y20.574
G0 X9.111 Y20.489
G0 X18.904 Y-9.046
G0 X18.412 Y-9.129
G1 F1800 X18.315 Y-9.691 E50.13847
G1 X18.05 Y-10.178 E50.16613
G1 X17.642 Y-10.553 E50.19378
G1 X17.119 Y-10.781 E50.22224
G1 X16.566 Y-10.826 E50.24992
G1 X16.015 Y-10.683 E50.27832
G1 X15.551 Y-10.378 E50.30603
G1 X15.21 Y-9.937 E50.33384
G1 X15.031 Y-9.414 E50.36142
G1 X15.03 Y-8.845 E50.3898
G1 X15.21 Y-8.32 E50.41749
G1 X15.562 Y-7.87 E50.446
G1 X16.028 Y-7.568 E50.4737
G1 X16.566 Y-7.433 E50.50137
G1 X17.133 Y-7.481 E50.52976
G1 X17.643 Y-7.706 E50.55757
G1 X18.058 Y-8.092 E50.58585
G1 X18.32 Y-8.581 E50.61353
G1 X18.412 Y-9.129 E50.64125
G0 F3600 X18.378 Y-9.326
G0 X19.214 Y-9.132
;TYPE:SKIN
G1 F1800 X19.071 Y-9.954 E50.68287
G1 X18.682 Y-10.672 E50.72361
G1 X18.079 Y-11.224 E50.7644
G1 X17.314 Y-11.558 E50.80604
G1 X16.497 Y-11.624 E50.84694
G1 X15.691 Y-11.415 E50.88848
G1 X15.006 Y-10.966 E50.92934
G1 X14.504 Y-10.316 E50.97032
G1 X14.241 Y-9.546 E51.01091
G1 X14.24 Y-8.715 E51.05237
G1 X14.506 Y-7.938 E51.09334
G1 X15.021 Y-7.279 E51.13507
G1 X15.708 Y-6.833 E51.17593
G1 X16.502 Y-6.635 E51.21676
G1 X17.331 Y-6.705 E51.25826
G1 X18.084 Y-7.037 E51.29932
G1 X18.692 Y-7.602 E51.34073
G1 X19.078 Y-8.322 E51.38149
G1 X19.214 Y-9.132 E51.42246
G0 F3600 X19.719 Y-12.239
G1 F1800 X19.719 Y-6.219 E51.7228
G1 X8.719 Y-6.219 E52.27159
G1 X8.719 Y19.042 E53.53187
G1 X8.319 Y18.676 E53.55892
G1 X7.554 Y18.342 E53.60057
G1 X6.737 Y18.276 E53.64146
G1 X5.931 Y18.485 E53.683
G1 X5.246 Y18.934 E53.72386
G1 X4.744 Y19.584 E53.76484
G1 X4.481 Y20.354 E53.80543
G1 X4.48 Y21.185 E53.84689
G1 X4.746 Y21.962 E53.88786
G1 X5.261 Y22.621 E53.92959
G1 X5.507 Y22.781 E53.94423
G1 X1.699 Y22.781 E54.13421
G1 X1.699 Y2.781 E55.13202
G1 X-11.578 Y2.781 E55.79441
G1 X-11.058 Y2.298 E55.82982
G1 X-10.672 Y1.578 E55.87057
G1 X-10.536 Y0.768 E55.91155
G1 X-10.679 Y-0.054 E55.95318
G1 X-11.068 Y-.772 E55.99392
G1 X-11.671 Y-1.324 E56.0347
G1 X-12.436 Y-1.658 E56.07635
G1 X-13.253 Y-1.724 E56.11724
G1 X-14.059 Y-1.515 E56.15878
G1 X-14.744 Y-1.066 E56.19964
G1 X-15.246 Y-.416 E56.24062
G1 X-15.301 Y-.255 E56.2491
G1 X-15.301 Y-26.219 E57.54445
G1 X-26.301 Y-26.219 E58.09325
G1 X-26.301 Y-32.239 E58.39359
G1 X-10.301 Y-32.239 E59.19183
G1 X-10.301 Y-61.219 E60.63765
G1 X-15.301 Y-61.219 E60.8871
G1 X-15.301 Y-66.239 E61.13755
G1 X-10.301 Y-66.239 E61.387
G1 X-10.301 Y-108.219 E63.48139
G1 X-15.301 Y-108.219 E63.73084
G1 X-15.301 Y-118.239 E64.23074
G1 X8.719 Y-118.239 E65.4291
G1 X8.719 Y-108.219 E65.929
G1 X3.719 Y-108.219 E66.17845
G1 X3.719 Y-66.239 E68.27284
G1 X8.719 Y-66.239 E68.52229
G1 X8.719 Y-43.219 E69.67077
G1 X-.281 Y-43.219 E70.11978
G1 X-.281 Y-12.239 E71.66538
G1 X19.719 Y-12.239 E72.66318
G0 F3600 X15.835 Y-11.09
G0 X-12.508 Y2.85
G0 X-14.483 Y2.781
G1 F1800 X-15.301 Y2.781 E72.70399
G1 X-15.301 Y1.796 E72.75313
G1 X-15.244 Y1.962 E72.76189
G1 X-14.729 Y2.621 E72.80362
G1 X-14.483 Y2.781 E72.81826
G0 F3600 X-14.932 Y1.792
G0 X-15.663 Y-25.857
G0 X-20.922 Y-28.322
G1 F1800 X-20.786 Y-29.132 E72.85923
G1 X-20.929 Y-29.954 E72.90086
G1 X-21.318 Y-30.672 E72.9416
G1 X-21.921 Y-31.224 E72.98239
G1 X-22.686 Y-31.558 E73.02403
G1 X-23.503 Y-31.624 E73.06492
G1 X-24.309 Y-31.415 E73.10646
G1 X-24.994 Y-30.966 E73.14733
G1 X-25.496 Y-30.316 E73.1883
G1 X-25.759 Y-29.546 E73.2289
G1 X-25.76 Y-28.715 E73.27035
G1 X-25.494 Y-27.938 E73.31133
G1 X-24.979 Y-27.279 E73.35305
G1 X-24.292 Y-26.833 E73.39392
G1 X-23.498 Y-26.635 E73.43474
G1 X-22.669 Y-26.705 E73.47625
G1 X-21.916 Y-27.037 E73.51731
G1 X-21.308 Y-27.602 E73.55871
G1 X-20.922 Y-28.322 E73.59947
G0 F3600 X-10.663 Y-32.601
G0 X0.993 Y-46.188
G1 F1800 X1.811 Y-46.683 E73.64717
G1 X2.451 Y-47.395 E73.69494
G1 X2.845 Y-48.223 E73.74068
G1 X2.975 Y-48.794 E73.7699
G1 X2.976 Y-49.66 E73.8131
G1 X2.847 Y-50.23 E73.84226
G1 X2.483 Y-51.007 E73.88507
G1 X2.141 Y-51.452 E73.91307
G1 X1.463 Y-52.018 E73.95713
G1 X0.96 Y-52.279 E73.9854
G1 X0.072 Y-52.509 E74.03117
G1 X-.881 Y-52.478 E74.07874
G1 X-1.752 Y-52.181 E74.12465
G1 X-2.234 Y-51.892 E74.15269
G1 X-2.871 Y-51.279 E74.19679
G1 X-3.185 Y-50.808 E74.22504
G1 X-3.51 Y-49.95 E74.27081
G1 X-3.585 Y-48.999 E74.3184
G1 X-3.388 Y-48.1 E74.36432
G1 X-3.15 Y-47.59 E74.3924
G1 X-2.613 Y-46.891 E74.43637
G1 X-2.179 Y-46.526 E74.46466
G1 X-1.394 Y-46.123 E74.50869
G1 X-.848 Y-45.981 E74.53683
G1 X0.071 Y-45.949 E74.58271
G1 X0.993 Y-46.188 E74.63023
G0 F3600 X2.156 Y-47.591
G0 X2.511 Y-48.339
G0 X2.624 Y-49.28
G0 X-2.929 Y-105.949
G1 F1800 X-2.007 Y-106.188 E74.67775
G1 X-1.189 Y-106.683 E74.72545
G1 X-.549 Y-107.395 E74.77321
G1 X-.155 Y-108.223 E74.81896
G1 X-0.025 Y-108.794 E74.84818
G1 X-0.024 Y-109.66 E74.89138
G1 X-.153 Y-110.23 E74.92054
G1 X-.517 Y-111.007 E74.96334
G1 X-.859 Y-111.452 E74.99134
G1 X-1.537 Y-112.018 E75.03541
G1 X-2.04 Y-112.279 E75.06368
G1 X-2.928 Y-112.509 E75.10944
G1 X-3.881 Y-112.478 E75.15701
G1 X-4.751 Y-112.182 E75.20286
G1 X-5.233 Y-111.894 E75.23088
G1 X-5.871 Y-111.278 E75.27512
G1 X-6.185 Y-110.808 E75.30332
G1 X-6.51 Y-109.95 E75.34909
G1 X-6.585 Y-108.999 E75.39669
G1 X-6.388 Y-108.1 E75.4426
G1 X-6.15 Y-107.59 E75.47068
G1 X-5.613 Y-106.891 E75.51466
G1 X-5.179 Y-106.526 E75.54295
G1 X-4.394 Y-106.123 E75.58697
G1 X-3.848 Y-105.981 E75.61512
G1 X-2.929 Y-105.949 E75.66099
