;FLAVOR:Marlin
;TIME:2903
;Filament used: 3.97164m
;Layer height: 0.3
;MINX:-19.8
;MINY:-37.8
;MINZ:0.3
;MAXX:19.8
;MAXY:37.8
;MAXZ:25.8
;Generated with Cura_SteamEngine 4.9.1
M140 S50
M105
M190 S50
M104 S250
M105
M109 S250
M82 ;absolute extrusion mode
G28 ;Home
G1 Z15.0 F6000 ;Move the platform down 15mm
;Prime the extruder
G92 E0
G1 F200 E3
G92 E0
G92 E0
G92 E0
G1 F1500 E-6.5
;LAYER_COUNT:86
;LAYER:0
M107
G0 F3600 X-18.691 Y-6.01 Z0.3
;TYPE:SKIRT
G1 F1500 E0
G1 F1800 X-18.825 Y-6.225 E0.01264
G1 X-19.171 Y-6.934 E0.052
G1 X-19.445 Y-7.675 E0.09141
G1 X-19.642 Y-8.44 E0.13082
G1 X-19.761 Y-9.221 E0.17024
G1 X-19.8 Y-10.002 E0.20925
G1 X-19.8 Y-30 E1.20696
G1 X-19.76 Y-30.789 E1.24637
G1 X-19.641 Y-31.569 E1.28573
G1 X-19.443 Y-32.334 E1.32516
G1 X-19.169 Y-33.074 E1.36453
G1 X-18.821 Y-33.783 E1.40393
G1 X-18.403 Y-34.454 E1.44337
G1 X-17.92 Y-35.078 E1.48274
G1 X-17.377 Y-35.651 E1.52212
G1 X-16.778 Y-36.166 E1.56153
G1 X-16.13 Y-36.617 E1.60092
G1 X-15.439 Y-37.001 E1.64036
G1 X-14.714 Y-37.313 E1.67974
G1 X-13.961 Y-37.55 E1.71912
G1 X-13.187 Y-37.709 E1.75854
G1 X-12.402 Y-37.79 E1.79792
G1 X-12 Y-37.8 E1.81798
G1 X12 Y-37.8 E3.01534
G1 X12.789 Y-37.76 E3.05476
G1 X13.569 Y-37.641 E3.09412
G1 X14.334 Y-37.443 E3.13354
G1 X15.074 Y-37.169 E3.17291
G1 X15.783 Y-36.821 E3.21232
G1 X16.454 Y-36.403 E3.25176
G1 X17.078 Y-35.92 E3.29113
G1 X17.651 Y-35.377 E3.33051
G1 X18.166 Y-34.778 E3.36992
G1 X18.617 Y-34.13 E3.40931
G1 X19.001 Y-33.439 E3.44875
G1 X19.313 Y-32.714 E3.48813
G1 X19.55 Y-31.961 E3.52751
G1 X19.709 Y-31.187 E3.56693
G1 X19.79 Y-30.402 E3.6063
G1 X19.8 Y-30 E3.62636
G1 X19.8 Y30 E6.61978
G1 X19.76 Y30.789 E6.65919
G1 X19.641 Y31.569 E6.69856
G1 X19.443 Y32.334 E6.73798
G1 X19.169 Y33.074 E6.77735
G1 X18.821 Y33.783 E6.81675
G1 X18.403 Y34.454 E6.85619
G1 X17.92 Y35.078 E6.89556
G1 X17.377 Y35.651 E6.93494
G1 X16.778 Y36.166 E6.97435
G1 X16.13 Y36.617 E7.01374
G1 X15.439 Y37.001 E7.05318
G1 X14.714 Y37.313 E7.09256
G1 X13.961 Y37.55 E7.13194
G1 X13.187 Y37.709 E7.17137
G1 X12.402 Y37.79 E7.21074
G1 X12 Y37.8 E7.2308
G1 X-12 Y37.8 E8.42816
G1 X-12.789 Y37.76 E8.46758
G1 X-13.569 Y37.641 E8.50694
G1 X-14.334 Y37.443 E8.54637
G1 X-15.074 Y37.169 E8.58573
G1 X-15.783 Y36.821 E8.62514
G1 X-16.454 Y36.403 E8.66458
G1 X-17.078 Y35.92 E8.70395
G1 X-17.651 Y35.377 E8.74333
G1 X-18.166 Y34.778 E8.78274
G1 X-18.617 Y34.13 E8.82213
G1 X-19.001 Y33.439 E8.86157
G1 X-19.313 Y32.714 E8.90095
G1 X-19.55 Y31.961 E8.94033
G1 X-19.709 Y31.187 E8.97975
G1 X-19.79 Y30.402 E9.01912
G1 X-19.8 Y30 E9.03919
G1 X-19.8 Y-2.018 E10.63657
G1 X-19.76 Y-2.807 E10.67598
G1 X-19.641 Y-3.587 E10.71535
G1 X-19.443 Y-4.352 E10.75477
G1 X-19.169 Y-5.092 E10.79414
G1 X-18.821 Y-5.801 E10.83354
G1 X-18.691 Y-6.01 E10.84582
G0 F3600 X-18.422 Y-5.694
G1 F1800 X-18.223 Y-6.004 E10.8642
G1 X-18.569 Y-6.595 E10.89837
G1 X-18.887 Y-7.295 E10.93673
G1 X-19.131 Y-8.025 E10.97513
G1 X-19.298 Y-8.776 E11.01351
G1 X-19.386 Y-9.54 E11.05188
G1 X-19.4 Y-10.002 E11.07494
G1 X-19.4 Y-30 E12.07264
G1 X-19.36 Y-30.768 E12.11101
G1 X-19.241 Y-31.528 E12.14939
G1 X-19.043 Y-32.271 E12.18775
G1 X-18.769 Y-32.99 E12.22614
G1 X-18.422 Y-33.676 E12.26449
G1 X-18.006 Y-34.323 E12.30287
G1 X-17.525 Y-34.923 E12.34123
G1 X-16.984 Y-35.47 E12.37962
G1 X-16.389 Y-35.958 E12.41801
G1 X-15.747 Y-36.381 E12.45636
G1 X-15.064 Y-36.736 E12.49477
G1 X-14.349 Y-37.017 E12.53309
G1 X-13.607 Y-37.223 E12.57151
G1 X-12.849 Y-37.351 E12.60987
G1 X-12 Y-37.4 E12.65229
G1 X12 Y-37.4 E13.84966
G1 X12.768 Y-37.36 E13.88802
G1 X13.528 Y-37.241 E13.9264
G1 X14.271 Y-37.043 E13.96477
G1 X14.99 Y-36.769 E14.00315
G1 X15.676 Y-36.422 E14.04151
G1 X16.323 Y-36.006 E14.07988
G1 X16.923 Y-35.525 E14.11825
G1 X17.47 Y-34.984 E14.15663
G1 X17.958 Y-34.389 E14.19502
G1 X18.381 Y-33.747 E14.23338
G1 X18.736 Y-33.064 E14.27178
G1 X19.017 Y-32.349 E14.31011
G1 X19.223 Y-31.607 E14.34853
G1 X19.351 Y-30.849 E14.38688
G1 X19.4 Y-30 E14.42931
G1 X19.4 Y30 E17.42272
G1 X19.36 Y30.768 E17.46109
G1 X19.241 Y31.528 E17.49947
G1 X19.043 Y32.271 E17.53783
G1 X18.769 Y32.99 E17.57622
G1 X18.422 Y33.676 E17.61457
G1 X18.006 Y34.323 E17.65295
G1 X17.525 Y34.923 E17.69131
G1 X16.984 Y35.47 E17.72969
G1 X16.389 Y35.958 E17.76809
G1 X15.747 Y36.381 E17.80644
G1 X15.064 Y36.736 E17.84485
G1 X14.349 Y37.017 E17.88317
G1 X13.607 Y37.223 E17.92159
G1 X12.849 Y37.351 E17.95994
G1 X12 Y37.4 E18.00237
G1 X-12 Y37.4 E19.19974
G1 X-12.768 Y37.36 E19.2381
G1 X-13.528 Y37.241 E19.27648
G1 X-14.271 Y37.043 E19.31484
G1 X-14.99 Y36.769 E19.35323
G1 X-15.676 Y36.422 E19.39159
G1 X-16.323 Y36.006 E19.42996
G1 X-16.923 Y35.525 E19.46833
G1 X-17.47 Y34.984 E19.50671
G1 X-17.958 Y34.389 E19.5451
G1 X-18.381 Y33.747 E19.58346
G1 X-18.736 Y33.064 E19.62186
G1 X-19.017 Y32.349 E19.66019
G1 X-19.223 Y31.607 E19.69861
G1 X-19.351 Y30.849 E19.73696
G1 X-19.4 Y30 E19.77939
G1 X-19.4 Y-2.018 E21.37677
G1 X-19.36 Y-2.786 E21.41514
G1 X-19.241 Y-3.546 E21.45352
G1 X-19.043 Y-4.289 E21.49188
G1 X-18.769 Y-5.008 E21.53027
G1 X-18.422 Y-5.694 E21.56862
G0 F3600 X-18.023 Y-5.584
G1 F1800 X-17.738 Y-6.011 E21.59423
G1 X-17.945 Y-6.307 E21.61225
G1 X-18.306 Y-6.963 E21.64961
G1 X-18.594 Y-7.653 E21.68691
G1 X-18.807 Y-8.37 E21.72423
G1 X-18.942 Y-9.106 E21.76156
G1 X-19 Y-10.002 E21.80636
G1 X-19 Y-30 E22.80406
G1 X-18.96 Y-30.747 E22.84138
G1 X-18.841 Y-31.485 E22.87868
G1 X-18.643 Y-32.207 E22.91603
G1 X-18.37 Y-32.903 E22.95333
G1 X-18.023 Y-33.566 E22.99066
G1 X-17.608 Y-34.189 E23.02801
G1 X-17.129 Y-34.763 E23.0653
G1 X-16.592 Y-35.284 E23.10263
G1 X-16.002 Y-35.743 E23.13993
G1 X-15.366 Y-36.138 E23.17728
G1 X-14.692 Y-36.462 E23.21459
G1 X-13.987 Y-36.712 E23.2519
G1 X-13.259 Y-36.886 E23.28925
G1 X-12.517 Y-36.981 E23.32657
G1 X-12 Y-37 E23.35238
G1 X12 Y-37 E24.54974
G1 X12.747 Y-36.96 E24.58707
G1 X13.485 Y-36.841 E24.62436
G1 X14.207 Y-36.643 E24.66171
G1 X14.903 Y-36.37 E24.69901
G1 X15.566 Y-36.023 E24.73634
G1 X16.189 Y-35.608 E24.77369
G1 X16.763 Y-35.129 E24.81099
G1 X17.284 Y-34.592 E24.84832
G1 X17.743 Y-34.002 E24.88561
G1 X18.138 Y-33.366 E24.92296
G1 X18.462 Y-32.692 E24.96027
G1 X18.712 Y-31.987 E24.99759
G1 X18.886 Y-31.259 E25.03493
G1 X18.981 Y-30.517 E25.07225
G1 X19 Y-30 E25.09806
G1 X19 Y30 E28.09148
G1 X18.96 Y30.747 E28.1288
G1 X18.841 Y31.485 E28.16609
G1 X18.643 Y32.207 E28.20344
G1 X18.37 Y32.903 E28.24074
G1 X18.023 Y33.566 E28.27808
G1 X17.608 Y34.189 E28.31542
G1 X17.129 Y34.763 E28.35272
G1 X16.592 Y35.284 E28.39005
G1 X16.002 Y35.743 E28.42734
G1 X15.366 Y36.138 E28.46469
G1 X14.692 Y36.462 E28.502
G1 X13.987 Y36.712 E28.53932
G1 X13.259 Y36.886 E28.57667
G1 X12.517 Y36.981 E28.61399
G1 X12 Y37 E28.6398
G1 X-12 Y37 E29.83716
G1 X-12.747 Y36.96 E29.87448
G1 X-13.485 Y36.841 E29.91178
G1 X-14.207 Y36.643 E29.94913
G1 X-14.903 Y36.37 E29.98643
G1 X-15.566 Y36.023 E30.02376
G1 X-16.189 Y35.608 E30.06111
G1 X-16.763 Y35.129 E30.09841
G1 X-17.284 Y34.592 E30.13573
G1 X-17.743 Y34.002 E30.17303
G1 X-18.138 Y33.366 E30.21038
G1 X-18.462 Y32.692 E30.24769
G1 X-18.712 Y31.987 E30.28501
G1 X-18.886 Y31.259 E30.32235
G1 X-18.981 Y30.517 E30.35967
G1 X-19 Y30 E30.38548
G1 X-19 Y-2.018 E31.98287
G1 X-18.96 Y-2.765 E32.02019
G1 X-18.841 Y-3.503 E32.05748
G1 X-18.643 Y-4.225 E32.09483
G1 X-18.37 Y-4.921 E32.13213
G1 X-18.023 Y-5.584 E32.16947
G0 F3600 X-17.226 Y-5.353
G1 F1800 X-16.815 Y-5.924 E32.20456
G1 X-16.736 Y-6.011 E32.21043
G1 X-17.084 Y-6.453 E32.23849
G1 X-17.453 Y-7.052 E32.27359
G1 X-17.753 Y-7.689 E32.30872
G1 X-17.978 Y-8.356 E32.34384
G1 X-18.126 Y-9.045 E32.379
G1 X-18.2 Y-10.002 E32.42689
G1 X-18.2 Y-30 E33.42459
G1 X-18.16 Y-30.703 E33.45972
G1 X-18.041 Y-31.397 E33.49485
G1 X-17.843 Y-32.072 E33.52994
G1 X-17.571 Y-32.721 E33.56505
G1 X-17.226 Y-33.335 E33.60019
G1 X-16.815 Y-33.906 E33.63529
G1 X-16.341 Y-34.427 E33.67043
G1 X-15.811 Y-34.891 E33.70557
G1 X-15.232 Y-35.291 E33.74068
G1 X-14.611 Y-35.623 E33.77581
G1 X-13.957 Y-35.883 E33.81092
G1 X-13.277 Y-36.067 E33.84607
G1 X-12.581 Y-36.173 E33.88119
G1 X-12 Y-36.2 E33.91021
G1 X12 Y-36.2 E35.10758
G1 X12.703 Y-36.16 E35.14271
G1 X13.397 Y-36.041 E35.17784
G1 X14.072 Y-35.843 E35.21293
G1 X14.721 Y-35.571 E35.24804
G1 X15.335 Y-35.226 E35.28317
G1 X15.906 Y-34.815 E35.31827
G1 X16.427 Y-34.341 E35.35341
G1 X16.891 Y-33.811 E35.38856
G1 X17.291 Y-33.232 E35.42367
G1 X17.623 Y-32.611 E35.4588
G1 X17.883 Y-31.957 E35.49391
G1 X18.067 Y-31.277 E35.52906
G1 X18.173 Y-30.581 E35.56418
G1 X18.2 Y-30 E35.5932
G1 X18.2 Y30 E38.58661
G1 X18.16 Y30.703 E38.62174
G1 X18.041 Y31.397 E38.65687
G1 X17.843 Y32.072 E38.69196
G1 X17.571 Y32.721 E38.72707
G1 X17.226 Y33.335 E38.76221
G1 X16.815 Y33.906 E38.79731
G1 X16.341 Y34.427 E38.83245
G1 X15.811 Y34.891 E38.86759
G1 X15.232 Y35.291 E38.9027
G1 X14.611 Y35.623 E38.93783
G1 X13.957 Y35.883 E38.97294
G1 X13.277 Y36.067 E39.00809
G1 X12.581 Y36.173 E39.04321
G1 X12 Y36.2 E39.07223
G1 X-12 Y36.2 E40.2696
G1 X-12.703 Y36.16 E40.30473
G1 X-13.397 Y36.041 E40.33985
G1 X-14.072 Y35.843 E40.37495
G1 X-14.721 Y35.571 E40.41006
G1 X-15.335 Y35.226 E40.44519
G1 X-15.906 Y34.815 E40.48029
G1 X-16.427 Y34.341 E40.51543
G1 X-16.891 Y33.811 E40.55058
G1 X-17.291 Y33.232 E40.58569
G1 X-17.623 Y32.611 E40.62082
G1 X-17.883 Y31.957 E40.65593
G1 X-18.067 Y31.277 E40.69108
G1 X-18.173 Y30.581 E40.7262
G1 X-18.2 Y30 E40.75522
G1 X-18.2 Y-2.018 E42.3526
G1 X-18.16 Y-2.721 E42.38773
G1 X-18.041 Y-3.415 E42.42286
G1 X-17.843 Y-4.09 E42.45795
G1 X-17.571 Y-4.739 E42.49306
G1 X-17.226 Y-5.353 E42.5282
G0 F3600 X-17.703 Y-6.681
G1 F1800 X-18.034 Y-7.328 E42.56446
G1 X-18.291 Y-8.007 E42.60068
G1 X-18.472 Y-8.71 E42.63689
G1 X-18.575 Y-9.429 E42.67313
G1 X-18.6 Y-10.002 E42.70175
G1 X-18.6 Y-30 E43.69945
G1 X-18.56 Y-30.725 E43.73568
G1 X-18.441 Y-31.442 E43.77194
G1 X-18.243 Y-32.141 E43.80818
G1 X-17.97 Y-32.814 E43.84441
G1 X-17.625 Y-33.453 E43.88064
G1 X-17.211 Y-34.05 E43.91689
G1 X-16.735 Y-34.598 E43.9531
G1 X-16.201 Y-35.091 E43.98936
G1 X-15.616 Y-35.521 E44.02558
G1 X-14.987 Y-35.885 E44.06184
G1 X-14.322 Y-36.178 E44.0981
G1 X-13.629 Y-36.396 E44.13434
G1 X-12.917 Y-36.536 E44.17054
G1 X-12 Y-36.6 E44.2164
G1 X12 Y-36.6 E45.41377
G1 X12.725 Y-36.56 E45.44999
G1 X13.442 Y-36.441 E45.48625
G1 X14.141 Y-36.243 E45.5225
G1 X14.814 Y-35.97 E45.55873
G1 X15.453 Y-35.625 E45.59496
G1 X16.05 Y-35.211 E45.63121
G1 X16.598 Y-34.735 E45.66742
G1 X17.091 Y-34.201 E45.70368
G1 X17.521 Y-33.616 E45.7399
G1 X17.885 Y-32.987 E45.77616
G1 X18.178 Y-32.322 E45.81241
G1 X18.396 Y-31.629 E45.84866
G1 X18.536 Y-30.917 E45.88486
G1 X18.6 Y-30 E45.93072
G1 X18.6 Y30 E48.92413
G1 X18.56 Y30.725 E48.96036
G1 X18.441 Y31.442 E48.99662
G1 X18.243 Y32.141 E49.03286
G1 X17.97 Y32.814 E49.0691
G1 X17.625 Y33.453 E49.10533
G1 X17.211 Y34.05 E49.14157
G1 X16.735 Y34.598 E49.17779
G1 X16.201 Y35.091 E49.21404
G1 X15.616 Y35.521 E49.25027
G1 X14.987 Y35.885 E49.28652
G1 X14.322 Y36.178 E49.32278
G1 X13.629 Y36.396 E49.35902
G1 X12.917 Y36.536 E49.39522
G1 X12 Y36.6 E49.44108
G1 X-12 Y36.6 E50.63845
G1 X-12.725 Y36.56 E50.67467
G1 X-13.442 Y36.441 E50.71094
G1 X-14.141 Y36.243 E50.74718
G1 X-14.814 Y35.97 E50.78341
G1 X-15.453 Y35.625 E50.81964
G1 X-16.05 Y35.211 E50.85589
G1 X-16.598 Y34.735 E50.8921
G1 X-17.091 Y34.201 E50.92836
G1 X-17.521 Y33.616 E50.96458
G1 X-17.885 Y32.987 E51.00084
G1 X-18.178 Y32.322 E51.03709
G1 X-18.396 Y31.629 E51.07334
G1 X-18.536 Y30.917 E51.10954
G1 X-18.6 Y30 E51.1554
G1 X-18.6 Y-2.018 E52.75279
G1 X-18.56 Y-2.743 E52.78901
G1 X-18.441 Y-3.46 E52.82527
G1 X-18.243 Y-4.159 E52.86152
G1 X-17.97 Y-4.832 E52.89775
G1 X-17.625 Y-5.471 E52.93398
G1 X-17.251 Y-6.01 E52.96671
G1 X-17.304 Y-6.074 E52.97086
G1 X-17.703 Y-6.681 E53.0071
G0 F3600 X-16.856 Y-6.83
G1 F1800 X-17.194 Y-7.421 E53.04106
G1 X-17.461 Y-8.047 E53.07502
G1 X-17.652 Y-8.701 E53.10901
G1 X-17.766 Y-9.372 E53.14296
G1 X-17.8 Y-10.002 E53.17444
G1 X-17.8 Y-30 E54.17214
G1 X-17.76 Y-30.68 E54.20613
G1 X-17.641 Y-31.35 E54.24008
G1 X-17.444 Y-32.002 E54.27406
G1 X-17.172 Y-32.626 E54.30802
G1 X-16.828 Y-33.214 E54.34201
G1 X-16.418 Y-33.758 E54.37599
G1 X-15.947 Y-34.249 E54.40994
G1 X-15.422 Y-34.683 E54.44392
G1 X-14.85 Y-35.052 E54.47788
G1 X-14.238 Y-35.351 E54.51186
G1 X-13.596 Y-35.576 E54.5458
G1 X-12.931 Y-35.725 E54.5798
G1 X-12 Y-35.8 E54.6264
G1 X12 Y-35.8 E55.82376
G1 X12.68 Y-35.76 E55.85775
G1 X13.35 Y-35.641 E55.8917
G1 X14.002 Y-35.444 E55.92568
G1 X14.626 Y-35.172 E55.95964
G1 X15.214 Y-34.828 E55.99363
G1 X15.758 Y-34.418 E56.02761
G1 X16.249 Y-33.947 E56.06155
G1 X16.683 Y-33.422 E56.09554
G1 X17.052 Y-32.85 E56.1295
G1 X17.351 Y-32.238 E56.16348
G1 X17.576 Y-31.596 E56.19742
G1 X17.725 Y-30.931 E56.23142
G1 X17.8 Y-30 E56.27802
G1 X17.8 Y30 E59.27143
G1 X17.76 Y30.68 E59.30541
G1 X17.641 Y31.35 E59.33936
G1 X17.444 Y32.002 E59.37334
G1 X17.172 Y32.626 E59.4073
G1 X16.828 Y33.214 E59.44129
G1 X16.418 Y33.758 E59.47528
G1 X15.947 Y34.249 E59.50922
G1 X15.422 Y34.683 E59.5432
G1 X14.85 Y35.052 E59.57716
G1 X14.238 Y35.351 E59.61115
G1 X13.596 Y35.576 E59.64509
G1 X12.931 Y35.725 E59.67909
G1 X12 Y35.8 E59.72568
G1 X-12 Y35.8 E60.92305
G1 X-12.68 Y35.76 E60.95703
G1 X-13.35 Y35.641 E60.99098
G1 X-14.002 Y35.444 E61.02496
G1 X-14.626 Y35.172 E61.05892
G1 X-15.214 Y34.828 E61.09291
G1 X-15.758 Y34.418 E61.1269
G1 X-16.249 Y33.947 E61.16084
G1 X-16.683 Y33.422 E61.19482
G1 X-17.052 Y32.85 E61.22878
G1 X-17.351 Y32.238 E61.26277
G1 X-17.576 Y31.596 E61.29671
G1 X-17.725 Y30.931 E61.3307
G1 X-17.8 Y30 E61.3773
G1 X-17.8 Y-2.018 E62.97469
G1 X-17.76 Y-2.698 E63.00867
G1 X-17.641 Y-3.368 E63.04262
G1 X-17.444 Y-4.02 E63.0766
G1 X-17.172 Y-4.644 E63.11056
G1 X-16.828 Y-5.232 E63.14455
G1 X-16.418 Y-5.776 E63.17853
G1 X-16.194 Y-6.01 E63.1947
G1 X-16.451 Y-6.283 E63.2134
G1 X-16.856 Y-6.83 E63.24736
G0 F3600 X-16.619 Y-7.205
G1 F1800 X-16.925 Y-7.787 E63.28016
G1 X-17.157 Y-8.401 E63.31291
G1 X-17.313 Y-9.039 E63.34568
G1 X-17.4 Y-10.002 E63.39392
G1 X-17.4 Y-30 E64.39162
G1 X-17.36 Y-30.656 E64.42441
G1 X-17.241 Y-31.302 E64.45718
G1 X-17.044 Y-31.929 E64.48997
G1 X-16.772 Y-32.527 E64.52274
G1 X-16.43 Y-33.088 E64.55552
G1 X-16.022 Y-33.603 E64.5883
G1 X-15.555 Y-34.065 E64.62108
G1 X-15.035 Y-34.466 E64.65384
G1 X-14.471 Y-34.802 E64.68659
G1 X-13.869 Y-35.066 E64.71939
G1 X-13.24 Y-35.256 E64.75217
G1 X-12.593 Y-35.367 E64.78492
G1 X-12 Y-35.4 E64.81455
G1 X12 Y-35.4 E66.01191
G1 X12.656 Y-35.36 E66.0447
G1 X13.302 Y-35.241 E66.07747
G1 X13.929 Y-35.044 E66.11026
G1 X14.527 Y-34.772 E66.14304
G1 X15.088 Y-34.43 E66.17582
G1 X15.603 Y-34.022 E66.2086
G1 X16.065 Y-33.555 E66.24137
G1 X16.466 Y-33.035 E66.27413
G1 X16.802 Y-32.471 E66.30688
G1 X17.066 Y-31.869 E66.33968
G1 X17.256 Y-31.24 E66.37246
G1 X17.367 Y-30.593 E66.40521
G1 X17.4 Y-30 E66.43484
G1 X17.4 Y30 E69.42825
G1 X17.36 Y30.656 E69.46104
G1 X17.241 Y31.302 E69.49381
G1 X17.044 Y31.929 E69.5266
G1 X16.772 Y32.527 E69.55938
G1 X16.43 Y33.088 E69.59216
G1 X16.022 Y33.603 E69.62494
G1 X15.555 Y34.065 E69.65771
G1 X15.035 Y34.466 E69.69047
G1 X14.471 Y34.802 E69.72322
G1 X13.869 Y35.066 E69.75602
G1 X13.24 Y35.256 E69.7888
G1 X12.593 Y35.367 E69.82155
G1 X12 Y35.4 E69.85118
G1 X-12 Y35.4 E71.04855
G1 X-12.656 Y35.36 E71.08133
G1 X-13.302 Y35.241 E71.11411
G1 X-13.929 Y35.044 E71.14689
G1 X-14.527 Y34.772 E71.17967
G1 X-15.088 Y34.43 E71.21245
G1 X-15.603 Y34.022 E71.24523
G1 X-16.065 Y33.555 E71.278
G1 X-16.466 Y33.035 E71.31076
G1 X-16.802 Y32.471 E71.34352
G1 X-17.066 Y31.869 E71.37631
G1 X-17.256 Y31.24 E71.40909
