;FLAVOR:Marlin
;TIME:7964
;Filament used: 11.2337m
;Layer height: 0.3
;MINX:-53.3
;MINY:-30.153
;MINZ:0.3
;MAXX:53.3
;MAXY:29.842
;MAXZ:14.7
;Generated with Cura_SteamEngine 4.7.1
M140 S50
M105
M190 S50
M104 S255
M105
M109 S255
M82 ;absolute extrusion mode
G28 ;Home
G1 Z15.0 F6000 ;Move the platform down 15mm
;Prime the extruder
G92 E0
G1 F200 E3
G92 E0
G92 E0
G92 E0
G1 F1500 E-6.5
;LAYER_COUNT:49
;LAYER:0
M107
;MESH:bottomMid10_15_2020.stl
G0 F3600 X1.422 Y1.744 Z0.3
;TYPE:WALL-INNER
G1 F1500 E0
G1 F1800 X1.492 Y1.699 E0.00415
G1 X2.108 Y1.35 E0.03947
G1 X2.773 Y0.74 E0.08449
G1 X3.334 Y-.1 E0.13489
G1 X3.685 Y-1.065 E0.18612
G1 X3.803 Y-2.081 E0.23715
G1 X3.745 Y-2.805 E0.27338
G1 X3.575 Y-3.501 E0.30913
G1 X3.241 Y-4.255 E0.35027
G1 X2.769 Y-4.928 E0.39128
G1 X2.176 Y-5.483 E0.4318
G1 X1.488 Y-5.897 E0.47186
G1 X0.73 Y-6.15 E0.51173
G1 X-0.061 Y-6.226 E0.55138
G1 X-.743 Y-6.136 E0.5857
G1 X-.835 Y-6.128 E0.5903
G1 X-1.597 Y-5.846 E0.63084
G1 X-2.198 Y-5.456 E0.66658
G1 X-2.265 Y-5.416 E0.67048
G1 X-2.775 Y-4.905 E0.70649
G1 X-2.838 Y-4.849 E0.7107
G1 X-3.238 Y-4.239 E0.74709
G1 X-3.295 Y-4.163 E0.75183
G1 X-3.579 Y-3.462 E0.78957
G1 X-3.612 Y-3.392 E0.79343
G1 X-3.779 Y-2.558 E0.83586
G1 X-3.787 Y-1.72 E0.87767
G1 X-3.653 Y-.965 E0.91593
G1 X-3.635 Y-.884 E0.92007
G1 X-3.367 Y-.18 E0.95765
G1 X-3.33 Y-.102 E0.96196
G1 X-2.944 Y0.516 E0.99831
G1 X-2.895 Y0.588 E1.00265
G1 X-2.393 Y1.114 E1.03893
G1 X-2.328 Y1.175 E1.04337
G1 X-1.736 Y1.58 E1.07916
G1 X-1.658 Y1.626 E1.08368
G1 X-1.003 Y1.889 E1.11889
G1 X-.914 Y1.918 E1.12356
G1 X-.148 Y2.038 E1.16224
G1 X0.646 Y1.983 E1.20195
G1 X1.422 Y1.744 E1.24246
G0 F3600 X1.464 Y1.834
G0 X0.653 Y2.022
G0 X-.149 Y2.077
G0 X-1.016 Y1.926
G0 X-1.757 Y1.613
G0 X-2.421 Y1.142
G0 X-2.977 Y0.537
G0 X-3.403 Y-.165
G0 X-3.692 Y-.958
G0 X-3.824 Y-1.956
G0 X-3.205 Y-10.516
G0 X-3.106 Y-10.514
G1 F1800 X-3.025 Y-9.839 E1.27638
G1 X-3.009 Y-9.744 E1.28118
G1 X-2.749 Y-9.057 E1.31783
G1 X-2.324 Y-8.441 E1.35517
G1 X-1.764 Y-7.945 E1.39249
G1 X-1.102 Y-7.597 E1.4298
G1 X-.373 Y-7.418 E1.46725
G1 X0.373 Y-7.418 E1.50447
G1 X1.102 Y-7.597 E1.54192
G1 X1.764 Y-7.945 E1.57923
G1 X2.324 Y-8.441 E1.61656
G1 X2.749 Y-9.057 E1.65389
G1 X3.014 Y-9.758 E1.69128
G1 X3.09 Y-10.387 E1.72289
G1 X3.106 Y-10.486 E1.72789
G1 X3.025 Y-11.161 E1.76181
G1 X3.009 Y-11.256 E1.76662
G1 X2.749 Y-11.943 E1.80326
G1 X2.324 Y-12.559 E1.8406
G1 X1.764 Y-13.055 E1.87792
G1 X1.102 Y-13.403 E1.91524
G1 X0.373 Y-13.582 E1.95269
G1 X-.373 Y-13.582 E1.9899
G1 X-1.102 Y-13.403 E2.02736
G1 X-1.764 Y-13.055 E2.06467
G1 X-2.324 Y-12.559 E2.10199
G1 X-2.749 Y-11.943 E2.13933
G1 X-3.014 Y-11.242 E2.17672
G1 X-3.09 Y-10.613 E2.20832
G1 X-3.106 Y-10.514 E2.21333
G0 F3600 X-3.205 Y-10.516
G0 X-3.205 Y-22.516
G0 X-3.106 Y-22.514
G1 F1800 X-3.025 Y-21.839 E2.24724
G1 X-3.009 Y-21.744 E2.25205
G1 X-2.749 Y-21.057 E2.2887
G1 X-2.324 Y-20.441 E2.32604
G1 X-1.764 Y-19.945 E2.36336
G1 X-1.102 Y-19.597 E2.40067
G1 X-.373 Y-19.418 E2.43812
G1 X0.373 Y-19.418 E2.47534
G1 X1.102 Y-19.597 E2.51279
G1 X1.764 Y-19.945 E2.5501
G1 X2.324 Y-20.441 E2.58742
G1 X2.749 Y-21.057 E2.62476
G1 X3.014 Y-21.758 E2.66215
G1 X3.09 Y-22.387 E2.69376
G1 X3.106 Y-22.486 E2.69876
G1 X3.025 Y-23.161 E2.73268
G1 X3.009 Y-23.256 E2.73748
G1 X2.749 Y-23.943 E2.77413
G1 X2.324 Y-24.559 E2.81147
G1 X1.764 Y-25.055 E2.84879
G1 X1.102 Y-25.403 E2.8861
G1 X0.373 Y-25.582 E2.92355
G1 X-.373 Y-25.582 E2.96077
G1 X-1.102 Y-25.403 E2.99822
G1 X-1.764 Y-25.055 E3.03553
G1 X-2.324 Y-24.559 E3.07286
G1 X-2.749 Y-23.943 E3.11019
G1 X-3.014 Y-23.242 E3.14758
G1 X-3.09 Y-22.613 E3.17919
G1 X-3.106 Y-22.514 E3.18419
G0 F3600 X-3.205 Y-22.516
G0 X-3.145 Y-10.514
G0 X-2.784 Y-9.039
G0 X-1.786 Y-7.913
G0 X2.2 Y-5.514
G0 X2.799 Y-4.954
G0 X3.275 Y-4.274
G0 X3.612 Y-3.513
G0 X8.83 Y28.508
G0 X8.9 Y28.578
G1 F1800 X-8.9 Y28.578 E4.07224
G1 X-8.9 Y-28.9 E6.93983
G1 X8.9 Y-28.9 E7.82787
G1 X8.9 Y28.578 E10.69546
G0 F3600 X9.3 Y28.978
;TYPE:WALL-OUTER
G1 F1800 X-9.3 Y28.978 E11.62342
G1 X-9.3 Y-29.3 E14.53092
G1 X9.3 Y-29.3 E15.45888
G1 X9.3 Y28.978 E18.36638
G0 F3600 X9.1 Y28.978
G0 X8.83 Y28.508
G0 X-3.673 Y-.873
G0 X-3.826 Y-1.717
G0 X-3.818 Y-2.562
G0 X-3.615 Y-3.478
G0 X-2.865 Y-4.958
G0 X-2.534 Y-4.584
G1 F1800 X-2.917 Y-4 E18.40122
G1 X-2.943 Y-3.965 E18.4034
G1 X-3.208 Y-3.311 E18.4386
G1 X-3.229 Y-3.266 E18.44108
G1 X-3.379 Y-2.516 E18.47924
G1 X-3.387 Y-1.753 E18.51731
G1 X-3.261 Y-1.044 E18.55324
G1 X-3.251 Y-1 E18.55549
G1 X-2.999 Y-.337 E18.59087
G1 X-2.979 Y-.295 E18.59319
G1 X-2.609 Y0.297 E18.62802
G1 X-2.583 Y0.335 E18.63032
G1 X-2.111 Y0.83 E18.66444
G1 X-2.077 Y0.862 E18.66677
G1 X-1.52 Y1.243 E18.70044
G1 X-1.48 Y1.267 E18.70277
G1 X-.866 Y1.513 E18.73577
G1 X-.82 Y1.528 E18.73818
G1 X-.131 Y1.636 E18.77297
G1 X0.572 Y1.587 E18.80813
G1 X1.253 Y1.378 E18.84367
G1 X1.289 Y1.355 E18.8458
G1 X1.871 Y1.025 E18.87918
G1 X2.467 Y0.478 E18.91954
G1 X2.975 Y-.282 E18.96515
G1 X3.293 Y-1.158 E19.01164
G1 X3.401 Y-2.088 E19.05835
G1 X3.349 Y-2.741 E19.09103
G1 X3.195 Y-3.371 E19.12339
G1 X2.891 Y-4.057 E19.16082
G1 X2.465 Y-4.664 E19.19782
G1 X1.933 Y-5.162 E19.23418
G1 X1.319 Y-5.532 E19.26994
G1 X0.647 Y-5.756 E19.30528
G1 X-0.054 Y-5.823 E19.34041
G1 X-.7 Y-5.738 E19.37292
G1 X-.747 Y-5.734 E19.37527
G1 X-1.416 Y-5.486 E19.41087
G1 X-1.98 Y-5.12 E19.44441
G1 X-2.017 Y-5.098 E19.44656
G1 X-2.503 Y-4.611 E19.48089
G1 X-2.534 Y-4.584 E19.48294
G0 F3600 X-2.643 Y-4.417
G0 X-3.06 Y-4.691
G0 X-3.196 Y-10.585
G0 X-2.702 Y-10.505
G1 F1800 X-2.629 Y-9.896 E19.51354
G1 X-2.621 Y-9.849 E19.51592
G1 X-2.392 Y-9.244 E19.54819
G1 X-2.022 Y-8.708 E19.58068
G1 X-1.535 Y-8.277 E19.61313
G1 X-.959 Y-7.974 E19.6456
G1 X-.325 Y-7.818 E19.67817
G1 X0.325 Y-7.818 E19.7106
G1 X0.959 Y-7.974 E19.74318
G1 X1.535 Y-8.277 E19.77565
G1 X2.022 Y-8.708 E19.80809
G1 X2.392 Y-9.244 E19.84058
G1 X2.623 Y-9.854 E19.87313
G1 X2.695 Y-10.453 E19.90323
G1 X2.702 Y-10.495 E19.90535
G1 X2.629 Y-11.104 E19.93595
G1 X2.621 Y-11.151 E19.93833
G1 X2.392 Y-11.756 E19.9706
G1 X2.022 Y-12.292 E20.0031
G1 X1.535 Y-12.723 E20.03554
G1 X0.959 Y-13.026 E20.06801
G1 X0.325 Y-13.182 E20.10059
G1 X-.325 Y-13.182 E20.13301
G1 X-.959 Y-13.026 E20.16559
G1 X-1.535 Y-12.723 E20.19806
G1 X-2.022 Y-12.292 E20.2305
G1 X-2.392 Y-11.756 E20.263
G1 X-2.623 Y-11.146 E20.29554
G1 X-2.695 Y-10.547 E20.32564
G1 X-2.702 Y-10.505 E20.32776
G0 F3600 X-2.679 Y-10.307
G0 X-3.175 Y-10.249
G0 X-3.196 Y-22.585
G0 X-2.702 Y-22.505
G1 F1800 X-2.629 Y-21.896 E20.35836
G1 X-2.621 Y-21.849 E20.36074
G1 X-2.392 Y-21.244 E20.39302
G1 X-2.022 Y-20.708 E20.42551
G1 X-1.535 Y-20.277 E20.45795
G1 X-.959 Y-19.974 E20.49043
G1 X-.325 Y-19.818 E20.523
G1 X0.325 Y-19.818 E20.55543
G1 X0.959 Y-19.974 E20.588
G1 X1.535 Y-20.277 E20.62047
G1 X2.022 Y-20.708 E20.65292
G1 X2.392 Y-21.244 E20.68541
G1 X2.623 Y-21.854 E20.71795
G1 X2.695 Y-22.453 E20.74805
G1 X2.702 Y-22.495 E20.75018
G1 X2.629 Y-23.104 E20.78078
G1 X2.621 Y-23.151 E20.78316
G1 X2.392 Y-23.756 E20.81543
G1 X2.022 Y-24.292 E20.84792
G1 X1.535 Y-24.723 E20.88037
G1 X0.959 Y-25.026 E20.91284
G1 X0.325 Y-25.182 E20.94541
G1 X-.325 Y-25.182 E20.97784
G1 X-.959 Y-25.026 E21.01041
G1 X-1.535 Y-24.723 E21.04288
G1 X-2.022 Y-24.292 E21.07533
G1 X-2.392 Y-23.756 E21.10782
G1 X-2.623 Y-23.146 E21.14037
G1 X-2.695 Y-22.547 E21.17046
G1 X-2.702 Y-22.505 E21.17259
G0 F3600 X-2.679 Y-22.307
G0 X-3.491 Y-22.447
;TYPE:SKIN
G1 F1800 X-3.411 Y-21.783 E21.20596
G1 X-3.387 Y-21.641 E21.21314
G1 X-3.097 Y-20.874 E21.25405
G1 X-2.618 Y-20.18 E21.29612
G1 X-1.987 Y-19.621 E21.33818
G1 X-1.241 Y-19.23 E21.3802
G1 X-.42 Y-19.028 E21.42238
G1 X0.42 Y-19.028 E21.46429
G1 X1.241 Y-19.23 E21.50647
G1 X1.987 Y-19.621 E21.54849
G1 X2.618 Y-20.18 E21.59055
G1 X3.097 Y-20.874 E21.63262
G1 X3.396 Y-21.664 E21.67476
G1 X3.48 Y-22.363 E21.70988
G1 X3.5 Y-22.477 E21.71566
G1 X3.497 Y-22.503 E21.71696
G1 X3.503 Y-22.553 E21.71947
G1 X3.491 Y-22.553 E21.72007
G1 X3.411 Y-23.217 E21.75344
G1 X3.387 Y-23.359 E21.76062
G1 X3.097 Y-24.126 E21.80153
G1 X2.618 Y-24.82 E21.8436
G1 X1.987 Y-25.379 E21.88566
G1 X1.241 Y-25.77 E21.92768
G1 X0.42 Y-25.972 E21.96986
G1 X-.42 Y-25.972 E22.01177
G1 X-1.241 Y-25.77 E22.05395
G1 X-1.987 Y-25.379 E22.09597
G1 X-2.618 Y-24.82 E22.13803
G1 X-3.097 Y-24.126 E22.1801
G1 X-3.396 Y-23.336 E22.22224
G1 X-3.48 Y-22.641 E22.25717
G1 X-3.5 Y-22.523 E22.26314
G1 X-3.497 Y-22.497 E22.26444
G1 X-3.503 Y-22.447 E22.26696
G1 X-3.491 Y-22.447 E22.26756
G0 F3600 X-8.51 Y-28.51
G1 F1800 X8.51 Y-28.51 E23.11669
G1 X8.51 Y28.188 E25.94536
G1 X-8.51 Y28.188 E26.79449
G1 X-8.51 Y-28.51 E29.62317
G0 F3600 X-.42 Y-13.972
G1 F1800 X-1.241 Y-13.77 E29.66535
G1 X-1.987 Y-13.379 E29.70737
G1 X-2.618 Y-12.82 E29.74943
G1 X-3.097 Y-12.126 E29.7915
G1 X-3.396 Y-11.336 E29.83364
G1 X-3.48 Y-10.641 E29.86856
G1 X-3.5 Y-10.523 E29.87454
G1 X-3.497 Y-10.497 E29.87584
G1 X-3.503 Y-10.447 E29.87835
G1 X-3.491 Y-10.447 E29.87895
G1 X-3.411 Y-9.783 E29.91232
G1 X-3.387 Y-9.641 E29.9195
G1 X-3.097 Y-8.874 E29.96041
G1 X-2.618 Y-8.18 E30.00248
G1 X-1.987 Y-7.621 E30.04454
G1 X-1.241 Y-7.23 E30.08656
G1 X-.42 Y-7.028 E30.12874
G1 X0.42 Y-7.028 E30.17065
G1 X1.241 Y-7.23 E30.21283
G1 X1.987 Y-7.621 E30.25485
G1 X2.618 Y-8.18 E30.29691
G1 X3.097 Y-8.874 E30.33898
G1 X3.396 Y-9.664 E30.38112
G1 X3.48 Y-10.363 E30.41625
G1 X3.5 Y-10.477 E30.42202
G1 X3.497 Y-10.503 E30.42333
G1 X3.503 Y-10.553 E30.42584
G1 X3.491 Y-10.553 E30.42644
G1 X3.411 Y-11.217 E30.4598
G1 X3.387 Y-11.359 E30.46699
G1 X3.097 Y-12.126 E30.5079
G1 X2.618 Y-12.82 E30.54997
G1 X1.987 Y-13.379 E30.59203
G1 X1.241 Y-13.77 E30.63405
G1 X0.42 Y-13.972 E30.67623
G1 X-.42 Y-13.972 E30.71813
G0 F3600 X-1.786 Y-13.087
G0 X-2.784 Y-11.961
G0 X-3.145 Y-10.514
G0 X-2.784 Y-9.039
G0 X-.921 Y-6.512
G1 F1800 X-1.773 Y-6.197 E30.76345
G1 X-2.399 Y-5.791 E30.80068
G1 X-2.507 Y-5.726 E30.80697
G1 X-3.042 Y-5.19 E30.84475
G1 X-3.136 Y-5.107 E30.85101
G1 X-3.55 Y-4.473 E30.88878
G1 X-3.638 Y-4.356 E30.89609
G1 X-3.932 Y-3.627 E30.9353
G1 X-3.985 Y-3.515 E30.94148
G1 X-4.169 Y-2.599 E30.9881
G1 X-4.177 Y-1.687 E31.0336
G1 X-4.035 Y-.889 E31.07404
G1 X-4.01 Y-.771 E31.08005
G1 X-3.726 Y-0.026 E31.11983
G1 X-3.673 Y0.085 E31.12597
G1 X-3.271 Y0.729 E31.16384
G1 X-3.199 Y0.835 E31.17024
G1 X-2.668 Y1.391 E31.20859
G1 X-2.573 Y1.48 E31.21509
G1 X-1.945 Y1.909 E31.25303
G1 X-1.831 Y1.977 E31.25965
G1 X-1.136 Y2.256 E31.29702
G1 X-1.006 Y2.298 E31.30383
G1 X-.165 Y2.43 E31.3463
G1 X0.718 Y2.369 E31.39046
G1 X1.588 Y2.101 E31.43588
G1 X1.694 Y2.033 E31.44216
G1 X2.339 Y1.668 E31.47914
G1 X3.071 Y0.996 E31.52871
G1 X3.685 Y0.077 E31.58385
G1 X4.067 Y-.975 E31.63969
G1 X4.195 Y-2.074 E31.69489
G1 X4.131 Y-2.867 E31.73458
G1 X3.946 Y-3.627 E31.77361
G1 X3.582 Y-4.448 E31.81841
G1 X3.065 Y-5.185 E31.86332
G1 X2.412 Y-5.795 E31.90791
G1 X1.652 Y-6.254 E31.9522
G1 X0.812 Y-6.534 E31.99638
G1 X-0.068 Y-6.618 E32.04048
G1 X-.784 Y-6.524 E32.07651
G1 X-.921 Y-6.512 E32.08337
G0 F3600 X1.786 Y-7.913
G0 X2.784 Y-9.039
G0 X7.874 Y-28.329
G1 F1800 X8.329 Y-27.874 E32.11547
G0 F3600 X8.329 Y-27.308
G1 F1800 X7.308 Y-28.329 E32.18751
G0 F3600 X6.742 Y-28.329
G1 F1800 X8.329 Y-26.742 E32.29948
G0 F3600 X8.329 Y-26.177
G1 F1800 X6.177 Y-28.329 E32.45131
G0 F3600 X5.611 Y-28.329
G1 F1800 X8.329 Y-25.611 E32.64308
G0 F3600 X8.329 Y-25.045
G1 F1800 X5.045 Y-28.329 E32.87479
G0 F3600 X4.48 Y-28.329
G1 F1800 X8.329 Y-24.48 E33.14636
G0 F3600 X8.329 Y-23.914
G1 F1800 X3.914 Y-28.329 E33.45786
G0 F3600 X3.348 Y-28.329
G1 F1800 X8.329 Y-23.348 E33.80929
G0 F3600 X8.329 Y-22.782
G1 F1800 X2.783 Y-28.329 E34.20063
G0 F3600 X2.217 Y-28.329
G1 F1800 X8.329 Y-22.217 E34.63186
G0 F3600 X8.329 Y-21.651
G1 F1800 X1.651 Y-28.329 E35.10303
G0 F3600 X1.086 Y-28.329
G1 F1800 X8.329 Y-21.085 E35.6141
G0 F3600 X8.329 Y-20.52
G1 F1800 X0.52 Y-28.329 E36.16507
G0 F3600 X-0.045 Y-28.329
G1 F1800 X8.329 Y-19.954 E36.75593
G0 F3600 X8.329 Y-19.388
G1 F1800 X-.61 Y-28.329 E37.3867
G0 F3600 X-1.176 Y-28.329
G1 F1800 X1.184 Y-25.968 E37.55325
G0 F3600 X0.435 Y-26.151
G1 F1800 X-1.742 Y-28.329 E37.70688
G0 F3600 X-2.307 Y-28.329
G1 F1800 X-.13 Y-26.151 E37.86051
G0 F3600 X-.646 Y-26.102
G1 F1800 X-2.873 Y-28.329 E38.01764
G0 F3600 X-3.439 Y-28.329
G1 F1800 X-1.099 Y-25.989 E38.18274
G0 F3600 X-1.508 Y-25.832
G1 F1800 X-4.005 Y-28.329 E38.35892
G0 F3600 X-4.57 Y-28.329
G1 F1800 X-1.879 Y-25.638 E38.54878
G0 F3600 X-2.22 Y-25.413
G1 F1800 X-5.136 Y-28.329 E38.75452
G0 F3600 X-5.702 Y-28.329
G1 F1800 X-2.52 Y-25.147 E38.97903
G0 F3600 X-2.805 Y-24.866
G1 F1800 X-6.267 Y-28.329 E39.22333
G0 F3600 X-6.833 Y-28.329
G1 F1800 X-3.035 Y-24.531 E39.4913
G0 F3600 X-3.262 Y-24.192
G1 F1800 X-7.399 Y-28.329 E39.78318
G0 F3600 X-7.964 Y-28.329
G1 F1800 X-3.418 Y-23.782 E40.10396
G0 F3600 X-3.573 Y-23.372
G1 F1800 X-8.329 Y-28.128 E40.43953
G0 F3600 X-8.329 Y-27.563
G1 F1800 X-3.633 Y-22.867 E40.77085
G0 F3600 X-3.693 Y-22.36
G1 F1800 X-8.329 Y-26.997 E41.09798
G0 F3600 X-8.329 Y-26.431
G1 F1800 X-3.575 Y-21.677 E41.4334
G1 X-3.505 Y-21.607
G0 F3600 X-3.258 Y-20.794
G1 F1800 X-8.329 Y-25.865 E41.79119
G0 F3600 X-8.329 Y-25.3
G1 F1800 X8.329 Y-8.64 E42.96657
G0 F3600 X8.329 Y-8.075
G1 F1800 X-8.329 Y-24.734 E44.14192
G0 F3600 X-8.329 Y-24.168
G1 F1800 X8.329 Y-7.509 E45.31727
G0 F3600 X8.329 Y-6.943
G1 F1800 X3.375 Y-11.898 E45.66683
G1 X3.305 Y-11.968
G0 F3600 X3.606 Y-11.101
G1 F1800 X8.329 Y-6.378 E46.00007
G0 F3600 X8.329 Y-5.812
G1 F1800 X3.679 Y-10.462 E46.32815
G0 F3600 X3.613 Y-9.963
G1 F1800 X8.329 Y-5.246 E46.66092
G0 F3600 X8.329 Y-4.681
G1 F1800 X3.522 Y-9.488 E47.00008
G0 F3600 X3.366 Y-9.078
G1 F1800 X8.329 Y-4.115 E47.35025
G0 F3600 X8.329 Y-3.549
G1 F1800 X3.189 Y-8.69 E47.71294
G0 F3600 X2.958 Y-8.355
G1 F1800 X8.329 Y-2.983 E48.09193
G0 F3600 X8.329 Y-2.418
G1 F1800 X2.72 Y-8.027 E48.48767
G0 F3600 X2.42 Y-7.761
G1 F1800 X8.329 Y-1.852 E48.90459
G0 F3600 X8.329 Y-1.286
G1 F1800 X2.12 Y-7.496 E49.3427
G0 F3600 X1.755 Y-7.295
G1 F1800 X8.329 Y-.721 E49.80653
G0 F3600 X8.329 Y-.155
G1 F1800 X3.245 Y-5.239 E50.16524
G0 F3600 X2.924 Y-5.56
G1 F1800 X1.384 Y-7.1 E50.27389
G0 F3600 X0.948 Y-6.971
G1 F1800 X1.388 Y-6.531 E50.30493
G0 F3600 X0.621 Y-6.732
G1 F1800 X0.494 Y-6.859 E50.3139
G0 F3600 X-.517 Y-6.74
G1 F1800 X-.684 Y-6.907 E50.32568
G0 F3600 X-1.012 Y-6.669
G1 F1800 X-1.51 Y-7.167 E50.36081
G0 F3600 X-1.425 Y-6.516
G1 F1800 X-8.329 Y-13.42 E50.84793
G0 F3600 X-8.329 Y-12.855
G1 F1800 X-1.839 Y-6.364 E51.30587
G0 F3600 X-2.184 Y-6.144
G1 F1800 X-8.329 Y-12.289 E51.73943
G0 F3600 X-8.329 Y-11.723
G1 F1800 X-2.528 Y-5.922 E52.14872
G0 F3600 X-2.828 Y-5.656
G1 F1800 X-8.329 Y-11.158 E52.53688
G0 F3600 X-8.329 Y-10.592
G1 F1800 X-3.111 Y-5.374 E52.90504
G0 F3600 X-3.374 Y-5.071
G1 F1800 X-8.329 Y-10.026 E53.25464
G0 F3600 X-8.329 Y-9.461
G1 F1800 X-3.597 Y-4.729 E53.58851
G0 F3600 X-3.819 Y-4.384
G1 F1800 X-8.329 Y-8.895 E53.90675
G0 F3600 X-8.329 Y-8.329
G1 F1800 X-3.981 Y-3.981 E54.21353
G0 F3600 X-4.15 Y-3.584
G1 F1800 X-8.329 Y-7.764 E54.50841
G0 F3600 X-8.329 Y-7.198
G1 F1800 X-4.246 Y-3.115 E54.79649
G0 F3600 X-4.341 Y-2.644
G1 F1800 X-8.329 Y-6.632 E55.07787
G0 F3600 X-8.329 Y-6.066
G1 F1800 X-4.352 Y-2.089 E55.35847
G0 F3600 X-4.324 Y-1.496
G1 F1800 X-8.329 Y-5.501 E55.64104
G0 F3600 X-8.329 Y-4.935
G1 F1800 X-4.2 Y-.806 E55.93236
G1 X-4.13 Y-.736
G0 F3600 X-3.868 Y0.091
G1 F1800 X-8.329 Y-4.369 E56.24708
G0 F3600 X-8.329 Y-3.804
G1 F1800 X8.329 Y12.855 E57.42242
G0 F3600 X8.329 Y13.42
G1 F1800 X-8.329 Y-3.238 E58.59773
G0 F3600 X-8.329 Y-2.672
G1 F1800 X8.329 Y13.986 E59.77305
G0 F3600 X8.329 Y14.552
G1 F1800 X-8.329 Y-2.107 E60.94839
G0 F3600 X-8.329 Y-1.541
G1 F1800 X8.329 Y15.117 E62.12371
G0 F3600 X8.329 Y15.683
G1 F1800 X-8.329 Y-.975 E63.29902
G0 F3600 X-8.329 Y-.41
G1 F1800 X8.329 Y16.249 E64.47436
G0 F3600 X8.329 Y16.814
G1 F1800 X-8.329 Y0.155 E65.64971
G0 F3600 X-8.329 Y0.721
G1 F1800 X8.329 Y17.38 E66.82506
G0 F3600 X8.329 Y17.946
G1 F1800 X-8.329 Y1.286 E68.00044
G0 F3600 X-8.329 Y1.852
G1 F1800 X8.329 Y18.512 E69.17582
G0 F3600 X8.329 Y19.077
G1 F1800 X-8.329 Y2.418 E70.35117
G0 F3600 X-8.329 Y2.983
