;FLAVOR:Marlin
;TIME:4975
;Filament used: 6.8229m
;Layer height: 0.3
;MINX:-116.909
;MINY:-63.114
;MINZ:0.3
;MAXX:-44.497
;MAXY:63.562
;MAXZ:21.9
;Generated with Cura_SteamEngine 4.7.1
M140 S50
M105
M190 S50
M104 S250
M105
M109 S250
M82 ;absolute extrusion mode
G28 ;Home
G1 Z15.0 F6000 ;Move the platform down 15mm
;Prime the extruder
G92 E0
G1 F200 E3
G92 E0
G92 E0
G92 E0
G1 F1500 E-6.5
;LAYER_COUNT:73
;LAYER:0
M107
G0 F3600 X-80.097 Y-19.352 Z0.3
;TYPE:SKIRT
G1 F1500 E0
G1 F1800 X-80.097 Y-33.158 E0.68878
G1 X-80.288 Y-32.769 E0.7104
G1 X-80.706 Y-32.098 E0.74985
G1 X-81.189 Y-31.474 E0.78921
G1 X-81.732 Y-30.901 E0.8286
G1 X-82.331 Y-30.386 E0.86801
G1 X-82.979 Y-29.935 E0.9074
G1 X-83.67 Y-29.551 E0.94684
G1 X-84.395 Y-29.239 E0.98621
G1 X-85.148 Y-29.002 E1.0256
G1 X-85.922 Y-28.843 E1.06502
G1 X-86.707 Y-28.762 E1.10439
G1 X-87.109 Y-28.752 E1.12445
G1 X-91.309 Y-28.752 E1.33399
G1 X-91.309 Y-19.352 E1.80296
G1 X-80.097 Y-19.352 E2.36233
G0 F3600 X-79.697 Y-18.952
G1 F1800 X-79.697 Y-44.188 E3.62136
G1 X-79.657 Y-44.956 E3.65973
G1 X-79.538 Y-45.716 E3.6981
G1 X-79.34 Y-46.459 E3.73647
G1 X-79.066 Y-47.178 E3.77485
G1 X-78.556 Y-48.135 E3.82895
G1 X-78.151 Y-48.778 E3.86687
G1 X-78.047 Y-49.093 E3.88342
G1 X-78.011 Y-49.544 E3.90599
G1 X-78.011 Y-53.748 E4.11573
G1 X-77.938 Y-54.782 E4.16744
G1 X-77.882 Y-55.179 E4.18744
G1 X-77.736 Y-55.934 E4.22581
G1 X-77.464 Y-56.794 E4.27081
G1 X-77.339 Y-57.12 E4.28823
G1 X-77.027 Y-57.823 E4.3266
G1 X-76.558 Y-58.62 E4.37274
G1 X-76.363 Y-58.908 E4.39009
G1 X-75.899 Y-59.521 E4.42845
G1 X-75.287 Y-60.166 E4.4728
G1 X-75.028 Y-60.408 E4.49049
G1 X-74.44 Y-60.903 E4.52884
G1 X-73.707 Y-61.391 E4.57277
G1 X-73.409 Y-61.565 E4.58998
G1 X-72.726 Y-61.918 E4.62834
G1 X-71.923 Y-62.226 E4.67125
G1 X-71.59 Y-62.332 E4.68868
G1 X-70.846 Y-62.527 E4.72706
G1 X-70.157 Y-62.636 E4.76186
G1 X-69.858 Y-62.669 E4.77687
G1 X-69.046 Y-62.714 E4.81744
G1 X-58.297 Y-62.714 E5.35371
G1 X-57.529 Y-62.674 E5.39208
G1 X-56.769 Y-62.555 E5.43045
G1 X-56.026 Y-62.357 E5.46882
G1 X-55.307 Y-62.083 E5.5072
G1 X-54.621 Y-61.736 E5.54556
G1 X-53.974 Y-61.32 E5.58393
G1 X-53.374 Y-60.839 E5.6223
G1 X-52.827 Y-60.298 E5.66068
G1 X-52.339 Y-59.703 E5.69907
G1 X-51.916 Y-59.061 E5.73743
G1 X-51.561 Y-58.378 E5.77583
G1 X-51.28 Y-57.663 E5.81416
G1 X-51.074 Y-56.921 E5.85258
G1 X-50.946 Y-56.163 E5.89093
G1 X-50.897 Y-55.314 E5.93336
G1 X-50.897 Y-32.261 E7.08348
G1 X-50.769 Y-32.241 E7.08994
G1 X-50.026 Y-32.043 E7.1283
G1 X-49.307 Y-31.769 E7.16669
G1 X-48.621 Y-31.422 E7.20504
G1 X-47.974 Y-31.006 E7.24342
G1 X-47.374 Y-30.525 E7.28179
G1 X-46.827 Y-29.984 E7.32017
G1 X-46.339 Y-29.389 E7.35856
G1 X-45.916 Y-28.747 E7.39692
G1 X-45.561 Y-28.064 E7.43532
G1 X-45.28 Y-27.349 E7.47365
G1 X-45.074 Y-26.607 E7.51207
G1 X-44.946 Y-25.849 E7.55042
G1 X-44.897 Y-25 E7.59285
G1 X-44.897 Y-18 E7.94208
G1 X-44.937 Y-17.232 E7.98044
G1 X-45.056 Y-16.472 E8.01882
G1 X-45.114 Y-16.253 E8.03013
G1 X-45.074 Y-16.107 E8.03768
G1 X-44.946 Y-15.349 E8.07603
G1 X-44.897 Y-14.5 E8.11846
G1 X-44.897 Y5 E9.09132
G1 X-44.937 Y5.768 E9.12968
G1 X-45.056 Y6.528 E9.16806
G1 X-45.254 Y7.271 E9.20642
G1 X-45.528 Y7.99 E9.24481
G1 X-45.875 Y8.676 E9.28317
G1 X-46.291 Y9.323 E9.32154
G1 X-46.431 Y9.498 E9.33272
G1 X-46.339 Y9.611 E9.33999
G1 X-45.916 Y10.253 E9.37835
G1 X-45.561 Y10.936 E9.41675
G1 X-45.28 Y11.651 E9.45508
G1 X-45.074 Y12.393 E9.4935
G1 X-44.946 Y13.151 E9.53185
G1 X-44.897 Y14 E9.57428
G1 X-44.897 Y28 E10.27274
G1 X-44.937 Y28.768 E10.31111
G1 X-45.056 Y29.528 E10.34949
G1 X-45.254 Y30.271 E10.38785
G1 X-45.528 Y30.99 E10.42624
G1 X-45.535 Y31.003 E10.42697
G1 X-45.28 Y31.651 E10.46171
G1 X-45.074 Y32.393 E10.50013
G1 X-44.946 Y33.151 E10.53849
G1 X-44.897 Y34 E10.58091
G1 X-44.897 Y41 E10.93014
G1 X-44.937 Y41.768 E10.96851
G1 X-45.056 Y42.528 E11.00689
G1 X-45.254 Y43.271 E11.04525
G1 X-45.528 Y43.99 E11.08364
G1 X-45.875 Y44.676 E11.12199
G1 X-46.291 Y45.323 E11.16037
G1 X-46.772 Y45.923 E11.19873
G1 X-47.313 Y46.47 E11.23712
G1 X-47.908 Y46.958 E11.27551
G1 X-48.55 Y47.381 E11.31387
G1 X-49.233 Y47.736 E11.35227
G1 X-49.948 Y48.017 E11.3906
G1 X-50.69 Y48.223 E11.42902
G1 X-50.897 Y48.258 E11.43949
G1 X-50.897 Y55.314 E11.79151
G1 X-50.937 Y56.082 E11.82988
G1 X-51.056 Y56.842 E11.86826
G1 X-51.254 Y57.585 E11.90662
G1 X-51.528 Y58.304 E11.94501
G1 X-51.875 Y58.99 E11.98336
G1 X-52.291 Y59.637 E12.02174
G1 X-52.772 Y60.237 E12.0601
G1 X-53.313 Y60.784 E12.09849
G1 X-53.908 Y61.272 E12.13688
G1 X-54.55 Y61.695 E12.17524
G1 X-55.233 Y62.05 E12.21364
G1 X-55.948 Y62.331 E12.25197
G1 X-56.69 Y62.537 E12.29039
G1 X-57.448 Y62.665 E12.32874
G1 X-58.297 Y62.714 E12.37116
G1 X-69.045 Y62.714 E12.90738
G1 X-70.092 Y62.64 E12.95975
G1 X-70.491 Y62.583 E12.97986
G1 X-71.245 Y62.434 E13.0182
G1 X-72.093 Y62.166 E13.06257
G1 X-72.419 Y62.041 E13.07999
G1 X-73.122 Y61.729 E13.11836
G1 X-73.929 Y61.253 E13.16511
G1 X-74.216 Y61.058 E13.18242
G1 X-74.829 Y60.593 E13.2208
G1 X-75.465 Y59.988 E13.2646
G1 X-75.706 Y59.73 E13.28221
G1 X-76.201 Y59.142 E13.32056
G1 X-76.688 Y58.41 E13.36442
G1 X-76.862 Y58.112 E13.38164
G1 X-77.215 Y57.429 E13.41999
G1 X-77.523 Y56.626 E13.4629
G1 X-77.629 Y56.293 E13.48034
G1 X-77.824 Y55.549 E13.51871
G1 X-77.933 Y54.865 E13.55326
G1 X-77.966 Y54.568 E13.56817
G1 X-78.011 Y53.751 E13.60899
G1 X-78.011 Y49.544 E13.81888
G1 X-78.086 Y48.93 E13.84974
G1 X-78.152 Y48.776 E13.8581
G1 X-78.556 Y48.135 E13.8959
G1 X-78.932 Y47.464 E13.93428
G1 X-79.236 Y46.758 E13.97263
G1 X-79.466 Y46.024 E14.011
G1 X-79.618 Y45.27 E14.04937
G1 X-79.697 Y44.188 E14.1035
G1 X-79.709 Y43.848 E14.12047
G1 X-79.709 Y55.762 E14.71486
G1 X-79.749 Y56.53 E14.75323
G1 X-79.868 Y57.29 E14.79161
G1 X-80.066 Y58.033 E14.82997
G1 X-80.34 Y58.752 E14.86836
G1 X-80.687 Y59.438 E14.90671
G1 X-81.103 Y60.085 E14.94509
G1 X-81.584 Y60.685 E14.98346
G1 X-82.125 Y61.232 E15.02184
G1 X-82.72 Y61.72 E15.06023
G1 X-83.362 Y62.143 E15.09859
G1 X-84.045 Y62.498 E15.13699
G1 X-84.76 Y62.779 E15.17532
G1 X-85.502 Y62.985 E15.21374
G1 X-86.26 Y63.113 E15.25209
G1 X-87.109 Y63.162 E15.29452
G1 X-97.857 Y63.162 E15.83074
G1 X-98.901 Y63.088 E15.88295
G1 X-99.301 Y63.031 E15.90311
G1 X-100.056 Y62.883 E15.94149
G1 X-100.932 Y62.605 E15.98734
G1 X-101.257 Y62.479 E16.00473
G1 X-101.959 Y62.164 E16.04312
G1 X-102.731 Y61.707 E16.08788
G1 X-103.019 Y61.512 E16.10523
G1 X-103.632 Y61.048 E16.14359
G1 X-104.288 Y60.424 E16.18876
G1 X-104.528 Y60.166 E16.20634
G1 X-105.022 Y59.577 E16.24469
G1 X-105.506 Y58.848 E16.28835
G1 X-105.68 Y58.549 E16.3056
G1 X-106.032 Y57.865 E16.34398
G1 X-106.34 Y57.058 E16.38708
G1 X-106.445 Y56.726 E16.40445
G1 X-106.638 Y55.982 E16.4428
G1 X-106.741 Y55.339 E16.47528
G1 X-106.775 Y55.043 E16.49015
G1 X-106.823 Y54.199 E16.53232
G1 X-106.823 Y50.109 E16.73638
G1 X-106.894 Y49.475 E16.7682
G1 X-107.082 Y49.082 E16.78994
G1 X-107.239 Y48.925 E16.80102
G1 X-107.636 Y48.734 E16.823
G1 X-108.279 Y48.662 E16.85528
G1 X-109.109 Y48.662 E16.89668
G1 X-109.877 Y48.622 E16.93505
G1 X-110.637 Y48.503 E16.97343
G1 X-111.38 Y48.305 E17.01179
G1 X-112.099 Y48.031 E17.05018
G1 X-112.785 Y47.684 E17.08853
G1 X-113.432 Y47.268 E17.12691
G1 X-114.032 Y46.787 E17.16527
G1 X-114.579 Y46.246 E17.20366
G1 X-115.067 Y45.651 E17.24205
G1 X-115.49 Y45.009 E17.28041
G1 X-115.845 Y44.326 E17.31881
G1 X-116.126 Y43.611 E17.35714
G1 X-116.332 Y42.869 E17.39556
G1 X-116.46 Y42.111 E17.43391
G1 X-116.509 Y41.262 E17.47633
G1 X-116.509 Y-40.366 E21.54877
G1 X-116.469 Y-41.134 E21.58714
G1 X-116.35 Y-41.894 E21.62552
G1 X-116.152 Y-42.637 E21.66388
G1 X-115.878 Y-43.356 E21.70227
G1 X-115.531 Y-44.042 E21.74062
G1 X-115.115 Y-44.689 E21.779
G1 X-114.634 Y-45.289 E21.81736
G1 X-114.093 Y-45.836 E21.85575
G1 X-113.498 Y-46.324 E21.89414
G1 X-112.856 Y-46.747 E21.93249
G1 X-112.173 Y-47.102 E21.9709
G1 X-111.458 Y-47.383 E22.00922
G1 X-110.716 Y-47.589 E22.04764
G1 X-109.958 Y-47.717 E22.086
G1 X-109.109 Y-47.766 E22.12842
G1 X-108.266 Y-47.766 E22.17048
G1 X-107.642 Y-47.836 E22.20181
G1 X-107.239 Y-48.029 E22.2241
G1 X-106.967 Y-48.369 E22.24582
G1 X-106.895 Y-48.575 E22.25671
G1 X-106.823 Y-49.226 E22.28939
G1 X-106.823 Y-53.3 E22.49264
G1 X-106.748 Y-54.349 E22.54511
G1 X-106.691 Y-54.747 E22.56517
G1 X-106.543 Y-55.502 E22.60355
G1 X-106.273 Y-56.354 E22.64814
G1 X-106.148 Y-56.679 E22.66551
G1 X-105.835 Y-57.382 E22.7039
G1 X-105.365 Y-58.177 E22.74998
G1 X-105.169 Y-58.466 E22.7674
G1 X-104.705 Y-59.079 E22.80576
G1 X-104.108 Y-59.709 E22.84906
G1 X-103.85 Y-59.951 E22.86671
G1 X-103.262 Y-60.448 E22.90512
G1 X-102.493 Y-60.959 E22.95118
G1 X-102.194 Y-61.132 E22.96841
G1 X-101.509 Y-61.482 E23.00679
G1 X-100.739 Y-61.776 E23.04791
G1 X-100.407 Y-61.882 E23.0653
G1 X-99.663 Y-62.078 E23.10368
G1 X-98.97 Y-62.188 E23.13869
G1 X-98.672 Y-62.221 E23.15365
G1 X-97.858 Y-62.266 E23.19432
G1 X-87.109 Y-62.266 E23.73059
G1 X-86.341 Y-62.226 E23.76896
G1 X-85.581 Y-62.107 E23.80734
G1 X-84.838 Y-61.909 E23.8457
G1 X-84.119 Y-61.635 E23.88409
G1 X-83.433 Y-61.288 E23.92244
G1 X-82.786 Y-60.872 E23.96082
G1 X-82.186 Y-60.391 E23.99918
G1 X-81.639 Y-59.85 E24.03757
G1 X-81.151 Y-59.255 E24.07596
G1 X-80.728 Y-58.613 E24.11431
G1 X-80.373 Y-57.93 E24.15272
G1 X-80.092 Y-57.215 E24.19104
G1 X-79.886 Y-56.473 E24.22946
G1 X-79.758 Y-55.715 E24.26782
G1 X-79.709 Y-54.866 E24.31024
G1 X-79.709 Y-36.552 E25.22393
G1 X-79.749 Y-35.784 E25.2623
G1 X-79.868 Y-35.024 E25.30068
G1 X-80.066 Y-34.281 E25.33904
G1 X-80.34 Y-33.562 E25.37743
G1 X-80.687 Y-32.876 E25.41578
G1 X-81.103 Y-32.229 E25.45416
G1 X-81.584 Y-31.629 E25.49252
G1 X-82.125 Y-31.082 E25.5309
G1 X-82.72 Y-30.594 E25.5693
G1 X-83.362 Y-30.171 E25.60765
G1 X-84.045 Y-29.816 E25.64606
G1 X-84.76 Y-29.535 E25.68438
G1 X-85.502 Y-29.329 E25.7228
G1 X-86.26 Y-29.201 E25.76115
G1 X-87.109 Y-29.152 E25.80358
G1 X-91.709 Y-29.152 E26.03308
G1 X-91.709 Y-18.952 E26.54196
G1 X-79.697 Y-18.952 E27.14124
G0 F3600 X-79.297 Y-18.552
G1 F1800 X-79.297 Y-44.188 E28.42022
G1 X-79.257 Y-44.935 E28.45754
G1 X-79.138 Y-45.673 E28.49484
G1 X-78.94 Y-46.395 E28.53219
G1 X-78.667 Y-47.091 E28.56949
G1 X-78.218 Y-47.922 E28.61661
G1 X-77.794 Y-48.595 E28.6563
G1 X-77.651 Y-49.028 E28.67905
G1 X-77.611 Y-49.525 E28.70392
G1 X-77.611 Y-53.748 E28.91461
G1 X-77.542 Y-54.726 E28.96352
G1 X-77.486 Y-55.123 E28.98353
G1 X-77.342 Y-55.857 E29.02084
G1 X-77.091 Y-56.651 E29.06239
G1 X-76.966 Y-56.977 E29.07981
G1 X-76.661 Y-57.66 E29.11712
G1 X-76.226 Y-58.396 E29.15978
G1 X-76.031 Y-58.684 E29.17713
G1 X-75.579 Y-59.28 E29.21445
G1 X-75.014 Y-59.874 E29.25535
G1 X-74.755 Y-60.116 E29.27303
G1 X-74.182 Y-60.597 E29.31036
G1 X-73.506 Y-61.046 E29.35084
G1 X-73.208 Y-61.22 E29.36806
G1 X-72.542 Y-61.562 E29.40541
G1 X-71.801 Y-61.845 E29.44498
G1 X-71.468 Y-61.951 E29.46242
G1 X-70.744 Y-62.14 E29.49975
G1 X-70.113 Y-62.239 E29.53162
G1 X-69.814 Y-62.272 E29.54662
G1 X-69.046 Y-62.314 E29.585
G1 X-58.297 Y-62.314 E30.12127
G1 X-57.55 Y-62.274 E30.15859
G1 X-56.812 Y-62.155 E30.19588
G1 X-56.09 Y-61.957 E30.23323
G1 X-55.394 Y-61.684 E30.27053
G1 X-54.731 Y-61.337 E30.30787
G1 X-54.108 Y-60.922 E30.34521
G1 X-53.534 Y-60.443 E30.38251
G1 X-53.013 Y-59.906 E30.41984
G1 X-52.554 Y-59.316 E30.45713
G1 X-52.159 Y-58.68 E30.49448
G1 X-51.835 Y-58.006 E30.53179
G1 X-51.585 Y-57.301 E30.56911
G1 X-51.411 Y-56.573 E30.60646
G1 X-51.316 Y-55.831 E30.64378
G1 X-51.297 Y-55.314 E30.66959
G1 X-51.297 Y-31.919 E31.83677
G1 X-50.812 Y-31.841 E31.86128
G1 X-50.09 Y-31.643 E31.89863
G1 X-49.394 Y-31.37 E31.93593
G1 X-48.731 Y-31.023 E31.97326
G1 X-48.108 Y-30.608 E32.01061
G1 X-47.534 Y-30.129 E32.0479
G1 X-47.013 Y-29.592 E32.08523
G1 X-46.554 Y-29.002 E32.12253
G1 X-46.159 Y-28.366 E32.15988
G1 X-45.835 Y-27.692 E32.19719
G1 X-45.585 Y-26.987 E32.23451
G1 X-45.411 Y-26.259 E32.27185
G1 X-45.316 Y-25.517 E32.30917
G1 X-45.297 Y-25 E32.33498
G1 X-45.297 Y-18 E32.68421
G1 X-45.337 Y-17.253 E32.72153
G1 X-45.456 Y-16.515 E32.75883
G1 X-45.529 Y-16.251 E32.77249
G1 X-45.411 Y-15.759 E32.79773
G1 X-45.316 Y-15.017 E32.83505
G1 X-45.297 Y-14.5 E32.86087
G1 X-45.297 Y5 E33.83372
G1 X-45.337 Y5.747 E33.87105
G1 X-45.456 Y6.485 E33.90834
G1 X-45.654 Y7.207 E33.94569
G1 X-45.927 Y7.903 E33.98299
G1 X-46.274 Y8.566 E34.02032
G1 X-46.689 Y9.189 E34.05767
G1 X-46.945 Y9.496 E34.07761
G1 X-46.554 Y9.998 E34.10936
G1 X-46.159 Y10.634 E34.14671
G1 X-45.835 Y11.308 E34.18402
G1 X-45.585 Y12.013 E34.22134
G1 X-45.411 Y12.741 E34.25868
G1 X-45.316 Y13.483 E34.296
G1 X-45.297 Y14 E34.32181
G1 X-45.297 Y28 E35.02028
G1 X-45.337 Y28.747 E35.0576
G1 X-45.456 Y29.485 E35.09489
G1 X-45.654 Y30.207 E35.13224
G1 X-45.927 Y30.903 E35.16954
G1 X-45.981 Y31.005 E35.1753
G1 X-45.835 Y31.308 E35.19208
G1 X-45.585 Y32.013 E35.2294
G1 X-45.411 Y32.741 E35.26674
G1 X-45.316 Y33.483 E35.30406
G1 X-45.297 Y34 E35.32987
G1 X-45.297 Y41 E35.6791
G1 X-45.337 Y41.747 E35.71643
G1 X-45.456 Y42.485 E35.75372
G1 X-45.654 Y43.207 E35.79107
G1 X-45.927 Y43.903 E35.82837
G1 X-46.274 Y44.566 E35.8657
G1 X-46.689 Y45.189 E35.90305
G1 X-47.168 Y45.763 E35.94035
G1 X-47.705 Y46.284 E35.97768
G1 X-48.295 Y46.743 E36.01497
G1 X-48.931 Y47.138 E36.05232
G1 X-49.605 Y47.462 E36.08963
G1 X-50.31 Y47.712 E36.12695
G1 X-51.038 Y47.886 E36.16429
G1 X-51.297 Y47.919 E36.17732
G1 X-51.297 Y55.314 E36.54626
G1 X-51.337 Y56.061 E36.58358
G1 X-51.456 Y56.799 E36.62087
G1 X-51.654 Y57.521 E36.65822
G1 X-51.927 Y58.217 E36.69552
G1 X-52.274 Y58.88 E36.73286
G1 X-52.689 Y59.503 E36.7702
G1 X-53.168 Y60.077 E36.8075
G1 X-53.705 Y60.598 E36.84483
G1 X-54.295 Y61.057 E36.88212
G1 X-54.931 Y61.452 E36.91947
G1 X-55.605 Y61.776 E36.95678
G1 X-56.31 Y62.026 E36.9941
G1 X-57.038 Y62.2 E37.03145
G1 X-57.78 Y62.295 E37.06877
G1 X-58.297 Y62.314 E37.09458
G1 X-69.045 Y62.314 E37.6308
G1 X-70.035 Y62.244 E37.68031
G1 X-70.434 Y62.187 E37.70042
G1 X-71.168 Y62.041 E37.73776
G1 X-71.95 Y61.793 E37.77869
G1 X-72.276 Y61.668 E37.7961
G1 X-72.959 Y61.363 E37.83342
G1 X-73.704 Y60.922 E37.87661
G1 X-73.991 Y60.727 E37.89393
G1 X-74.586 Y60.274 E37.93123
G1 X-75.172 Y59.715 E37.97164
G1 X-75.413 Y59.457 E37.98925
G1 X-75.894 Y58.884 E38.02658
G1 X-76.343 Y58.209 E38.06702
G1 X-76.517 Y57.911 E38.08424
G1 X-76.859 Y57.245 E38.12159
G1 X-77.142 Y56.504 E38.16116
G1 X-77.248 Y56.171 E38.1786
G1 X-77.437 Y55.447 E38.21593
G1 X-77.535 Y54.821 E38.24754
G1 X-77.568 Y54.524 E38.26245
G1 X-77.611 Y53.751 E38.30107
G1 X-77.611 Y49.524 E38.51196
G1 X-77.651 Y49.025 E38.53693
G1 X-77.795 Y48.593 E38.55965
G1 X-78.218 Y47.922 E38.59923
G1 X-78.583 Y47.269 E38.63655
G1 X-78.875 Y46.581 E38.67384
G1 X-79.093 Y45.865 E38.71118
G1 X-79.233 Y45.13 E38.7485
G1 X-79.297 Y44.188 E38.79561
G1 X-79.297 Y43.448 E38.83253
G1 X-80.109 Y43.448 E38.87304
G1 X-80.109 Y55.762 E39.48739
G1 X-80.149 Y56.509 E39.52471
G1 X-80.268 Y57.247 E39.562
G1 X-80.466 Y57.969 E39.59935
G1 X-80.739 Y58.665 E39.63665
G1 X-81.086 Y59.328 E39.67399
G1 X-81.501 Y59.951 E39.71133
G1 X-81.98 Y60.525 E39.74863
G1 X-82.517 Y61.046 E39.78596
G1 X-83.107 Y61.505 E39.82325
G1 X-83.743 Y61.9 E39.8606
G1 X-84.417 Y62.224 E39.89791
G1 X-85.122 Y62.474 E39.93523
G1 X-85.85 Y62.648 E39.97258
G1 X-86.592 Y62.743 E40.0099
G1 X-87.109 Y62.762 E40.03571
G1 X-97.857 Y62.762 E40.57193
G1 X-98.845 Y62.692 E40.62134
G1 X-99.245 Y62.635 E40.6415
G1 X-99.978 Y62.49 E40.67878
G1 X-100.787 Y62.232 E40.72114
G1 X-101.112 Y62.106 E40.73853
G1 X-101.794 Y61.798 E40.77587
G1 X-102.507 Y61.375 E40.81723
G1 X-102.795 Y61.18 E40.83458
G1 X-103.391 Y60.728 E40.8719
G1 X-103.995 Y60.152 E40.91354
G1 X-104.235 Y59.894 E40.93112
G1 X-104.715 Y59.32 E40.96845
G1 X-105.16 Y58.647 E41.0087
G1 X-105.334 Y58.348 E41.02596
G1 X-105.675 Y57.682 E41.06329
G1 X-105.958 Y56.938 E41.103
G1 X-106.063 Y56.606 E41.12037
G1 X-106.25 Y55.882 E41.15768
G1 X-106.343 Y55.294 E41.18738
G1 X-106.377 Y54.998 E41.20224
G1 X-106.423 Y54.199 E41.24217
G1 X-106.423 Y50.082 E41.44757
G1 X-106.501 Y49.39 E41.48231
G1 X-106.605 Y49.093 E41.49801
G1 X-106.771 Y48.827 E41.51365
G1 X-106.989 Y48.61 E41.529
