;FLAVOR:Marlin
;TIME:10634
;Filament used: 14.875m
;Layer height: 0.3
;MINX:-62.506
;MINY:-105.916
;MINZ:0.3
;MAXX:47.721
;MAXY:-8.463
;MAXZ:63
;Generated with Cura_SteamEngine 4.7.1
M140 S50
M105
M190 S50
M104 S255
M105
M109 S255
M82 ;absolute extrusion mode
G28 ;Home
G1 Z15.0 F6000 ;Move the platform down 15mm
;Prime the extruder
G92 E0
G1 F200 E3
G92 E0
G92 E0
G92 E0
G1 F1500 E-6.5
;LAYER_COUNT:210
;LAYER:0
M107
;MESH:boxBase2020_10_01.stl
G0 F3600 X-6.857 Y-10.374 Z0.3
;TYPE:WALL-INNER
G1 F1500 E0
G1 F1800 X-7.473 Y-10.428 E0.03085
G1 X-8.015 Y-10.344 E0.05821
G1 X-8.521 Y-10.136 E0.08551
G1 X-8.955 Y-9.82 E0.11229
G1 X-9.05 Y-9.716 E0.11932
G1 X-47.606 Y-9.716 E2.04289
G1 X-47.606 Y-15.398 E2.32636
G1 X-47.745 Y-16.824 E2.39784
G1 X-47.777 Y-17.133 E2.41334
G1 X-48.291 Y-18.827 E2.50166
G1 X-49.127 Y-20.389 E2.59005
G1 X-50.25 Y-21.758 E2.67839
G1 X-51.619 Y-22.882 E2.76676
G1 X-53.181 Y-23.717 E2.85512
G1 X-54.877 Y-24.231 E2.94354
G1 X-56.327 Y-24.373 E3.01622
G1 X-56.608 Y-24.402 E3.03032
G1 X-61.1 Y-24.402 E3.25442
G1 X-61.384 Y-24.442 E3.26873
G1 X-61.588 Y-24.522 E3.27966
G1 X-61.762 Y-24.64 E3.29015
G1 X-61.908 Y-24.796 E3.30081
G1 X-62.016 Y-24.981 E3.3115
G1 X-62.084 Y-25.197 E3.3228
G1 X-62.106 Y-25.397 E3.33284
G1 X-62.106 Y-90.824 E6.597
G1 X-62.066 Y-91.108 E6.61131
G1 X-61.986 Y-91.312 E6.62224
G1 X-61.866 Y-91.49 E6.63295
G1 X-61.716 Y-91.63 E6.64319
G1 X-61.526 Y-91.741 E6.65417
G1 X-61.316 Y-91.806 E6.66514
G1 X-61.103 Y-91.83 E6.67583
G1 X-56.609 Y-91.83 E6.90004
G1 X-54.877 Y-92.001 E6.98687
G1 X-53.181 Y-92.515 E7.07528
G1 X-51.619 Y-93.35 E7.16364
G1 X-50.25 Y-94.474 E7.25202
G1 X-49.127 Y-95.843 E7.34036
G1 X-48.291 Y-97.405 E7.42874
G1 X-47.777 Y-99.101 E7.51716
G1 X-47.635 Y-100.551 E7.58984
G1 X-47.606 Y-100.832 E7.60394
G1 X-47.606 Y-105.516 E7.83762
G1 X32.821 Y-105.516 E11.85014
G1 X32.821 Y-100.833 E12.08378
G1 X32.961 Y-99.408 E12.15521
G1 X32.993 Y-99.099 E12.17071
G1 X33.506 Y-97.405 E12.25902
G1 X34.342 Y-95.843 E12.34741
G1 X35.465 Y-94.474 E12.43574
G1 X36.834 Y-93.35 E12.52412
G1 X38.396 Y-92.515 E12.61248
G1 X40.092 Y-92.001 E12.70089
G1 X41.824 Y-91.83 E12.78772
G1 X46.319 Y-91.83 E13.01198
G1 X46.574 Y-91.802 E13.02478
G1 X46.773 Y-91.732 E13.0353
G1 X46.958 Y-91.616 E13.0462
G1 X47.109 Y-91.465 E13.05685
G1 X47.223 Y-91.283 E13.06757
G1 X47.293 Y-91.085 E13.07804
G1 X47.321 Y-90.827 E13.09099
G1 X47.321 Y-25.405 E16.35491
G1 X47.293 Y-25.148 E16.3678
G1 X47.224 Y-24.953 E16.37812
G1 X47.106 Y-24.765 E16.3892
G1 X46.958 Y-24.616 E16.39968
G1 X46.773 Y-24.5 E16.41057
G1 X46.574 Y-24.43 E16.42109
G1 X46.319 Y-24.402 E16.43389
G1 X41.825 Y-24.402 E16.6581
G1 X40.37 Y-24.26 E16.73103
G1 X39.822 Y-24.149 E16.75893
G1 X38.396 Y-23.717 E16.83327
G1 X36.834 Y-22.882 E16.92163
G1 X35.465 Y-21.758 E17.01
G1 X34.342 Y-20.389 E17.09834
G1 X33.506 Y-18.827 E17.18673
G1 X32.993 Y-17.131 E17.27513
G1 X32.821 Y-15.399 E17.36196
G1 X32.821 Y-9.716 E17.64549
G1 X-5.735 Y-9.716 E19.56906
G1 X-5.878 Y-9.873 E19.57965
G1 X-6.334 Y-10.179 E19.60705
G1 X-6.857 Y-10.374 E19.6349
G0 F3600 X-6.835 Y-10.471
G0 X-44.02 Y-16.488
G0 X-44.02 Y-94.744
G0 X-31.764 Y-94.744
G0 X-31.764 Y-24.744
G0 X-18.614 Y-34.111
G0 X-18.54 Y-34.045
G1 F1800 X-18.898 Y-33.528 E19.66627
G1 X-19.121 Y-32.939 E19.69769
G1 X-19.196 Y-32.316 E19.729
G1 X-19.121 Y-31.693 E19.7603
G1 X-18.898 Y-31.105 E19.79168
G1 X-18.542 Y-30.59 E19.82291
G1 X-18.073 Y-30.172 E19.85425
G1 X-17.515 Y-29.881 E19.88565
G1 X-16.906 Y-29.731 E19.91694
G1 X-16.278 Y-29.731 E19.94827
G1 X-15.669 Y-29.881 E19.97956
G1 X-15.113 Y-30.172 E20.01087
G1 X-14.642 Y-30.589 E20.04226
G1 X-14.286 Y-31.106 E20.07357
G1 X-14.064 Y-31.692 E20.10484
G1 X-13.987 Y-32.316 E20.1362
G1 X-14.064 Y-32.94 E20.16757
G1 X-14.286 Y-33.527 E20.19888
G1 X-14.643 Y-34.043 E20.23019
G1 X-15.113 Y-34.46 E20.26153
G1 X-15.668 Y-34.751 E20.2928
G1 X-16.278 Y-34.902 E20.32415
G1 X-16.906 Y-34.902 E20.35548
G1 X-17.516 Y-34.751 E20.38683
G1 X-18.053 Y-34.469 E20.41709
G1 X-18.54 Y-34.045 E20.44931
G0 F3600 X-18.614 Y-34.111
G0 X-26.64 Y-34.931
G0 X-26.696 Y-34.849
G1 F1800 X-27.147 Y-35.084 E20.47468
G1 X-27.64 Y-35.205 E20.5
G1 X-28.146 Y-35.205 E20.52525
G1 X-28.638 Y-35.084 E20.55053
G1 X-29.072 Y-34.857 E20.57496
G1 X-29.465 Y-34.514 E20.60099
G1 X-29.756 Y-34.095 E20.62644
G1 X-29.936 Y-33.619 E20.65183
G1 X-29.996 Y-33.116 E20.6771
G1 X-29.936 Y-32.613 E20.70237
G1 X-29.756 Y-32.138 E20.72771
G1 X-29.467 Y-31.719 E20.75311
G1 X-29.086 Y-31.384 E20.77842
G1 X-28.639 Y-31.149 E20.80361
G1 X-28.146 Y-31.027 E20.82895
G1 X-27.639 Y-31.027 E20.85425
G1 X-27.145 Y-31.149 E20.87963
G1 X-26.697 Y-31.384 E20.90487
G1 X-26.318 Y-31.72 E20.93014
G1 X-26.029 Y-32.138 E20.95549
G1 X-25.849 Y-32.613 E20.98084
G1 X-25.788 Y-33.116 E21.00611
G1 X-25.849 Y-33.619 E21.03139
G1 X-26.029 Y-34.094 E21.05674
G1 X-26.317 Y-34.512 E21.08206
G1 X-26.696 Y-34.849 E21.10736
G0 F3600 X-26.64 Y-34.931
G0 X-25.748 Y-51.116
G0 X-25.994 Y-52.112
G0 X-26.64 Y-52.931
G0 X-26.696 Y-52.849
G1 F1800 X-27.147 Y-53.084 E21.13273
G1 X-27.64 Y-53.205 E21.15806
G1 X-28.146 Y-53.205 E21.1833
G1 X-28.638 Y-53.084 E21.20858
G1 X-29.072 Y-52.857 E21.23302
G1 X-29.465 Y-52.514 E21.25904
G1 X-29.756 Y-52.095 E21.28449
G1 X-29.936 Y-51.619 E21.30988
G1 X-29.996 Y-51.116 E21.33515
G1 X-29.936 Y-50.613 E21.36043
G1 X-29.756 Y-50.138 E21.38577
G1 X-29.467 Y-49.719 E21.41116
G1 X-29.086 Y-49.384 E21.43647
G1 X-28.639 Y-49.149 E21.46167
G1 X-28.146 Y-49.027 E21.48701
G1 X-27.639 Y-49.027 E21.5123
G1 X-27.145 Y-49.149 E21.53769
G1 X-26.697 Y-49.384 E21.56293
G1 X-26.318 Y-49.72 E21.5882
G1 X-26.029 Y-50.138 E21.61355
G1 X-25.849 Y-50.613 E21.63889
G1 X-25.788 Y-51.116 E21.66417
G1 X-25.849 Y-51.619 E21.68945
G1 X-26.029 Y-52.094 E21.71479
G1 X-26.317 Y-52.512 E21.74012
G1 X-26.696 Y-52.849 E21.76542
G0 F3600 X-26.64 Y-52.931
G0 X-25.748 Y-59.116
G0 X-25.994 Y-60.112
G0 X-26.64 Y-60.931
G0 X-26.696 Y-60.849
G1 F1800 X-27.147 Y-61.084 E21.79079
G1 X-27.64 Y-61.205 E21.81612
G1 X-28.146 Y-61.205 E21.84136
G1 X-28.638 Y-61.084 E21.86664
G1 X-29.072 Y-60.857 E21.89107
G1 X-29.465 Y-60.514 E21.9171
G1 X-29.756 Y-60.095 E21.94255
G1 X-29.936 Y-59.619 E21.96794
G1 X-29.996 Y-59.116 E21.99321
G1 X-29.936 Y-58.613 E22.01848
G1 X-29.756 Y-58.138 E22.04382
G1 X-29.467 Y-57.719 E22.06922
G1 X-29.086 Y-57.384 E22.09453
G1 X-28.639 Y-57.149 E22.11972
G1 X-28.146 Y-57.027 E22.14506
G1 X-27.639 Y-57.027 E22.17036
G1 X-27.145 Y-57.149 E22.19574
G1 X-26.697 Y-57.384 E22.22098
G1 X-26.318 Y-57.72 E22.24625
G1 X-26.029 Y-58.138 E22.2716
G1 X-25.849 Y-58.613 E22.29695
G1 X-25.788 Y-59.116 E22.32223
G1 X-25.849 Y-59.619 E22.3475
G1 X-26.029 Y-60.094 E22.37285
G1 X-26.317 Y-60.512 E22.39817
G1 X-26.696 Y-60.849 E22.42347
G0 F3600 X-26.64 Y-60.931
G0 X-25.748 Y-77.116
G0 X-25.994 Y-78.112
G0 X-26.64 Y-78.931
G0 X-26.696 Y-78.849
G1 F1800 X-27.147 Y-79.084 E22.44884
G1 X-27.64 Y-79.205 E22.47417
G1 X-28.146 Y-79.205 E22.49942
G1 X-28.638 Y-79.084 E22.52469
G1 X-29.072 Y-78.857 E22.54913
G1 X-29.465 Y-78.514 E22.57515
G1 X-29.756 Y-78.095 E22.6006
G1 X-29.936 Y-77.619 E22.62599
G1 X-29.996 Y-77.116 E22.65126
G1 X-29.936 Y-76.613 E22.67654
G1 X-29.756 Y-76.138 E22.70188
G1 X-29.467 Y-75.719 E22.72727
G1 X-29.086 Y-75.384 E22.75258
G1 X-28.639 Y-75.149 E22.77778
G1 X-28.146 Y-75.027 E22.80312
G1 X-27.639 Y-75.027 E22.82841
G1 X-27.145 Y-75.149 E22.8538
G1 X-26.697 Y-75.384 E22.87904
G1 X-26.318 Y-75.72 E22.90431
G1 X-26.029 Y-76.138 E22.92966
G1 X-25.849 Y-76.613 E22.955
G1 X-25.788 Y-77.116 E22.98028
G1 X-25.849 Y-77.619 E23.00556
G1 X-26.029 Y-78.094 E23.0309
G1 X-26.317 Y-78.512 E23.05623
G1 X-26.696 Y-78.849 E23.08153
G0 F3600 X-26.64 Y-78.931
G0 X-31.764 Y-94.744
G0 X-44.02 Y-94.744
G0 X-46.64 Y-78.931
G0 X-46.696 Y-78.849
G1 F1800 X-47.147 Y-79.084 E23.1069
G1 X-47.64 Y-79.205 E23.13223
G1 X-48.146 Y-79.205 E23.15747
G1 X-48.638 Y-79.084 E23.18275
G1 X-49.072 Y-78.857 E23.20718
G1 X-49.465 Y-78.514 E23.23321
G1 X-49.756 Y-78.095 E23.25866
G1 X-49.936 Y-77.619 E23.28405
G1 X-49.996 Y-77.116 E23.30932
G1 X-49.936 Y-76.613 E23.33459
G1 X-49.756 Y-76.138 E23.35993
G1 X-49.467 Y-75.719 E23.38533
G1 X-49.086 Y-75.384 E23.41064
G1 X-48.639 Y-75.149 E23.43584
G1 X-48.146 Y-75.027 E23.46117
G1 X-47.639 Y-75.027 E23.48647
G1 X-47.145 Y-75.149 E23.51185
G1 X-46.697 Y-75.384 E23.53709
G1 X-46.318 Y-75.72 E23.56236
G1 X-46.029 Y-76.138 E23.58771
G1 X-45.849 Y-76.613 E23.61306
G1 X-45.788 Y-77.116 E23.63834
G1 X-45.849 Y-77.619 E23.66361
G1 X-46.029 Y-78.094 E23.68896
G1 X-46.317 Y-78.512 E23.71428
G1 X-46.696 Y-78.849 E23.73958
G0 F3600 X-46.64 Y-78.931
G0 X-47.446 Y-79.183
G0 X-56.385 Y-80.679
G0 X-56.386 Y-80.579
G1 F1800 X-57.046 Y-80.5 E23.77275
G1 X-57.224 Y-80.476 E23.78171
G1 X-58.001 Y-80.181 E23.82317
G1 X-58.688 Y-79.708 E23.86478
G1 X-59.242 Y-79.082 E23.90649
G1 X-59.629 Y-78.343 E23.94811
G1 X-59.829 Y-77.534 E23.98968
G1 X-59.829 Y-76.699 E24.03134
G1 X-59.629 Y-75.889 E24.07297
G1 X-59.242 Y-75.15 E24.11459
G1 X-58.688 Y-74.524 E24.15629
G1 X-58.001 Y-74.051 E24.1979
G1 X-57.22 Y-73.755 E24.23957
G1 X-56.577 Y-73.679 E24.27187
G1 X-56.397 Y-73.654 E24.28094
G1 X-55.738 Y-73.733 E24.31405
G1 X-55.562 Y-73.757 E24.32292
G1 X-54.783 Y-74.051 E24.36446
G1 X-54.097 Y-74.524 E24.40603
G1 X-53.543 Y-75.15 E24.44773
G1 X-53.156 Y-75.889 E24.48935
G1 X-52.956 Y-76.699 E24.53098
G1 X-52.956 Y-77.534 E24.57263
G1 X-53.156 Y-78.343 E24.61421
G1 X-53.543 Y-79.082 E24.65583
G1 X-54.097 Y-79.708 E24.69753
G1 X-54.783 Y-80.181 E24.73911
G1 X-55.565 Y-80.478 E24.78084
G1 X-56.207 Y-80.554 E24.81309
G1 X-56.386 Y-80.579 E24.82211
G0 F3600 X-56.385 Y-80.679
G0 X-55.278 Y-83.969
G0 X-55.323 Y-84.058
G1 F1800 X-54.854 Y-84.38 E24.85049
G1 X-54.483 Y-84.799 E24.87841
G1 X-54.224 Y-85.294 E24.90628
G1 X-54.09 Y-85.836 E24.93414
G1 X-54.09 Y-86.396 E24.96208
G1 X-54.224 Y-86.938 E24.98993
G1 X-54.483 Y-87.433 E25.0178
G1 X-54.854 Y-87.852 E25.04572
G1 X-55.315 Y-88.169 E25.07364
G1 X-55.837 Y-88.368 E25.10151
G1 X-56.392 Y-88.435 E25.1294
G1 X-56.948 Y-88.368 E25.15734
G1 X-57.471 Y-88.169 E25.18526
G1 X-57.93 Y-87.852 E25.21309
G1 X-58.301 Y-87.433 E25.24101
G1 X-58.56 Y-86.938 E25.26888
G1 X-58.694 Y-86.396 E25.29673
G1 X-58.694 Y-85.836 E25.32467
G1 X-58.56 Y-85.294 E25.35253
G1 X-58.301 Y-84.799 E25.3804
G1 X-57.93 Y-84.38 E25.40832
G1 X-57.471 Y-84.063 E25.43615
G1 X-56.947 Y-83.864 E25.46411
G1 X-56.392 Y-83.798 E25.492
G1 X-55.91 Y-83.855 E25.51621
G1 X-55.323 Y-84.058 E25.5472
G0 F3600 X-55.278 Y-83.969
G0 X-44.062 Y-94.786
G0 X-43.992 Y-94.716
G1 F1800 X-43.992 Y-16.516 E29.44861
G1 X26.208 Y-16.516 E32.95091
G1 X26.208 Y-89.716 E36.60287
G1 X-14.992 Y-89.716 E38.65834
G1 X-14.992 Y-37.516 E41.26261
G1 X-9.992 Y-37.516 E41.51206
G1 X-9.992 Y-24.716 E42.15066
G1 X-31.792 Y-24.716 E43.23826
G1 X-31.792 Y-94.716 E46.73058
G1 X-43.992 Y-94.716 E47.33924
G0 F3600 X-44.062 Y-94.786
G0 X-13.514 Y-97.911
G0 X-13.44 Y-97.845
G1 F1800 X-13.798 Y-97.328 E47.37061
G1 X-14.021 Y-96.739 E47.40203
G1 X-14.096 Y-96.116 E47.43334
G1 X-14.021 Y-95.493 E47.46465
G1 X-13.798 Y-94.905 E47.49602
G1 X-13.442 Y-94.39 E47.52725
G1 X-12.973 Y-93.972 E47.5586
G1 X-12.415 Y-93.681 E47.58999
G1 X-11.806 Y-93.531 E47.62129
G1 X-11.178 Y-93.531 E47.65262
G1 X-10.569 Y-93.681 E47.68391
G1 X-10.013 Y-93.972 E47.71522
G1 X-9.542 Y-94.389 E47.7466
G1 X-9.186 Y-94.906 E47.77792
G1 X-8.964 Y-95.492 E47.80918
G1 X-8.887 Y-96.116 E47.84055
G1 X-8.964 Y-96.74 E47.87192
G1 X-9.186 Y-97.327 E47.90323
G1 X-9.543 Y-97.843 E47.93453
G1 X-10.013 Y-98.26 E47.96588
G1 X-10.568 Y-98.551 E47.99714
G1 X-11.178 Y-98.702 E48.02849
G1 X-11.806 Y-98.702 E48.05982
G1 X-12.416 Y-98.551 E48.09118
G1 X-12.953 Y-98.269 E48.12144
G1 X-13.44 Y-97.845 E48.15365
G0 F3600 X-13.514 Y-97.911
G0 X-12.43 Y-98.588
G0 X14.486 Y-97.911
G0 X14.56 Y-97.845
G1 F1800 X14.202 Y-97.328 E48.18502
G1 X13.979 Y-96.739 E48.21645
G1 X13.904 Y-96.116 E48.24775
G1 X13.979 Y-95.493 E48.27906
G1 X14.202 Y-94.905 E48.31043
G1 X14.558 Y-94.39 E48.34167
G1 X15.027 Y-93.972 E48.37301
G1 X15.585 Y-93.681 E48.40441
G1 X16.194 Y-93.531 E48.4357
G1 X16.822 Y-93.531 E48.46703
G1 X17.431 Y-93.681 E48.49832
G1 X17.987 Y-93.972 E48.52963
G1 X18.458 Y-94.389 E48.56101
G1 X18.814 Y-94.906 E48.59233
G1 X19.036 Y-95.492 E48.62359
G1 X19.113 Y-96.116 E48.65496
G1 X19.036 Y-96.74 E48.68633
G1 X18.814 Y-97.327 E48.71764
G1 X18.457 Y-97.843 E48.74894
G1 X17.987 Y-98.26 E48.78029
G1 X17.432 Y-98.551 E48.81155
G1 X16.822 Y-98.702 E48.84291
G1 X16.194 Y-98.702 E48.87424
G1 X15.584 Y-98.551 E48.90559
G1 X15.047 Y-98.269 E48.93585
G1 X14.56 Y-97.845 E48.96806
G0 F3600 X14.486 Y-97.911
G0 X15.57 Y-98.588
G0 X16.826 Y-98.741
G0 X39.321 Y-85.647
G0 X39.667 Y-84.777
G0 X40.511 Y-84.028
G0 X41.608 Y-83.758
G0 X42.722 Y-83.969
G0 X42.677 Y-84.058
G1 F1800 X43.146 Y-84.38 E48.99645
G1 X43.517 Y-84.799 E49.02437
G1 X43.776 Y-85.294 E49.05224
G1 X43.91 Y-85.836 E49.08009
G1 X43.91 Y-86.396 E49.10803
G1 X43.776 Y-86.938 E49.13589
G1 X43.517 Y-87.433 E49.16376
G1 X43.146 Y-87.852 E49.19168
G1 X42.685 Y-88.169 E49.21959
G1 X42.163 Y-88.368 E49.24746
G1 X41.608 Y-88.435 E49.27535
G1 X41.052 Y-88.368 E49.30329
G1 X40.529 Y-88.169 E49.33121
G1 X40.07 Y-87.852 E49.35904
G1 X39.699 Y-87.433 E49.38696
G1 X39.44 Y-86.938 E49.41483
G1 X39.306 Y-86.396 E49.44269
G1 X39.306 Y-85.836 E49.47063
G1 X39.44 Y-85.294 E49.49848
G1 X39.699 Y-84.799 E49.52635
G1 X40.07 Y-84.38 E49.55427
G1 X40.529 Y-84.063 E49.5821
G1 X41.053 Y-83.864 E49.61007
G1 X41.608 Y-83.798 E49.63795
G1 X42.09 Y-83.855 E49.66217
G1 X42.677 Y-84.058 E49.69315
G0 F3600 X42.722 Y-83.969
G0 X41.615 Y-80.679
G0 X41.614 Y-80.579
G1 F1800 X40.954 Y-80.5 E49.72632
G1 X40.776 Y-80.476 E49.73528
G1 X39.999 Y-80.181 E49.77674
G1 X39.312 Y-79.708 E49.81835
G1 X38.758 Y-79.082 E49.86006
G1 X38.371 Y-78.343 E49.90168
G1 X38.171 Y-77.534 E49.94325
G1 X38.171 Y-76.699 E49.98491
G1 X38.371 Y-75.889 E50.02654
G1 X38.758 Y-75.15 E50.06815
G1 X39.312 Y-74.524 E50.10986
G1 X39.999 Y-74.051 E50.15147
G1 X40.78 Y-73.755 E50.19314
G1 X41.423 Y-73.679 E50.22544
G1 X41.603 Y-73.654 E50.23451
G1 X42.262 Y-73.733 E50.26762
G1 X42.438 Y-73.757 E50.27649
G1 X43.217 Y-74.051 E50.31803
G1 X43.903 Y-74.524 E50.3596
G1 X44.457 Y-75.15 E50.4013
G1 X44.844 Y-75.889 E50.44292
G1 X45.044 Y-76.699 E50.48455
G1 X45.044 Y-77.534 E50.5262
G1 X44.844 Y-78.343 E50.56778
G1 X44.457 Y-79.082 E50.6094
G1 X43.903 Y-79.708 E50.6511
G1 X43.217 Y-80.181 E50.69268
G1 X42.435 Y-80.478 E50.73441
G1 X41.793 Y-80.554 E50.76666
G1 X41.614 Y-80.579 E50.77568
G0 F3600 X41.615 Y-80.679
G0 X42.444 Y-80.516
G0 X43.235 Y-80.216
G0 X43.929 Y-79.737
G0 X44.489 Y-79.104
G0 X44.881 Y-78.357
G0 X45.083 Y-77.538
G0 X45.083 Y-76.695
G0 X43.949 Y-57.832
G0 X43.549 Y-56.777
G0 X42.722 Y-55.969
G0 X42.677 Y-56.058
G1 F1800 X43.146 Y-56.38 E50.80406
G1 X43.517 Y-56.799 E50.83198
G1 X43.776 Y-57.294 E50.85985
G1 X43.91 Y-57.836 E50.88771
G1 X43.91 Y-58.396 E50.91565
G1 X43.776 Y-58.938 E50.9435
G1 X43.517 Y-59.433 E50.97137
G1 X43.146 Y-59.852 E50.99929
G1 X42.685 Y-60.169 E51.02721
G1 X42.163 Y-60.368 E51.05508
G1 X41.608 Y-60.435 E51.08297
G1 X41.052 Y-60.368 E51.11091
G1 X40.529 Y-60.169 E51.13882
G1 X40.07 Y-59.852 E51.16665
G1 X39.699 Y-59.433 E51.19458
G1 X39.44 Y-58.938 E51.22245
G1 X39.306 Y-58.396 E51.2503
G1 X39.306 Y-57.836 E51.27824
G1 X39.44 Y-57.294 E51.3061
G1 X39.699 Y-56.799 E51.33397
G1 X40.07 Y-56.38 E51.36189
G1 X40.529 Y-56.063 E51.38972
G1 X41.053 Y-55.864 E51.41768
G1 X41.608 Y-55.798 E51.44557
G1 X42.09 Y-55.855 E51.46978
G1 X42.677 Y-56.058 E51.50077
G0 F3600 X42.722 Y-55.969
G0 X41.615 Y-42.679
G0 X41.614 Y-42.579
G1 F1800 X40.954 Y-42.5 E51.53393
G1 X40.776 Y-42.476 E51.54289
G1 X39.999 Y-42.181 E51.58436
G1 X39.312 Y-41.708 E51.62597
G1 X38.758 Y-41.082 E51.66767
G1 X38.371 Y-40.343 E51.70929
G1 X38.171 Y-39.534 E51.75087
G1 X38.171 Y-38.699 E51.79253
G1 X38.371 Y-37.889 E51.83415
G1 X38.758 Y-37.15 E51.87577
G1 X39.312 Y-36.524 E51.91748
G1 X39.999 Y-36.051 E51.95909
G1 X40.78 Y-35.755 E52.00076
G1 X41.423 Y-35.679 E52.03306
