;FLAVOR:Marlin
;TIME:9801
;Filament used: 13.4654m
;Layer height: 0.3
;MINX:-116.909
;MINY:-63.114
;MINZ:0.3
;MAXX:12.28
;MAXY:63.562
;MAXZ:21.9
;Generated with Cura_SteamEngine 4.7.1
M140 S50
M105
M190 S50
M104 S250
M105
M109 S250
M82 ;absolute extrusion mode
G28 ;Home
G1 Z15.0 F6000 ;Move the platform down 15mm
;Prime the extruder
G92 E0
G1 F200 E3
G92 E0
G92 E0
G92 E0
G1 F1500 E-6.5
;LAYER_COUNT:73
;LAYER:0
M107
G0 F3600 X-46.404 Y-19.8 Z0.3
;TYPE:SKIRT
G1 F1500 E0
G1 F1800 X-46.404 Y-31.717 E0.59454
G1 X-46.753 Y-31.349 E0.61984
G1 X-47.352 Y-30.834 E0.65926
G1 X-48 Y-30.383 E0.69864
G1 X-48.691 Y-29.999 E0.73808
G1 X-49.416 Y-29.687 E0.77746
G1 X-50.169 Y-29.45 E0.81684
G1 X-50.943 Y-29.291 E0.85627
G1 X-51.728 Y-29.21 E0.89564
G1 X-52.13 Y-29.2 E0.9157
G1 X-56.33 Y-29.2 E1.12524
G1 X-56.33 Y-19.8 E1.59421
G1 X-46.404 Y-19.8 E2.08942
G0 F3600 X-46.004 Y-19.4
G1 F1800 X-46.004 Y-32.864 E2.76114
G1 X-46.124 Y-32.677 E2.77222
G1 X-46.605 Y-32.077 E2.81059
G1 X-47.146 Y-31.53 E2.84897
G1 X-47.741 Y-31.042 E2.88736
G1 X-48.383 Y-30.619 E2.92572
G1 X-49.066 Y-30.264 E2.96412
G1 X-49.781 Y-29.983 E3.00245
G1 X-50.523 Y-29.777 E3.04087
G1 X-51.281 Y-29.649 E3.07922
G1 X-52.13 Y-29.6 E3.12165
G1 X-56.73 Y-29.6 E3.35114
G1 X-56.73 Y-19.4 E3.86002
G1 X-46.004 Y-19.4 E4.39515
G0 F3600 X-45.604 Y-19
G1 F1800 X-45.604 Y-34.495 E5.1682
G1 X-45.76 Y-34.097 E5.18952
G1 X-46.107 Y-33.434 E5.22686
G1 X-46.522 Y-32.811 E5.2642
G1 X-47.001 Y-32.237 E5.3015
G1 X-47.538 Y-31.716 E5.33883
G1 X-48.128 Y-31.257 E5.37612
G1 X-48.764 Y-30.862 E5.41347
G1 X-49.438 Y-30.538 E5.45078
G1 X-50.143 Y-30.288 E5.4881
G1 X-50.871 Y-30.114 E5.52545
G1 X-51.613 Y-30.019 E5.56277
G1 X-52.13 Y-30 E5.58858
G1 X-57.13 Y-30 E5.83803
G1 X-57.13 Y-19 E6.38682
G1 X-45.604 Y-19 E6.96185
G0 F3600 X-45.204 Y-18.6
G1 F1800 X-45.204 Y-44.188 E8.23844
G1 X-45.164 Y-44.913 E8.27467
G1 X-45.045 Y-45.63 E8.31093
G1 X-44.847 Y-46.329 E8.34718
G1 X-44.574 Y-47.002 E8.38341
G1 X-44.187 Y-47.709 E8.42362
G1 X-43.745 Y-48.41 E8.46497
G1 X-43.563 Y-48.963 E8.49401
G1 X-43.518 Y-49.519 E8.52184
G1 X-43.518 Y-53.748 E8.73283
G1 X-43.452 Y-54.681 E8.77949
G1 X-43.395 Y-55.08 E8.7996
G1 X-43.253 Y-55.793 E8.83587
G1 X-43.025 Y-56.506 E8.87321
G1 X-42.901 Y-56.83 E8.89052
G1 X-42.604 Y-57.493 E8.92677
G1 X-42.202 Y-58.171 E8.96609
G1 X-42.007 Y-58.459 E8.98344
G1 X-41.567 Y-59.037 E9.01968
G1 X-41.057 Y-59.573 E9.0566
G1 X-40.799 Y-59.815 E9.07424
G1 X-40.243 Y-60.282 E9.11047
G1 X-39.604 Y-60.705 E9.1487
G1 X-39.305 Y-60.879 E9.16596
G1 X-38.658 Y-61.21 E9.20222
G1 X-37.987 Y-61.464 E9.23801
G1 X-37.654 Y-61.57 E9.25545
G1 X-36.951 Y-61.752 E9.29168
G1 X-36.376 Y-61.841 E9.32071
G1 X-36.077 Y-61.874 E9.33571
G1 X-35.353 Y-61.914 E9.37189
G1 X-24.604 Y-61.914 E9.90816
G1 X-23.879 Y-61.874 E9.94438
G1 X-23.162 Y-61.755 E9.98064
G1 X-22.463 Y-61.557 E10.01689
G1 X-21.79 Y-61.284 E10.05312
G1 X-21.151 Y-60.939 E10.08935
G1 X-20.554 Y-60.525 E10.1256
G1 X-20.006 Y-60.049 E10.16181
G1 X-19.513 Y-59.515 E10.19807
G1 X-19.083 Y-58.93 E10.23429
G1 X-18.859 Y-58.543 E10.2566
G1 X-18.472 Y-59.049 E10.28838
G1 X-17.972 Y-59.573 E10.32452
G1 X-17.714 Y-59.815 E10.34216
G1 X-17.158 Y-60.282 E10.37839
G1 X-16.519 Y-60.705 E10.41662
G1 X-16.22 Y-60.879 E10.43388
G1 X-15.573 Y-61.21 E10.47014
G1 X-14.907 Y-61.462 E10.50567
G1 X-14.575 Y-61.568 E10.52305
G1 X-13.872 Y-61.751 E10.55929
G1 X-13.292 Y-61.841 E10.58858
G1 X-12.993 Y-61.874 E10.60358
G1 X-12.269 Y-61.914 E10.63976
G1 X-1.52 Y-61.914 E11.17603
G1 X-.795 Y-61.874 E11.21226
G1 X-0.078 Y-61.755 E11.24852
G1 X0.621 Y-61.557 E11.28476
G1 X1.294 Y-61.284 E11.32099
G1 X1.933 Y-60.939 E11.35722
G1 X2.53 Y-60.525 E11.39347
G1 X3.078 Y-60.049 E11.42968
G1 X3.571 Y-59.515 E11.46594
G1 X4.001 Y-58.93 E11.50216
G1 X4.365 Y-58.301 E11.53842
G1 X4.658 Y-57.636 E11.57468
G1 X4.876 Y-56.943 E11.61092
G1 X5.016 Y-56.231 E11.64712
G1 X5.08 Y-55.314 E11.69298
G1 X5.08 Y-31.567 E12.87772
G1 X5.205 Y-31.56 E12.88397
G1 X5.922 Y-31.441 E12.92023
G1 X6.621 Y-31.243 E12.95648
G1 X7.294 Y-30.97 E12.99271
G1 X7.933 Y-30.625 E13.02894
G1 X8.53 Y-30.211 E13.06519
G1 X9.078 Y-29.735 E13.1014
G1 X9.571 Y-29.201 E13.13766
G1 X10.001 Y-28.616 E13.17388
G1 X10.365 Y-27.987 E13.21014
G1 X10.658 Y-27.322 E13.24639
G1 X10.876 Y-26.629 E13.28264
G1 X11.016 Y-25.917 E13.31884
G1 X11.08 Y-25 E13.3647
G1 X11.08 Y-18 E13.71393
G1 X11.04 Y-17.275 E13.75015
G1 X10.921 Y-16.558 E13.78642
G1 X10.836 Y-16.257 E13.80202
G1 X10.876 Y-16.129 E13.80871
G1 X11.016 Y-15.417 E13.84491
G1 X11.08 Y-14.5 E13.89077
G1 X11.08 Y5 E14.86363
G1 X11.04 Y5.725 E14.89986
G1 X10.921 Y6.442 E14.93612
G1 X10.723 Y7.141 E14.97236
G1 X10.45 Y7.814 E15.0086
G1 X10.105 Y8.453 E15.04483
G1 X9.691 Y9.05 E15.08107
G1 X9.298 Y9.503 E15.11099
G1 X9.571 Y9.799 E15.13108
G1 X10.001 Y10.384 E15.1673
G1 X10.365 Y11.013 E15.20356
G1 X10.658 Y11.678 E15.23981
G1 X10.876 Y12.371 E15.27606
G1 X11.016 Y13.083 E15.31226
G1 X11.08 Y14 E15.35812
G1 X11.08 Y28 E16.05658
G1 X11.04 Y28.725 E16.09281
G1 X10.921 Y29.442 E16.12907
G1 X10.723 Y30.141 E16.16531
G1 X10.45 Y30.814 E16.20155
G1 X10.365 Y31.013 E16.21234
G1 X10.658 Y31.678 E16.2486
G1 X10.876 Y32.371 E16.28484
G1 X11.016 Y33.083 E16.32104
G1 X11.08 Y34 E16.36691
G1 X11.08 Y41 E16.71614
G1 X11.04 Y41.725 E16.75236
G1 X10.921 Y42.442 E16.78862
G1 X10.723 Y43.141 E16.82487
G1 X10.45 Y43.814 E16.8611
G1 X10.105 Y44.453 E16.89733
G1 X9.691 Y45.05 E16.93358
G1 X9.215 Y45.598 E16.96979
G1 X8.681 Y46.091 E17.00605
G1 X8.096 Y46.521 E17.04227
G1 X7.467 Y46.885 E17.07853
G1 X6.802 Y47.178 E17.11478
G1 X6.109 Y47.396 E17.15103
G1 X5.397 Y47.536 E17.18723
G1 X5.08 Y47.558 E17.20308
G1 X5.08 Y55.314 E17.59003
G1 X5.04 Y56.039 E17.62626
G1 X4.921 Y56.756 E17.66252
G1 X4.723 Y57.455 E17.69876
G1 X4.45 Y58.128 E17.73499
G1 X4.105 Y58.767 E17.77122
G1 X3.691 Y59.364 E17.80747
G1 X3.215 Y59.912 E17.84368
G1 X2.681 Y60.405 E17.87994
G1 X2.096 Y60.835 E17.91616
G1 X1.467 Y61.199 E17.95242
G1 X0.802 Y61.492 E17.98868
G1 X0.109 Y61.71 E18.02492
G1 X-.603 Y61.85 E18.06112
G1 X-1.52 Y61.914 E18.10698
G1 X-12.268 Y61.914 E18.6432
G1 X-13.201 Y61.848 E18.68987
G1 X-13.6 Y61.791 E18.70997
G1 X-14.313 Y61.649 E18.74624
G1 X-15.036 Y61.417 E18.78413
G1 X-15.361 Y61.292 E18.8015
G1 X-16.024 Y60.994 E18.83776
G1 X-16.692 Y60.597 E18.87653
G1 X-16.98 Y60.402 E18.89388
G1 X-17.558 Y59.962 E18.93013
G1 X-18.112 Y59.432 E18.96838
G1 X-18.352 Y59.174 E18.98596
G1 X-18.817 Y58.616 E19.02219
G1 X-18.861 Y58.549 E19.02619
G1 X-18.979 Y58.767 E19.03856
G1 X-19.393 Y59.364 E19.0748
G1 X-19.869 Y59.912 E19.11102
G1 X-20.403 Y60.405 E19.14728
G1 X-20.988 Y60.835 E19.1835
G1 X-21.617 Y61.199 E19.21976
G1 X-22.282 Y61.492 E19.25601
G1 X-22.975 Y61.71 E19.29226
G1 X-23.687 Y61.85 E19.32846
G1 X-24.604 Y61.914 E19.37432
G1 X-35.352 Y61.914 E19.91054
G1 X-36.285 Y61.848 E19.9572
G1 X-36.684 Y61.791 E19.97731
G1 X-37.397 Y61.649 E20.01358
G1 X-38.114 Y61.42 E20.05113
G1 X-38.44 Y61.295 E20.06855
G1 X-39.103 Y60.998 E20.10479
G1 X-39.777 Y60.597 E20.14392
G1 X-40.065 Y60.402 E20.16127
G1 X-40.643 Y59.962 E20.19752
G1 X-41.197 Y59.432 E20.23577
G1 X-41.437 Y59.174 E20.25335
G1 X-41.902 Y58.616 E20.28958
G1 X-42.305 Y58.007 E20.32602
G1 X-42.479 Y57.709 E20.34323
G1 X-42.81 Y57.062 E20.37949
G1 X-43.068 Y56.383 E20.41573
G1 X-43.174 Y56.05 E20.43316
G1 X-43.356 Y55.347 E20.46939
G1 X-43.445 Y54.777 E20.49817
G1 X-43.478 Y54.48 E20.51308
G1 X-43.518 Y53.751 E20.54951
G1 X-43.518 Y49.517 E20.76074
G1 X-43.564 Y48.952 E20.78902
G1 X-43.746 Y48.409 E20.8176
G1 X-44.187 Y47.709 E20.85887
G1 X-44.54 Y47.074 E20.89512
G1 X-44.821 Y46.404 E20.93137
G1 X-45.027 Y45.708 E20.96758
G1 X-45.155 Y44.993 E21.00382
G1 X-45.204 Y44.188 E21.04405
G1 X-45.204 Y42.6 E21.12328
G1 X-45.53 Y42.6 E21.13954
G1 X-45.53 Y55.314 E21.77385
G1 X-45.57 Y56.039 E21.81007
G1 X-45.689 Y56.756 E21.84633
G1 X-45.887 Y57.455 E21.88258
G1 X-46.16 Y58.128 E21.91881
G1 X-46.505 Y58.767 E21.95504
G1 X-46.919 Y59.364 E21.99129
G1 X-47.395 Y59.912 E22.0275
G1 X-47.929 Y60.405 E22.06376
G1 X-48.514 Y60.835 E22.09998
G1 X-49.143 Y61.199 E22.13624
G1 X-49.808 Y61.492 E22.17249
G1 X-50.501 Y61.71 E22.20874
G1 X-51.213 Y61.85 E22.24494
G1 X-52.13 Y61.914 E22.2908
G1 X-62.878 Y61.914 E22.82702
G1 X-63.809 Y61.848 E22.87358
G1 X-64.209 Y61.791 E22.89374
G1 X-64.921 Y61.649 E22.92996
G1 X-65.664 Y61.411 E22.96889
G1 X-65.989 Y61.285 E22.98628
G1 X-66.651 Y60.985 E23.02254
G1 X-67.303 Y60.596 E23.06041
G1 X-67.591 Y60.401 E23.07777
G1 X-68.169 Y59.961 E23.11401
G1 X-68.705 Y59.451 E23.15092
G1 X-68.946 Y59.194 E23.1685
G1 X-69.413 Y58.637 E23.20476
G1 X-69.846 Y57.982 E23.24393
G1 X-70.02 Y57.681 E23.26128
G1 X-70.348 Y57.033 E23.29751
G1 X-70.597 Y56.374 E23.33266
G1 X-70.702 Y56.043 E23.34998
G1 X-70.883 Y55.339 E23.38625
G1 X-70.97 Y54.778 E23.41457
G1 X-71.003 Y54.482 E23.42943
G1 X-71.044 Y53.751 E23.46596
G1 X-71.044 Y49.615 E23.6723
G1 X-71.13 Y48.849 E23.71076
G1 X-71.263 Y48.469 E23.73085
G1 X-71.476 Y48.13 E23.75082
G1 X-71.76 Y47.846 E23.77086
G1 X-72.096 Y47.635 E23.79065
G1 X-72.479 Y47.501 E23.8109
G1 X-73.255 Y47.414 E23.84985
G1 X-74.13 Y47.414 E23.89351
G1 X-74.855 Y47.374 E23.92973
G1 X-75.572 Y47.255 E23.96599
G1 X-76.271 Y47.057 E24.00224
G1 X-76.944 Y46.784 E24.03847
G1 X-77.583 Y46.439 E24.0747
G1 X-78.18 Y46.025 E24.11095
G1 X-78.728 Y45.549 E24.14716
G1 X-79.221 Y45.015 E24.18342
G1 X-79.651 Y44.43 E24.21964
G1 X-80.015 Y43.801 E24.2559
G1 X-80.308 Y43.136 E24.29215
G1 X-80.336 Y43.048 E24.29676
G1 X-80.509 Y43.048 E24.30539
G1 X-80.509 Y55.762 E24.9397
G1 X-80.549 Y56.487 E24.97592
G1 X-80.668 Y57.204 E25.01218
G1 X-80.866 Y57.903 E25.04843
G1 X-81.139 Y58.576 E25.08466
G1 X-81.484 Y59.215 E25.12089
G1 X-81.898 Y59.812 E25.15713
G1 X-82.374 Y60.36 E25.19335
G1 X-82.908 Y60.853 E25.22961
G1 X-83.493 Y61.283 E25.26583
G1 X-84.122 Y61.647 E25.30209
G1 X-84.787 Y61.94 E25.33834
G1 X-85.48 Y62.158 E25.37458
G1 X-86.192 Y62.298 E25.41079
G1 X-87.109 Y62.362 E25.45665
G1 X-97.857 Y62.362 E25.99287
G1 X-98.788 Y62.296 E26.03943
G1 X-99.188 Y62.239 E26.05959
G1 X-99.9 Y62.097 E26.09581
G1 X-100.643 Y61.859 E26.13473
G1 X-100.968 Y61.733 E26.15212
G1 X-101.63 Y61.433 E26.18839
G1 X-102.282 Y61.044 E26.22626
G1 X-102.57 Y60.849 E26.24362
G1 X-103.148 Y60.409 E26.27986
G1 X-103.702 Y59.879 E26.31811
G1 X-103.942 Y59.621 E26.33569
G1 X-104.407 Y59.063 E26.37192
G1 X-104.814 Y58.446 E26.4088
G1 X-104.988 Y58.147 E26.42606
G1 X-105.319 Y57.5 E26.46232
G1 X-105.577 Y56.817 E26.49874
G1 X-105.682 Y56.485 E26.51611
G1 X-105.862 Y55.782 E26.55232
G1 X-105.946 Y55.248 E26.57929
G1 X-105.98 Y54.952 E26.59415
G1 X-106.023 Y54.199 E26.63178
G1 X-106.023 Y50.063 E26.83813
G1 X-106.109 Y49.297 E26.87658
G1 X-106.242 Y48.918 E26.89662
G1 X-106.456 Y48.576 E26.91675
G1 X-106.738 Y48.294 E26.93665
G1 X-107.075 Y48.083 E26.95648
G1 X-107.458 Y47.949 E26.97673
G1 X-108.234 Y47.862 E27.01568
G1 X-109.109 Y47.862 E27.05934
G1 X-109.834 Y47.822 E27.09556
G1 X-110.551 Y47.703 E27.13182
G1 X-111.25 Y47.505 E27.16807
G1 X-111.923 Y47.232 E27.2043
G1 X-112.562 Y46.887 E27.24053
G1 X-113.159 Y46.473 E27.27678
G1 X-113.707 Y45.997 E27.31299
G1 X-114.2 Y45.463 E27.34925
G1 X-114.63 Y44.878 E27.38547
G1 X-114.994 Y44.249 E27.42173
G1 X-115.287 Y43.584 E27.45798
G1 X-115.505 Y42.891 E27.49423
G1 X-115.645 Y42.179 E27.53043
G1 X-115.709 Y41.262 E27.57629
G1 X-115.709 Y-40.366 E31.64873
G1 X-115.669 Y-41.091 E31.68495
G1 X-115.55 Y-41.808 E31.72121
G1 X-115.352 Y-42.507 E31.75746
G1 X-115.079 Y-43.18 E31.79369
G1 X-114.734 Y-43.819 E31.82992
G1 X-114.32 Y-44.416 E31.86617
G1 X-113.844 Y-44.964 E31.90238
G1 X-113.31 Y-45.457 E31.93864
G1 X-112.725 Y-45.887 E31.97486
G1 X-112.096 Y-46.251 E32.01112
G1 X-111.431 Y-46.544 E32.04737
G1 X-110.738 Y-46.762 E32.08362
G1 X-110.026 Y-46.902 E32.11982
G1 X-109.109 Y-46.966 E32.16568
G1 X-108.222 Y-46.966 E32.20993
G1 X-107.464 Y-47.051 E32.24799
G1 X-107.075 Y-47.187 E32.26855
G1 X-106.738 Y-47.398 E32.28838
G1 X-106.456 Y-47.68 E32.30828
G1 X-106.242 Y-48.022 E32.32841
G1 X-106.111 Y-48.396 E32.34818
G1 X-106.023 Y-49.183 E32.38768
G1 X-106.023 Y-53.3 E32.59308
G1 X-105.956 Y-54.236 E32.6399
G1 X-105.899 Y-54.634 E32.65996
G1 X-105.757 Y-55.346 E32.69618
G1 X-105.526 Y-56.067 E32.73395
G1 X-105.401 Y-56.392 E32.75132
G1 X-105.103 Y-57.055 E32.78759
G1 X-104.703 Y-57.728 E32.82665
G1 X-104.507 Y-58.017 E32.84407
G1 X-104.067 Y-58.594 E32.88027
G1 X-103.56 Y-59.126 E32.91693
G1 X-103.302 Y-59.368 E32.93458
G1 X-102.746 Y-59.835 E32.97081
G1 X-102.092 Y-60.267 E33.00991
G1 X-101.793 Y-60.44 E33.02715
G1 X-101.146 Y-60.768 E33.06334
G1 X-100.495 Y-61.014 E33.09806
G1 X-100.163 Y-61.12 E33.11544
G1 X-99.46 Y-61.303 E33.15168
G1 X-98.882 Y-61.393 E33.18087
G1 X-98.584 Y-61.426 E33.19583
G1 X-97.858 Y-61.466 E33.2321
G1 X-87.109 Y-61.466 E33.76837
G1 X-86.384 Y-61.426 E33.8046
G1 X-85.667 Y-61.307 E33.84086
G1 X-84.968 Y-61.109 E33.8771
G1 X-84.295 Y-60.836 E33.91334
G1 X-83.656 Y-60.491 E33.94957
G1 X-83.059 Y-60.077 E33.98581
G1 X-82.511 Y-59.601 E34.02203
G1 X-82.018 Y-59.067 E34.05828
G1 X-81.588 Y-58.482 E34.09451
G1 X-81.224 Y-57.853 E34.13076
G1 X-80.931 Y-57.188 E34.16702
G1 X-80.713 Y-56.495 E34.20326
G1 X-80.573 Y-55.783 E34.23946
G1 X-80.509 Y-54.866 E34.28532
G1 X-80.509 Y-42.475 E34.90351
G1 X-80.373 Y-42.955 E34.9284
G1 X-80.1 Y-43.628 E34.96464
G1 X-79.755 Y-44.267 E35.00087
G1 X-79.341 Y-44.864 E35.03711
G1 X-78.865 Y-45.412 E35.07333
G1 X-78.331 Y-45.905 E35.10958
G1 X-77.746 Y-46.335 E35.14581
G1 X-77.117 Y-46.699 E35.18206
G1 X-76.452 Y-46.992 E35.21832
G1 X-75.759 Y-47.21 E35.25456
G1 X-75.047 Y-47.35 E35.29076
G1 X-74.13 Y-47.414 E35.33662
G1 X-73.243 Y-47.414 E35.38088
G1 X-72.485 Y-47.499 E35.41893
G1 X-72.096 Y-47.635 E35.43949
G1 X-71.76 Y-47.846 E35.45928
G1 X-71.476 Y-48.13 E35.47932
G1 X-71.263 Y-48.469 E35.4993
G1 X-71.132 Y-48.844 E35.51911
G1 X-71.044 Y-49.631 E35.55862
G1 X-71.044 Y-53.748 E35.76402
G1 X-70.98 Y-54.668 E35.81003
G1 X-70.924 Y-55.066 E35.83008
G1 X-70.783 Y-55.778 E35.86629
G1 X-70.542 Y-56.532 E35.90579
G1 X-70.416 Y-56.857 E35.92318
G1 X-70.116 Y-57.519 E35.95944
G1 X-69.733 Y-58.163 E35.99682
G1 X-69.538 Y-58.452 E36.01421
G1 X-69.099 Y-59.03 E36.05042
G1 X-68.582 Y-59.574 E36.08786
G1 X-68.324 Y-59.816 E36.10551
G1 X-67.768 Y-60.283 E36.14174
G1 X-67.114 Y-60.715 E36.18084
G1 X-66.815 Y-60.888 E36.19808
G1 X-66.168 Y-61.216 E36.23427
G1 X-65.512 Y-61.464 E36.26925
G1 X-65.179 Y-61.57 E36.28669
G1 X-64.476 Y-61.752 E36.32292
G1 X-63.903 Y-61.841 E36.35185
G1 X-63.605 Y-61.874 E36.36681
G1 X-62.879 Y-61.914 E36.40308
G1 X-52.13 Y-61.914 E36.93935
G1 X-51.405 Y-61.874 E36.97558
G1 X-50.688 Y-61.755 E37.01184
G1 X-49.989 Y-61.557 E37.04808
G1 X-49.316 Y-61.284 E37.08432
G1 X-48.677 Y-60.939 E37.12055
G1 X-48.08 Y-60.525 E37.15679
G1 X-47.532 Y-60.049 E37.193
G1 X-47.039 Y-59.515 E37.22926
G1 X-46.609 Y-58.93 E37.26549
G1 X-46.245 Y-58.301 E37.30174
G1 X-45.952 Y-57.636 E37.338
G1 X-45.734 Y-56.943 E37.37424
G1 X-45.594 Y-56.231 E37.41044
G1 X-45.53 Y-55.314 E37.4563
G1 X-45.53 Y-37 E38.36999
G1 X-45.57 Y-36.275 E38.40622
G1 X-45.689 Y-35.558 E38.44248
G1 X-45.887 Y-34.859 E38.47872
G1 X-46.16 Y-34.186 E38.51496
G1 X-46.505 Y-33.547 E38.55119
G1 X-46.919 Y-32.95 E38.58743
G1 X-47.395 Y-32.402 E38.62365
G1 X-47.929 Y-31.909 E38.65991
G1 X-48.514 Y-31.479 E38.69613
G1 X-49.143 Y-31.115 E38.73238
G1 X-49.808 Y-30.822 E38.76864
G1 X-50.501 Y-30.604 E38.80488
G1 X-51.213 Y-30.464 E38.84108
G1 X-52.13 Y-30.4 E38.88695
G1 X-57.53 Y-30.4 E39.15635
G1 X-57.53 Y-18.6 E39.74506
G1 X-45.204 Y-18.6 E40.36
G0 F3600 X-44.804 Y-18.2
G1 F1800 X-44.804 Y-44.188 E41.65655
G1 X-44.764 Y-44.891 E41.69168
G1 X-44.645 Y-45.585 E41.72681
G1 X-44.447 Y-46.26 E41.7619
G1 X-44.175 Y-46.909 E41.79701
G1 X-43.848 Y-47.495 E41.83049
G1 X-43.391 Y-48.219 E41.8732
G1 X-43.253 Y-48.545 E41.89087
G1 X-43.166 Y-48.898 E41.909
G1 X-43.118 Y-49.498 E41.93903
G1 X-43.118 Y-53.748 E42.15107
G1 X-43.056 Y-54.625 E42.19493
G1 X-42.999 Y-55.024 E42.21504
G1 X-42.86 Y-55.714 E42.25015
G1 X-42.651 Y-56.363 E42.28417
