;FLAVOR:Marlin
;TIME:24229
;Filament used: 35.4261m
;Layer height: 0.3
;MINX:-17.3
;MINY:-84.8
;MINZ:0.3
;MAXX:54.866
;MAXY:84.8
;MAXZ:12.9
;Generated with Cura_SteamEngine 4.7.1
M140 S50
M105
M190 S50
M104 S255
M105
M109 S255
M82 ;absolute extrusion mode
G28 ;Home
G1 Z15.0 F6000 ;Move the platform down 15mm
;Prime the extruder
G92 E0
G1 F200 E3
G92 E0
G92 E0
G92 E0
G1 F1500 E-6.5
;LAYER_COUNT:43
;LAYER:0
M107
;MESH:rail2020_10_01.stl(1)
G0 F3600 X-8.448 Y-64.729 Z0.3
;TYPE:WALL-INNER
G1 F1500 E0
G1 F1800 X-8.806 Y-64.211 E0.03141
G1 X-9.029 Y-63.623 E0.06279
G1 X-9.104 Y-63 E0.09409
G1 X-9.029 Y-62.377 E0.1254
G1 X-8.806 Y-61.79 E0.15673
G1 X-8.45 Y-61.273 E0.18805
G1 X-7.979 Y-60.856 E0.21943
G1 X-7.423 Y-60.565 E0.25074
G1 X-6.814 Y-60.415 E0.28203
G1 X-6.186 Y-60.415 E0.31336
G1 X-5.577 Y-60.565 E0.34465
G1 X-5.021 Y-60.856 E0.37596
G1 X-4.55 Y-61.273 E0.40734
G1 X-4.194 Y-61.79 E0.43866
G1 X-3.971 Y-62.377 E0.46999
G1 X-3.896 Y-63 E0.5013
G1 X-3.971 Y-63.623 E0.5326
G1 X-4.194 Y-64.21 E0.56393
G1 X-4.55 Y-64.727 E0.59525
G1 X-5.021 Y-65.144 E0.62663
G1 X-5.577 Y-65.435 E0.65794
G1 X-6.186 Y-65.585 E0.68923
G1 X-6.814 Y-65.585 E0.72056
G1 X-7.423 Y-65.435 E0.75185
G1 X-7.96 Y-65.154 E0.78209
G1 X-8.448 Y-64.729 E0.81437
G0 F3600 X-6.85 Y-69.4
G1 F1800 X-6.626 Y-69.4 E0.82555
G1 X-6.625 Y-69.4 E0.8256
G1 X-4.045 Y-69.4 E0.95432
G1 X-3.947 Y-72.076 E1.08791
G1 X-3.935 Y-72.267 E1.09746
G1 X-3.708 Y-75.287 E1.24855
G1 X-3.648 Y-76.064 E1.28743
G1 X-3.617 Y-76.505 E1.30949
G1 X-3.549 Y-77.481 E1.3583
G1 X-3.229 Y-76.556 E1.3832
G1 X-2.533 Y-74.543 E1.48947
G1 X-1.58 Y-71.853 E1.63184
G1 X-1.188 Y-70.585 E1.69806
G1 X-.963 Y-69.4 E1.75823
G1 X1.238 Y-69.4 E1.86804
G1 X1.477 Y-70.528 E1.92557
G1 X1.907 Y-71.806 E1.99284
G1 X2.693 Y-73.861 E2.10261
G1 X3.766 Y-76.717 E2.25482
G1 X3.89 Y-77.047 E2.27241
G1 X3.907 Y-77.091 E2.27476
G1 X3.985 Y-77.307 E2.28622
G1 X4.082 Y-77.601 E2.30166
G1 X4.099 Y-77.315 E2.30342
G1 X4.113 Y-77.104 E2.30751
G1 X4.122 Y-76.961 E2.31263
G1 X4.145 Y-76.609 E2.32693
G1 X4.212 Y-75.614 E2.37668
G1 X4.472 Y-70.169 E2.64865
G1 X4.496 Y-69.4 E2.68703
G1 X7.201 Y-69.4 E2.82198
G1 X7.202 Y-69.4 E2.82203
G1 X7.415 Y-69.4 E2.83266
G1 X7.4 Y-69.613 E2.83941
G1 X7.344 Y-70.383 E2.87793
G1 X7.179 Y-72.41 E2.97939
G1 X6.94 Y-75.282 E3.12317
G1 X6.656 Y-79.127 E3.31552
G1 X6.64 Y-79.37 E3.32767
G1 X6.519 Y-82.504 E3.48414
G1 X3.073 Y-82.504 E3.65606
G1 X3.035 Y-81.969 E3.68282
G1 X2.887 Y-81.128 E3.72543
G1 X2.395 Y-79.582 E3.80637
G1 X1.452 Y-77.103 E3.93869
G1 X0.586 Y-74.854 E4.05892
G1 X0.508 Y-74.65 E4.06982
G1 X0.476 Y-74.551 E4.07501
G1 X0.377 Y-74.252 E4.09073
G1 X0.281 Y-74.583 E4.09605
G1 X0.27 Y-74.618
G1 X0.199 Y-74.825 E4.10491
G1 X-.603 Y-77.165 E4.22832
G1 X-1.421 Y-79.578 E4.35544
G1 X-1.844 Y-81.082 E4.43338
G1 X-2.064 Y-82.504 E4.50517
G1 X-5.526 Y-82.504 E4.67789
G1 X-5.552 Y-81.824 E4.71184
G1 X-5.755 Y-78.675 E4.86927
G1 X-5.767 Y-78.542 E4.87593
G1 X-6.14 Y-75.231 E5.04216
G1 X-6.314 Y-73.817 E5.11324
G1 X-6.823 Y-69.623 E5.32402
G1 X-6.85 Y-69.4 E5.33103
G0 F3600 X5.019 Y-65.144
G1 F1800 X4.537 Y-64.707 E5.36349
G1 X4.186 Y-64.188 E5.39475
G1 X3.968 Y-63.601 E5.42599
G1 X3.898 Y-62.978 E5.45727
G1 X3.979 Y-62.355 E5.48861
G1 X4.206 Y-61.772 E5.51982
G1 X4.567 Y-61.258 E5.55116
G1 X5.04 Y-60.846 E5.58245
G1 X5.598 Y-60.559 E5.61376
G1 X6.208 Y-60.415 E5.64503
G1 X6.834 Y-60.419 E5.67626
G1 X7.443 Y-60.573 E5.7076
G1 X7.996 Y-60.87 E5.73892
G1 X8.461 Y-61.289 E5.77014
G1 X8.811 Y-61.802 E5.80113
G1 X9.03 Y-62.382 E5.83206
G1 X9.104 Y-63 E5.86311
G1 X9.029 Y-63.623 E5.89442
G1 X8.806 Y-64.21 E5.92574
G1 X8.45 Y-64.728 E5.9571
G1 X7.977 Y-65.145 E5.98856
G1 X7.421 Y-65.435 E6.01985
G1 X6.813 Y-65.585 E6.05109
G1 X6.186 Y-65.585 E6.08237
G1 X5.597 Y-65.441 E6.11262
G1 X5.019 Y-65.144 E6.14504
G0 F3600 X4.331 Y-64.115
G0 X4.073 Y-63.094
G0 X16.9 Y84.4
G1 F1800 X-16.9 Y84.4 E7.83133
G1 X-16.9 Y-84.4 E16.2528
G1 X16.9 Y-84.4 E17.93909
G1 X16.9 Y84.4 E26.36055
G0 F3600 X17.3 Y84.8
;TYPE:WALL-OUTER
G1 F1800 X-17.3 Y84.8 E28.08675
G1 X-17.3 Y-84.8 E36.54813
G1 X17.3 Y-84.8 E38.27433
G1 X17.3 Y84.8 E46.73571
G0 F3600 X17.1 Y84.8
G0 X17.03 Y84.53
G0 X4.06 Y-62.983
G0 X4.331 Y-64.115
G0 X5.113 Y-65.08
G0 X5.249 Y-64.812
G1 F1800 X4.841 Y-64.443 E46.76316
G1 X4.544 Y-64.004 E46.7896
G1 X4.36 Y-63.508 E46.81599
G1 X4.301 Y-62.981 E46.84245
G1 X4.369 Y-62.455 E46.86891
G1 X4.561 Y-61.962 E46.8953
G1 X4.866 Y-61.528 E46.92177
G1 X5.266 Y-61.179 E46.94825
G1 X5.737 Y-60.937 E46.97467
G1 X6.253 Y-60.815 E47.00112
G1 X6.783 Y-60.819 E47.02757
G1 X7.297 Y-60.949 E47.05402
G1 X7.764 Y-61.2 E47.08047
G1 X8.158 Y-61.554 E47.10689
G1 X8.454 Y-61.988 E47.1331
G1 X8.639 Y-62.478 E47.15923
G1 X8.701 Y-63 E47.18546
G1 X8.638 Y-63.527 E47.21194
G1 X8.449 Y-64.023 E47.23842
G1 X8.148 Y-64.461 E47.26493
G1 X7.749 Y-64.813 E47.29148
G1 X7.279 Y-65.058 E47.31792
G1 X6.764 Y-65.185 E47.34439
G1 X6.234 Y-65.185 E47.37083
G1 X5.738 Y-65.064 E47.3963
G1 X5.249 Y-64.812 E47.42374
G0 F3600 X5.101 Y-64.678
G0 X4.9 Y-64.901
G0 X-6.398 Y-69.5
G0 X-6.398 Y-69.8
G1 F1800 X-6.174 Y-69.8 E47.43492
G1 X-6.173 Y-69.8 E47.43497
G1 X-4.431 Y-69.8 E47.52188
G1 X-4.347 Y-72.091 E47.63625
G1 X-4.334 Y-72.297 E47.64655
G1 X-4.107 Y-75.317 E47.79764
G1 X-4.047 Y-76.093 E47.83648
G1 X-3.878 Y-78.52 E47.95785
G1 X-3.866 Y-78.693 E47.9665
G1 X-3.852 Y-78.882 E47.97596
G1 X-3.801 Y-79.601 E48.01192
G1 X-3.597 Y-78.865 E48.02514
G1 X-3.537 Y-78.671 E48.03267
G1 X-3.481 Y-78.507 E48.04057
G1 X-2.155 Y-74.675 E48.24287
G1 X-1.203 Y-71.987 E48.38514
G1 X-.799 Y-70.679 E48.45344
G1 X-.632 Y-69.8 E48.49807
G1 X0.914 Y-69.8 E48.5752
G1 X1.091 Y-70.636 E48.61784
G1 X1.533 Y-71.949 E48.68695
G1 X2.319 Y-74.003 E48.79668
G1 X3.532 Y-77.229 E48.96862
G1 X3.607 Y-77.437 E48.97965
G1 X4.026 Y-78.71 E49.04652
G1 X4.35 Y-79.695 E49.09825
G1 X4.414 Y-78.661 E49.12453
G1 X4.415 Y-78.66 E49.1246
G1 X4.521 Y-76.987 E49.20823
G1 X4.612 Y-75.633 E49.27594
G1 X4.872 Y-70.182 E49.5482
G1 X4.884 Y-69.8 E49.56726
G1 X6.77 Y-69.8 E49.66136
G1 X6.771 Y-69.8 E49.66141
G1 X6.985 Y-69.8 E49.67208
G1 X6.97 Y-70.014 E49.67887
G1 X6.945 Y-70.352 E49.69578
G1 X6.78 Y-72.378 E49.79719
G1 X6.541 Y-75.25 E49.94097
G1 X6.257 Y-79.098 E50.13347
G1 X6.24 Y-79.355 E50.14632
G1 X6.134 Y-82.104 E50.28357
G1 X3.446 Y-82.104 E50.41768
G1 X3.433 Y-81.92 E50.42688
G1 X3.277 Y-81.034 E50.47176
G1 X2.769 Y-79.44 E50.55523
G1 X1.825 Y-76.959 E50.68766
G1 X0.885 Y-74.516 E50.81826
G1 X0.558 Y-73.519 E50.8706
G1 X0.368 Y-72.941 E50.90096
G1 X0.357 Y-72.881 E50.904
G1 X0.345 Y-72.936 E50.90401
G1 X0.175 Y-73.52 E50.92065
G1 X-.111 Y-74.497 E50.97144
G1 X-.981 Y-77.035 E51.10529
G1 X-1.8 Y-79.45 E51.23252
G1 X-2.235 Y-80.996 E51.31264
G1 X-2.407 Y-82.104 E51.36858
G1 X-5.141 Y-82.104 E51.50498
G1 X-5.152 Y-81.809 E51.51971
G1 X-5.357 Y-78.638 E51.67824
G1 X-5.37 Y-78.497 E51.68531
G1 X-5.743 Y-75.182 E51.85174
G1 X-5.917 Y-73.768 E51.92281
G1 X-6.371 Y-70.023 E52.11102
G1 X-6.398 Y-69.8 E52.11804
G0 F3600 X-6.198 Y-69.8
G0 X-6.198 Y-69.5
G0 X-8.343 Y-64.686
G0 X-8.147 Y-64.46
G1 F1800 X-8.449 Y-64.023 E52.14454
G1 X-8.638 Y-63.527 E52.17102
G1 X-8.701 Y-63 E52.1975
G1 X-8.638 Y-62.473 E52.22398
G1 X-8.449 Y-61.977 E52.25046
G1 X-8.148 Y-61.54 E52.27693
G1 X-7.75 Y-61.188 E52.30344
G1 X-7.28 Y-60.942 E52.32991
G1 X-6.765 Y-60.815 E52.35637
G1 X-6.235 Y-60.815 E52.38281
G1 X-5.72 Y-60.942 E52.40927
G1 X-5.25 Y-61.188 E52.43574
G1 X-4.852 Y-61.54 E52.46225
G1 X-4.551 Y-61.977 E52.48872
G1 X-4.362 Y-62.473 E52.5152
G1 X-4.299 Y-63 E52.54168
G1 X-4.362 Y-63.527 E52.56816
G1 X-4.551 Y-64.023 E52.59464
G1 X-4.852 Y-64.46 E52.62112
G1 X-5.25 Y-64.812 E52.64762
G1 X-5.72 Y-65.058 E52.67409
G1 X-6.235 Y-65.185 E52.70055
G1 X-6.765 Y-65.185 E52.727
G1 X-7.28 Y-65.058 E52.75346
G1 X-7.733 Y-64.821 E52.77897
G1 X-8.147 Y-64.46 E52.80637
G0 F3600 X-8.26 Y-64.296
G0 X-8.741 Y-64.991
;TYPE:SKIN
G1 F1800 X-9.153 Y-64.394 E52.84256
G1 X-9.411 Y-63.717 E52.8787
G1 X-9.496 Y-63 E52.91472
G1 X-9.411 Y-62.283 E52.95075
G1 X-9.153 Y-61.607 E52.98685
G1 X-8.744 Y-61.012 E53.02287
G1 X-8.201 Y-60.532 E53.05902
G1 X-7.562 Y-60.198 E53.095
G1 X-6.861 Y-60.025 E53.13102
G1 X-6.139 Y-60.025 E53.16704
G1 X-5.438 Y-60.198 E53.20306
G1 X-4.799 Y-60.532 E53.23903
G1 X-4.256 Y-61.012 E53.27519
G1 X-3.847 Y-61.607 E53.31121
G1 X-3.589 Y-62.283 E53.34731
G1 X-3.504 Y-63 E53.38333
G1 X-3.589 Y-63.717 E53.41935
G1 X-3.847 Y-64.393 E53.45545
G1 X-4.256 Y-64.988 E53.49147
G1 X-4.799 Y-65.468 E53.52763
G1 X-5.438 Y-65.802 E53.5636
G1 X-6.139 Y-65.975 E53.59963
G1 X-6.861 Y-65.975 E53.63565
G1 X-7.562 Y-65.802 E53.67167
G1 X-8.182 Y-65.478 E53.70657
G1 X-8.741 Y-64.991 E53.74356
G0 F3600 X-7.291 Y-69.01
G1 F1800 X-3.669 Y-69.01 E53.92426
G1 X-3.557 Y-72.051 E54.07608
G1 X-3.539 Y-72.349 E54.09097
G1 X-3.297 Y-75.558 E54.25153
G1 X-2.901 Y-74.414 E54.31192
G1 X-1.95 Y-71.73 E54.45399
G1 X-1.567 Y-70.494 E54.51854
G1 X-1.286 Y-69.01 E54.5939
G1 X1.554 Y-69.01 E54.73558
G1 X1.854 Y-70.423 E54.80765
G1 X2.277 Y-71.681 E54.87386
G1 X3.058 Y-73.723 E54.98294
G1 X3.813 Y-75.73 E55.08992
G1 X3.822 Y-75.595 E55.09667
G1 X4.082 Y-70.157 E55.36828
G1 X4.118 Y-69.01 E55.42553
G1 X7.834 Y-69.01 E55.61092
G1 X7.732 Y-70.413 E55.68111
G1 X7.567 Y-72.441 E55.78262
G1 X7.328 Y-75.313 E55.9264
G1 X7.059 Y-78.95 E56.10834
G1 X7.03 Y-79.395 E56.13059
G1 X6.894 Y-82.894 E56.30529
G1 X2.71 Y-82.894 E56.51403
G1 X2.647 Y-82.017 E56.5579
G1 X2.508 Y-81.226 E56.59796
G1 X2.026 Y-79.711 E56.67728
G1 X1.087 Y-77.242 E56.80907
G1 X0.397 Y-75.451 E56.90482
G1 X-.234 Y-77.292 E57.00192
G1 X-1.048 Y-79.694 E57.12845
G1 X-1.461 Y-81.163 E57.20458
G1 X-1.73 Y-82.894 E57.29197
G1 X-5.901 Y-82.894 E57.50006
G1 X-5.942 Y-81.849 E57.55224
G1 X-6.148 Y-78.657 E57.71182
G1 X-6.155 Y-78.585 E57.71543
G1 X-6.528 Y-75.278 E57.88146
G1 X-6.702 Y-73.864 E57.95254
G1 X-7.291 Y-69.01 E58.19648
G0 F3600 X3.506 Y-62.974
G1 F1800 X3.599 Y-62.258 E58.2325
G1 X3.859 Y-61.587 E58.26841
G1 X4.275 Y-60.995 E58.3045
G1 X4.82 Y-60.521 E58.34054
G1 X5.462 Y-60.19 E58.37658
G1 X6.163 Y-60.025 E58.4125
G1 X6.884 Y-60.029 E58.44848
G1 X7.585 Y-60.207 E58.48456
G1 X8.222 Y-60.548 E58.52061
G1 X8.757 Y-61.03 E58.55653
G1 X9.16 Y-61.621 E58.59222
G1 X9.412 Y-62.289 E58.62784
G1 X9.496 Y-63 E58.66356
G1 X9.411 Y-63.717 E58.69958
G1 X9.153 Y-64.392 E58.73563
G1 X8.744 Y-64.989 E58.77173
G1 X8.199 Y-65.469 E58.80797
G1 X7.56 Y-65.802 E58.84392
G1 X6.86 Y-65.975 E58.87989
G1 X6.139 Y-65.975 E58.91586
G1 X5.46 Y-65.809 E58.95073
G1 X4.795 Y-65.468 E58.98802
G1 X4.24 Y-64.964 E59.02542
G1 X3.837 Y-64.368 E59.06131
G1 X3.586 Y-63.692 E59.09729
G1 X3.506 Y-62.974 E59.13333
G0 F3600 X-6.654 Y-69.574
G0 X-16.51 Y-84.01
G1 F1800 X16.51 Y-84.01 E60.78071
G1 X16.51 Y84.01 E69.16326
G1 X-16.51 Y84.01 E70.81063
G1 X-16.51 Y-84.01 E79.19319
G0 F3600 X15.731 Y-83.828
G1 F1800 X16.329 Y-83.23 E79.23538
G0 F3600 X16.329 Y-82.665
G1 F1800 X15.166 Y-83.828 E79.31743
G0 F3600 X14.6 Y-83.828
G1 F1800 X16.329 Y-82.099 E79.43942
G0 F3600 X16.329 Y-81.533
G1 F1800 X14.034 Y-83.828 E79.60135
G0 F3600 X13.468 Y-83.828
G1 F1800 X16.329 Y-80.967 E79.80321
G0 F3600 X16.329 Y-80.402
G1 F1800 X12.903 Y-83.828 E80.04493
G0 F3600 X12.337 Y-83.828
G1 F1800 X16.329 Y-79.836 E80.32659
G0 F3600 X16.329 Y-79.27
G1 F1800 X11.771 Y-83.828 E80.64818
G0 F3600 X11.206 Y-83.828
G1 F1800 X16.329 Y-78.705 E81.00963
G0 F3600 X16.329 Y-78.139
G1 F1800 X10.64 Y-83.828 E81.41102
G0 F3600 X10.074 Y-83.828
G1 F1800 X16.329 Y-77.573 E81.85235
G0 F3600 X16.329 Y-77.008
G1 F1800 X9.509 Y-83.828 E82.33354
G0 F3600 X8.943 Y-83.828
G1 F1800 X16.329 Y-76.442 E82.85466
G0 F3600 X16.329 Y-75.876
G1 F1800 X8.377 Y-83.828 E83.41571
G0 F3600 X7.812 Y-83.828
G1 F1800 X16.329 Y-75.311 E84.01664
G0 F3600 X16.329 Y-74.745
G1 F1800 X7.246 Y-83.828 E84.65749
G0 F3600 X6.68 Y-83.828
G1 F1800 X16.329 Y-74.179 E85.33828
G0 F3600 X16.329 Y-73.614
G1 F1800 X7.074 Y-82.869 E85.99127
G0 F3600 X6.87 Y-83.073
G1 F1800 X6.115 Y-83.828 E86.04454
G0 F3600 X5.549 Y-83.828
G1 F1800 X6.304 Y-83.073 E86.09781
G0 F3600 X5.738 Y-83.073
G1 F1800 X4.983 Y-83.828 E86.15108
G0 F3600 X4.418 Y-83.828
G1 F1800 X5.173 Y-83.073 E86.20435
G0 F3600 X4.607 Y-83.073
G1 F1800 X3.852 Y-83.828 E86.25762
G0 F3600 X3.286 Y-83.828
G1 F1800 X4.041 Y-83.073 E86.31089
G0 F3600 X3.476 Y-83.073
G1 F1800 X2.72 Y-83.828 E86.36419
G0 F3600 X2.155 Y-83.828
G1 F1800 X2.91 Y-83.073 E86.41746
G0 F3600 X2.53 Y-82.888
G1 F1800 X1.589 Y-83.828 E86.48382
G0 F3600 X1.023 Y-83.828
G1 F1800 X2.492 Y-82.36 E86.58743
G0 F3600 X2.435 Y-81.851
G1 F1800 X0.458 Y-83.828 E86.72692
G0 F3600 X-.107 Y-83.828
G1 F1800 X2.35 Y-81.371 E86.90027
G0 F3600 X2.225 Y-80.93
G1 F1800 X-.673 Y-83.828 E87.10474
G0 F3600 X-1.238 Y-83.828
G1 F1800 X2.088 Y-80.501 E87.33944
G0 F3600 X1.952 Y-80.072
G1 F1800 X-1.804 Y-83.828 E87.60445
G0 F3600 X-2.37 Y-83.828
G1 F1800 X-1.615 Y-83.073 E87.65772
G0 F3600 X-1.569 Y-83.028
G1 F1800 X1.81 Y-79.648 E87.89616
G0 F3600 X1.654 Y-79.238
G1 F1800 X-1.465 Y-82.358 E88.11626
G0 F3600 X-1.361 Y-81.688
G1 F1800 X1.499 Y-78.828 E88.31805
G0 F3600 X1.342 Y-78.418
G1 F1800 X-1.225 Y-80.987 E88.49923
G1 X-1.295 Y-81.057
G0 F3600 X-1.003 Y-80.199
G1 F1800 X1.187 Y-78.008 E88.65378
G0 F3600 X1.031 Y-77.598
G1 F1800 X-.752 Y-79.382 E88.77962
G1 X-.822 Y-79.452
G0 F3600 X-.462 Y-78.527
G1 F1800 X0.875 Y-77.189 E88.87399
G0 F3600 X0.717 Y-76.781
G1 F1800 X-.172 Y-77.671 E88.93675
G1 X-.242 Y-77.741
G0 F3600 X0.12 Y-76.812
G1 F1800 X0.56 Y-76.373 E88.96775
G0 F3600 X3.233 Y-82.333
G0 X6.353 Y-82.332
G0 X7.229 Y-69.573
G0 X4.663 Y-69.572
G0 X3.547 Y-74.517
G1 F1800 X3.7 Y-74.363 E88.97858
G0 F3600 X3.393 Y-74.105
G1 F1800 X3.729 Y-73.769 E89.00229
G0 F3600 X3.239 Y-73.693
G1 F1800 X3.757 Y-73.175 E89.03884
G0 F3600 X3.786 Y-72.58
G1 F1800 X3.082 Y-73.284 E89.08851
G0 F3600 X2.926 Y-72.875
G1 F1800 X3.814 Y-71.987 E89.15116
G0 F3600 X3.843 Y-71.393
G1 F1800 X2.77 Y-72.465 E89.22683
G0 F3600 X2.613 Y-72.057
G1 F1800 X3.872 Y-70.798 E89.31566
G0 F3600 X3.9 Y-70.204
G1 F1800 X2.457 Y-71.647 E89.41747
G0 F3600 X2.314 Y-71.224
G1 F1800 X3.918 Y-69.62 E89.53065
G0 F3600 X3.937 Y-69.036
G1 F1800 X2.172 Y-70.801 E89.65518
G0 F3600 X2.03 Y-70.377
G1 F1800 X6.253 Y-66.154 E89.95313
G0 F3600 X5.771 Y-66.07
G1 F1800 X1.93 Y-69.911 E90.22413
G0 F3600 X1.83 Y-69.445
G1 F1800 X5.33 Y-65.945 E90.47108
G0 F3600 X4.956 Y-65.753
G1 F1800 X1.73 Y-68.979 E90.69869
G0 F3600 X1.315 Y-68.829
G1 F1800 X4.605 Y-65.539 E90.93082
G0 F3600 X4.309 Y-65.27
G1 F1800 X0.75 Y-68.829 E91.18192
G0 F3600 X0.184 Y-68.829
G1 F1800 X4.034 Y-64.979 E91.45356
G0 F3600 X3.806 Y-64.641
G1 F1800 X-.381 Y-68.829 E91.74901
G0 F3600 X-.946 Y-68.829
G1 F1800 X3.61 Y-64.271 E92.07053
G0 F3600 X3.457 Y-63.859
G1 F1800 X-3.424 Y-70.741 E92.55606
G0 F3600 X-3.404 Y-71.286
G1 F1800 X-1.548 Y-69.43 E92.68701
G0 F3600 X-1.681 Y-70.129
G1 F1800 X-3.384 Y-71.832 E92.80717
G0 F3600 X-3.358 Y-72.372
G1 F1800 X-1.878 Y-70.892 E92.91159
G1 X-1.808 Y-70.822
G0 F3600 X-2.136 Y-71.715
G1 F1800 X-3.319 Y-72.898 E92.99506
G0 F3600 X-3.279 Y-73.424
G1 F1800 X-2.445 Y-72.59 E93.0539
G1 X-2.375 Y-72.52
G0 F3600 X-2.756 Y-73.466
G1 F1800 X-3.239 Y-73.95 E93.08801
G0 F3600 X-3.066 Y-74.343
G1 F1800 X-3.2 Y-74.476 E93.09743
G0 F3600 X-4.211 Y-69.572
G0 X-6.654 Y-69.574
G0 X-6.783 Y-74.666
G1 F1800 X-15.946 Y-83.828 E93.7439
G0 F3600 X-16.329 Y-83.646
G1 F1800 X-6.846 Y-74.162 E94.41301
G0 F3600 X-6.907 Y-73.658
G1 F1800 X-16.329 Y-83.08 E95.07778
G0 F3600 X-16.329 Y-82.515
G1 F1800 X-6.969 Y-73.154 E95.73822
G0 F3600 X-7.03 Y-72.649
G1 F1800 X-16.329 Y-81.949 E96.39435
G0 F3600 X-16.329 Y-81.383
G1 F1800 X-7.091 Y-72.145 E97.04614
G0 F3600 X-7.152 Y-71.64
G1 F1800 X-16.329 Y-80.818 E97.69366
G0 F3600 X-16.329 Y-80.252
G1 F1800 X-7.213 Y-71.136 E98.33684
G0 F3600 X-7.274 Y-70.631
G1 F1800 X-16.329 Y-79.686 E98.97572
G0 F3600 X-16.329 Y-79.121
G1 F1800 X-7.336 Y-70.127 E99.61026
G0 F3600 X-7.397 Y-69.622
G1 F1800 X-16.329 Y-78.555 E100.2405
G0 F3600 X-16.329 Y-77.989
G1 F1800 X-7.458 Y-69.118 E100.86639
G0 F3600 X-7.169 Y-68.829
G1 F1800 X16.329 Y-45.329 E102.52438
