;FLAVOR:Marlin
;TIME:11486
;Filament used: 17.6972m
;Layer height: 0.3
;MINX:-62.381
;MINY:-17.3
;MINZ:0.3
;MAXX:107.218
;MAXY:17.3
;MAXZ:12.9
;Generated with Cura_SteamEngine 4.7.1
M140 S50
M105
M190 S50
M104 S255
M105
M109 S255
M82 ;absolute extrusion mode
G28 ;Home
G1 Z15.0 F6000 ;Move the platform down 15mm
;Prime the extruder
G92 E0
G1 F200 E3
G92 E0
G92 E0
G92 E0
G1 F1500 E-6.5
;LAYER_COUNT:43
;LAYER:0
M107
;MESH:rail2020_10_01.stl
G0 F3600 X-42.725 Y-5.019 Z0.3
;TYPE:WALL-INNER
G1 F1500 E0
G1 F1800 X-42.289 Y-4.537 E0.03243
G1 X-41.77 Y-4.186 E0.06368
G1 X-41.182 Y-3.968 E0.09497
G1 X-40.559 Y-3.898 E0.12625
G1 X-39.937 Y-3.979 E0.15754
G1 X-39.353 Y-4.206 E0.1888
G1 X-38.839 Y-4.567 E0.22014
G1 X-38.428 Y-5.04 E0.2514
G1 X-38.14 Y-5.597 E0.28268
G1 X-37.996 Y-6.208 E0.314
G1 X-38 Y-6.834 E0.34523
G1 X-38.154 Y-7.443 E0.37657
G1 X-38.452 Y-7.996 E0.40791
G1 X-38.869 Y-8.461 E0.43907
G1 X-39.383 Y-8.811 E0.4701
G1 X-39.964 Y-9.03 E0.50108
G1 X-40.581 Y-9.104 E0.53208
G1 X-41.204 Y-9.029 E0.56338
G1 X-41.792 Y-8.806 E0.59476
G1 X-42.311 Y-8.45 E0.62616
G1 X-42.726 Y-7.977 E0.65755
G1 X-43.017 Y-7.422 E0.68881
G1 X-43.167 Y-6.813 E0.72011
G1 X-43.167 Y-6.186 E0.75139
G1 X-43.023 Y-5.597 E0.78164
G1 X-42.725 Y-5.019 E0.81408
G0 F3600 X-46.981 Y6.85
G1 F1800 X-46.981 Y6.626 E0.82526
G1 X-46.981 Y6.625 E0.82531
G1 X-46.981 Y4.045 E0.95402
G1 X-49.657 Y3.947 E1.08762
G1 X-49.848 Y3.935 E1.09717
G1 X-52.868 Y3.708 E1.24826
G1 X-53.645 Y3.648 E1.28714
G1 X-54.086 Y3.617 E1.3092
G1 X-55.062 Y3.549 E1.35801
G1 X-54.137 Y3.229 E1.38291
G1 X-52.124 Y2.533 E1.48917
G1 X-49.435 Y1.58 E1.6315
G1 X-48.166 Y1.188 E1.69777
G1 X-46.981 Y0.963 E1.75794
G1 X-46.981 Y-1.238 E1.86775
G1 X-48.114 Y-1.479 E1.92554
G1 X-49.394 Y-1.91 E1.99292
G1 X-51.442 Y-2.693 E2.10231
G1 X-54.298 Y-3.766 E2.25452
G1 X-54.628 Y-3.89 E2.27211
G1 X-54.672 Y-3.907 E2.27446
G1 X-54.888 Y-3.985 E2.28592
G1 X-55.182 Y-4.082 E2.30137
G1 X-54.896 Y-4.099 E2.30312
G1 X-54.685 Y-4.113 E2.30721
G1 X-54.542 Y-4.122 E2.31233
G1 X-54.19 Y-4.145 E2.32663
G1 X-53.192 Y-4.213 E2.37654
G1 X-47.74 Y-4.472 E2.64885
G1 X-46.981 Y-4.496 E2.68673
G1 X-46.981 Y-7.201 E2.82169
G1 X-46.981 Y-7.202 E2.82174
G1 X-46.981 Y-7.415 E2.83236
G1 X-47.194 Y-7.4 E2.83912
G1 X-47.964 Y-7.344 E2.87763
G1 X-49.991 Y-7.179 E2.97909
G1 X-52.863 Y-6.94 E3.12287
G1 X-56.709 Y-6.656 E3.31527
G1 X-56.952 Y-6.64 E3.32742
G1 X-60.086 Y-6.519 E3.4839
G1 X-60.086 Y-3.073 E3.65582
G1 X-59.551 Y-3.035 E3.68258
G1 X-58.709 Y-2.887 E3.72523
G1 X-57.158 Y-2.393 E3.80644
G1 X-54.682 Y-1.451 E3.9386
G1 X-52.436 Y-.587 E4.05866
G1 X-52.231 Y-.508 E4.06962
G1 X-52.132 Y-.476 E4.07481
G1 X-51.833 Y-.377 E4.09053
G1 X-52.164 Y-.281 E4.09585
G1 X-52.199 Y-.27
G1 X-52.407 Y-.199 E4.10475
G1 X-54.746 Y0.602 E4.2281
G1 X-57.15 Y1.418 E4.35475
G1 X-58.664 Y1.844 E4.43322
G1 X-60.086 Y2.064 E4.50501
G1 X-60.086 Y5.526 E4.67773
G1 X-59.406 Y5.552 E4.71168
G1 X-56.246 Y5.756 E4.86966
G1 X-56.116 Y5.768 E4.87617
G1 X-52.812 Y6.14 E5.04205
G1 X-51.399 Y6.314 E5.11308
G1 X-47.204 Y6.823 E5.3239
G1 X-46.981 Y6.85 E5.33092
G0 F3600 X-42.311 Y8.447
G1 F1800 X-41.793 Y8.806 E5.36236
G1 X-41.204 Y9.029 E5.39378
G1 X-40.581 Y9.104 E5.42509
G1 X-39.959 Y9.029 E5.45635
G1 X-39.371 Y8.806 E5.48772
G1 X-38.854 Y8.449 E5.51907
G1 X-38.438 Y7.979 E5.55038
G1 X-38.146 Y7.424 E5.58167
G1 X-37.996 Y6.814 E5.61301
G1 X-37.996 Y6.186 E5.64434
G1 X-38.146 Y5.576 E5.67568
G1 X-38.438 Y5.021 E5.70697
G1 X-38.854 Y4.551 E5.73828
G1 X-39.371 Y4.194 E5.76963
G1 X-39.959 Y3.971 E5.801
G1 X-40.581 Y3.896 E5.83226
G1 X-41.204 Y3.971 E5.86356
G1 X-41.792 Y4.194 E5.89494
G1 X-42.309 Y4.551 E5.92628
G1 X-42.725 Y5.021 E5.9576
G1 X-43.017 Y5.576 E5.98888
G1 X-43.167 Y6.186 E6.02022
G1 X-43.167 Y6.814 E6.05155
G1 X-43.017 Y7.424 E6.08289
G1 X-42.734 Y7.96 E6.11313
G1 X-42.311 Y8.447 E6.14531
G0 F3600 X-41.164 Y8.872
G0 X106.818 Y16.9
G1 F1800 X-61.981 Y16.9 E14.56673
G1 X-61.981 Y-16.9 E16.25302
G1 X106.818 Y-16.9 E24.67444
G1 X106.818 Y16.9 E26.36073
G0 F3600 X107.218 Y17.3
;TYPE:WALL-OUTER
G1 F1800 X-62.381 Y17.3 E34.82205
G1 X-62.381 Y-17.3 E36.54825
G1 X107.218 Y-17.3 E45.00958
G1 X107.218 Y17.3 E46.73578
G0 F3600 X107.018 Y17.3
G0 X106.948 Y17.03
G0 X-41.164 Y8.872
G0 X-42.213 Y8.393
G0 X-42.042 Y8.147
G1 F1800 X-41.605 Y8.449 E46.76229
G1 X-41.108 Y8.638 E46.78881
G1 X-40.581 Y8.701 E46.81529
G1 X-40.055 Y8.638 E46.84172
G1 X-39.558 Y8.449 E46.86825
G1 X-39.121 Y8.148 E46.89472
G1 X-38.77 Y7.75 E46.9212
G1 X-38.523 Y7.281 E46.94764
G1 X-38.396 Y6.765 E46.97416
G1 X-38.396 Y6.235 E47.0006
G1 X-38.523 Y5.719 E47.02711
G1 X-38.77 Y5.25 E47.05355
G1 X-39.121 Y4.852 E47.08003
G1 X-39.558 Y4.551 E47.1065
G1 X-40.055 Y4.362 E47.13303
G1 X-40.581 Y4.299 E47.15946
G1 X-41.108 Y4.362 E47.18594
G1 X-41.605 Y4.551 E47.21247
G1 X-42.042 Y4.852 E47.23894
G1 X-42.393 Y5.25 E47.26542
G1 X-42.64 Y5.719 E47.29186
G1 X-42.767 Y6.235 E47.31837
G1 X-42.767 Y6.765 E47.34481
G1 X-42.64 Y7.281 E47.37133
G1 X-42.402 Y7.733 E47.39681
G1 X-42.042 Y8.147 E47.42418
G0 F3600 X-41.878 Y8.26
G0 X-42.05 Y8.506
G0 X-47.081 Y6.398
G0 X-47.381 Y6.398
G1 F1800 X-47.381 Y6.174 E47.43536
G1 X-47.381 Y6.173 E47.43541
G1 X-47.381 Y4.431 E47.52232
G1 X-49.672 Y4.347 E47.63669
G1 X-49.878 Y4.334 E47.64699
G1 X-52.898 Y4.107 E47.79808
G1 X-53.674 Y4.047 E47.83691
G1 X-56.101 Y3.878 E47.95829
G1 X-56.274 Y3.866 E47.96694
G1 X-56.463 Y3.852 E47.9764
G1 X-57.182 Y3.801 E48.01236
G1 X-56.446 Y3.597 E48.02558
G1 X-56.252 Y3.537 E48.03311
G1 X-56.088 Y3.481 E48.04101
G1 X-52.256 Y2.155 E48.24331
G1 X-49.569 Y1.203 E48.38553
G1 X-48.26 Y0.799 E48.45387
G1 X-47.381 Y0.632 E48.49851
G1 X-47.381 Y-.914 E48.57564
G1 X-48.222 Y-1.093 E48.61854
G1 X-49.538 Y-1.536 E48.68782
G1 X-51.584 Y-2.319 E48.79711
G1 X-54.81 Y-3.532 E48.96906
G1 X-55.018 Y-3.607 E48.98009
G1 X-56.291 Y-4.026 E49.04695
G1 X-57.276 Y-4.35 E49.09868
G1 X-56.242 Y-4.414 E49.12496
G1 X-56.241 Y-4.415 E49.12503
G1 X-54.568 Y-4.521 E49.20867
G1 X-53.466 Y-4.596 E49.26377
G1 X-53.211 Y-4.612 E49.27652
G1 X-47.759 Y-4.872 E49.54883
G1 X-47.381 Y-4.884 E49.5677
G1 X-47.381 Y-6.77 E49.66179
G1 X-47.381 Y-6.771 E49.66184
G1 X-47.381 Y-6.985 E49.67252
G1 X-47.595 Y-6.97 E49.67931
G1 X-47.933 Y-6.945 E49.69622
G1 X-49.959 Y-6.78 E49.79763
G1 X-52.831 Y-6.541 E49.94141
G1 X-56.68 Y-6.257 E50.13396
G1 X-56.937 Y-6.24 E50.14681
G1 X-59.686 Y-6.134 E50.28406
G1 X-59.686 Y-3.446 E50.41816
G1 X-59.502 Y-3.433 E50.42736
G1 X-58.615 Y-3.277 E50.4723
G1 X-57.021 Y-2.769 E50.55576
G1 X-54.54 Y-1.825 E50.6882
G1 X-52.097 Y-.885 E50.81879
G1 X-51.1 Y-.558 E50.87114
G1 X-50.522 Y-.368 E50.90149
G1 X-50.462 Y-.357 E50.90454
G1 X-50.517 Y-.345 E50.90454
G1 X-51.101 Y-.175 E50.92118
G1 X-52.078 Y0.111 E50.97197
G1 X-54.617 Y0.981 E51.10587
G1 X-57.022 Y1.797 E51.23258
G1 X-58.577 Y2.235 E51.31318
G1 X-59.686 Y2.407 E51.36916
G1 X-59.686 Y5.141 E51.50556
G1 X-59.391 Y5.152 E51.52029
G1 X-56.22 Y5.357 E51.67882
G1 X-56.079 Y5.37 E51.68589
G1 X-52.763 Y5.743 E51.85237
G1 X-51.35 Y5.917 E51.9234
G1 X-47.604 Y6.371 E52.11165
G1 X-47.381 Y6.398 E52.11867
G0 F3600 X-47.381 Y6.198
G0 X-47.081 Y6.198
G0 X-42.616 Y-5.048
G0 X-42.393 Y-5.249
G1 F1800 X-42.025 Y-4.841 E52.14608
G1 X-41.586 Y-4.544 E52.17252
G1 X-41.089 Y-4.36 E52.19896
G1 X-40.562 Y-4.301 E52.22542
G1 X-40.037 Y-4.369 E52.25183
G1 X-39.543 Y-4.561 E52.27827
G1 X-39.109 Y-4.866 E52.30474
G1 X-38.761 Y-5.266 E52.33119
G1 X-38.518 Y-5.737 E52.35763
G1 X-38.396 Y-6.253 E52.38408
G1 X-38.4 Y-6.783 E52.41053
G1 X-38.53 Y-7.297 E52.43698
G1 X-38.782 Y-7.764 E52.46345
G1 X-39.135 Y-8.158 E52.48984
G1 X-39.569 Y-8.454 E52.51605
G1 X-40.06 Y-8.639 E52.54223
G1 X-40.581 Y-8.701 E52.56841
G1 X-41.108 Y-8.638 E52.59488
G1 X-41.605 Y-8.449 E52.62141
G1 X-42.043 Y-8.148 E52.64793
G1 X-42.394 Y-7.749 E52.67444
G1 X-42.64 Y-7.279 E52.70091
G1 X-42.767 Y-6.764 E52.72737
G1 X-42.767 Y-6.234 E52.75381
G1 X-42.646 Y-5.738 E52.77928
G1 X-42.393 Y-5.249 E52.80675
G0 F3600 X-42.259 Y-5.101
G0 X-43.048 Y-4.795
;TYPE:SKIN
G1 F1800 X-42.546 Y-4.24 E52.84409
G1 X-41.95 Y-3.837 E52.87998
G1 X-41.273 Y-3.586 E52.916
G1 X-40.555 Y-3.506 E52.95204
G1 X-39.84 Y-3.599 E52.98802
G1 X-39.168 Y-3.859 E53.02396
G1 X-38.576 Y-4.275 E53.06006
G1 X-38.103 Y-4.82 E53.09607
G1 X-37.771 Y-5.461 E53.13208
G1 X-37.606 Y-6.163 E53.16806
G1 X-37.61 Y-6.884 E53.20403
G1 X-37.788 Y-7.585 E53.24011
G1 X-38.13 Y-8.222 E53.27618
G1 X-38.61 Y-8.757 E53.31204
G1 X-39.202 Y-9.16 E53.34777
G1 X-39.871 Y-9.412 E53.38344
G1 X-40.581 Y-9.496 E53.41911
G1 X-41.298 Y-9.411 E53.45513
G1 X-41.974 Y-9.154 E53.49121
G1 X-42.572 Y-8.744 E53.52738
G1 X-43.05 Y-8.199 E53.56355
G1 X-43.384 Y-7.561 E53.59948
G1 X-43.557 Y-6.86 E53.6355
G1 X-43.557 Y-6.139 E53.67147
G1 X-43.391 Y-5.459 E53.70639
G1 X-43.048 Y-4.795 E53.74368
G0 F3600 X-46.591 Y-4.118
G1 F1800 X-46.591 Y-7.834 E53.92907
G1 X-47.994 Y-7.732 E53.99925
G1 X-50.022 Y-7.567 E54.10076
G1 X-52.894 Y-7.328 E54.24454
G1 X-56.541 Y-7.058 E54.42699
G1 X-56.977 Y-7.03 E54.44878
G1 X-60.476 Y-6.894 E54.62348
G1 X-60.476 Y-2.71 E54.83222
G1 X-59.599 Y-2.647 E54.87609
G1 X-58.807 Y-2.508 E54.91621
G1 X-57.287 Y-2.024 E54.99579
G1 X-54.821 Y-1.086 E55.12742
G1 X-53.032 Y-.397 E55.22306
G1 X-54.873 Y0.233 E55.32014
G1 X-57.266 Y1.045 E55.44621
G1 X-58.745 Y1.461 E55.52286
G1 X-60.476 Y1.73 E55.61026
G1 X-60.476 Y5.901 E55.81835
G1 X-59.431 Y5.942 E55.87053
G1 X-56.234 Y6.148 E56.03036
G1 X-52.859 Y6.528 E56.1998
G1 X-51.446 Y6.702 E56.27083
G1 X-46.591 Y7.291 E56.51482
G1 X-46.591 Y3.669 E56.69552
G1 X-49.632 Y3.557 E56.84734
G1 X-49.93 Y3.539 E56.86224
G1 X-53.139 Y3.297 E57.02279
G1 X-51.995 Y2.901 E57.08319
G1 X-49.312 Y1.951 E57.22519
G1 X-48.067 Y1.566 E57.2902
G1 X-46.591 Y1.286 E57.36515
G1 X-46.591 Y-1.554 E57.50684
G1 X-48.012 Y-1.857 E57.57933
G1 X-49.269 Y-2.28 E57.6455
G1 X-51.304 Y-3.058 E57.75419
G1 X-53.313 Y-3.813 E57.86126
G1 X-53.167 Y-3.823 E57.86856
G1 X-47.722 Y-4.082 E58.14052
G1 X-46.591 Y-4.118 E58.19698
G0 F3600 X-41.298 Y3.589
G1 F1800 X-41.975 Y3.847 E58.23312
G1 X-42.57 Y4.257 E58.26917
G1 X-43.049 Y4.798 E58.30522
G1 X-43.384 Y5.437 E58.34122
G1 X-43.557 Y6.139 E58.37729
G1 X-43.557 Y6.861 E58.41331
G1 X-43.384 Y7.564 E58.44943
G1 X-43.058 Y8.182 E58.48429
G1 X-42.574 Y8.74 E58.52114
G1 X-41.976 Y9.153 E58.5574
G1 X-41.298 Y9.411 E58.59359
G1 X-40.581 Y9.496 E58.62961
G1 X-39.865 Y9.411 E58.66558
G1 X-39.188 Y9.153 E58.70173
G1 X-38.593 Y8.743 E58.73778
G1 X-38.114 Y8.202 E58.77383
G1 X-37.779 Y7.563 E58.80982
G1 X-37.606 Y6.861 E58.84589
G1 X-37.606 Y6.139 E58.88191
G1 X-37.779 Y5.437 E58.91798
G1 X-38.114 Y4.798 E58.95398
G1 X-38.593 Y4.257 E58.99003
G1 X-39.188 Y3.847 E59.02608
G1 X-39.865 Y3.589 E59.06222
G1 X-40.581 Y3.504 E59.0982
G1 X-41.298 Y3.589 E59.13422
G0 F3600 X-47.154 Y-7.229
G0 X-61.591 Y-16.51
G1 F1800 X106.428 Y-16.51 E67.51672
G1 X106.428 Y16.51 E69.1641
G1 X-61.591 Y16.51 E77.5466
G1 X-61.591 Y-16.51 E79.19397
G0 F3600 X-61.41 Y16.088
G1 F1800 X-61.168 Y16.329 E79.21101
G0 F3600 X-60.603 Y16.329
G1 F1800 X-61.41 Y15.522 E79.26795
G0 F3600 X-61.41 Y14.956
G1 F1800 X-60.037 Y16.329 E79.36482
G0 F3600 X-59.471 Y16.329
G1 F1800 X-61.41 Y14.391 E79.50159
G0 F3600 X-61.41 Y13.825
G1 F1800 X-58.906 Y16.329 E79.67826
G0 F3600 X-58.34 Y16.329
G1 F1800 X-61.41 Y13.259 E79.89487
G0 F3600 X-61.41 Y12.693
G1 F1800 X-57.774 Y16.329 E80.15141
G0 F3600 X-57.209 Y16.329
G1 F1800 X-61.41 Y12.128 E80.44781
G0 F3600 X-61.41 Y11.562
G1 F1800 X-56.643 Y16.329 E80.78415
G0 F3600 X-56.077 Y16.329
G1 F1800 X-61.41 Y10.996 E81.16042
G0 F3600 X-61.41 Y10.431
G1 F1800 X-55.512 Y16.329 E81.57656
G0 F3600 X-54.946 Y16.329
G1 F1800 X-61.41 Y9.865 E82.03263
G0 F3600 X-61.41 Y9.299
G1 F1800 X-54.38 Y16.329 E82.52863
G0 F3600 X-53.815 Y16.329
G1 F1800 X-61.41 Y8.734 E83.0645
G0 F3600 X-61.41 Y8.168
G1 F1800 X-53.249 Y16.329 E83.6403
G0 F3600 X-52.683 Y16.329
G1 F1800 X-61.41 Y7.602 E84.25604
G0 F3600 X-61.41 Y7.037
G1 F1800 X-52.118 Y16.329 E84.91164
G0 F3600 X-51.552 Y16.329
G1 F1800 X-61.41 Y6.471 E85.60718
G0 F3600 X-61.41 Y5.905
G1 F1800 X-50.986 Y16.329 E86.34264
G0 F3600 X-50.42 Y16.329
G1 F1800 X-61.41 Y5.34 E87.11801
G0 F3600 X-61.41 Y4.774
G1 F1800 X-60.654 Y5.53 E87.17135
G0 F3600 X-60.654 Y4.964
G1 F1800 X-61.41 Y4.208 E87.22469
G0 F3600 X-61.41 Y3.643
G1 F1800 X-60.654 Y4.398 E87.278
G0 F3600 X-60.654 Y3.833
G1 F1800 X-61.41 Y3.077 E87.33134
G0 F3600 X-61.41 Y2.511
G1 F1800 X-60.654 Y3.267 E87.38468
G0 F3600 X-60.654 Y2.701
G1 F1800 X-61.41 Y1.945 E87.43802
G0 F3600 X-61.41 Y1.38
G1 F1800 X-60.654 Y2.136 E87.49136
G0 F3600 X-60.65 Y1.574
G1 F1800 X-61.41 Y0.814 E87.54498
G0 F3600 X-61.41 Y0.248
G1 F1800 X-60.16 Y1.499 E87.63321
G0 F3600 X-59.671 Y1.422
G1 F1800 X-61.41 Y-.316 E87.75587
G0 F3600 X-61.41 Y-.882
G1 F1800 X-59.181 Y1.347 E87.91314
G0 F3600 X-58.7 Y1.262
G1 F1800 X-61.41 Y-1.448 E88.10434
G0 F3600 X-61.41 Y-2.013
G1 F1800 X-58.259 Y1.137 E88.32663
G0 F3600 X-57.818 Y1.013
G1 F1800 X-61.41 Y-2.579 E88.58006
G0 F3600 X-61.41 Y-3.145
G1 F1800 X-57.376 Y0.888 E88.86465
G0 F3600 X-56.951 Y0.748
G1 F1800 X-60.21 Y-2.51 E89.09455
G0 F3600 X-59.598 Y-2.464
G1 F1800 X-56.529 Y0.604 E89.31105
G0 F3600 X-56.107 Y0.461
G1 F1800 X-58.911 Y-2.343 E89.50889
G1 X-58.981 Y-2.413
G0 F3600 X-58.095 Y-2.092
G1 F1800 X-55.684 Y0.318 E89.67896
G0 F3600 X-55.262 Y0.174
G1 F1800 X-57.257 Y-1.82 E89.81969
G1 X-57.327 Y-1.89
G0 F3600 X-56.344 Y-1.472
G1 F1800 X-54.84 Y0.031 E89.92577
G0 F3600 X-54.418 Y-.113
G1 F1800 X-55.431 Y-1.125 E89.9972
G1 X-55.501 Y-1.195
G0 F3600 X-54.515 Y-.775
G1 F1800 X-53.997 Y-.257 E90.03375
G0 F3600 X-59.915 Y-3.233
G0 X-59.914 Y-6.353
G0 X-47.154 Y-7.229
G0 X-47.153 Y-4.663
G0 X-52.257 Y-3.608
G1 F1800 X-52.33 Y-3.681 E90.0389
G0 F3600 X-51.79 Y-3.707
G1 F1800 X-51.352 Y-3.268 E90.06984
G0 F3600 X-51.25 Y-3.732
G1 F1800 X-50.437 Y-2.92 E90.12717
G1 X-50.367 Y-2.85
G0 F3600 X-50.71 Y-3.758
G1 F1800 X-49.522 Y-2.57 E90.21099
G1 X-49.452 Y-2.5
G0 F3600 X-48.648 Y-2.262
G1 F1800 X-50.17 Y-3.784 E90.31837
G0 F3600 X-49.63 Y-3.809
G1 F1800 X-47.823 Y-2.002 E90.44586
G0 F3600 X-47.102 Y-1.847
G1 F1800 X-49.09 Y-3.836 E90.58616
G0 F3600 X-48.55 Y-3.861
G1 F1800 X-41.283 Y3.405 E91.09885
G0 F3600 X-41.703 Y3.551
G1 F1800 X-46.41 Y-1.155 E91.43092
G0 F3600 X-46.41 Y-.589
G1 F1800 X-42.103 Y3.716 E91.73474
G0 F3600 X-42.439 Y3.947
G1 F1800 X-46.41 Y-0.024 E92.01491
G0 F3600 X-46.41 Y0.541
G1 F1800 X-42.755 Y4.195 E92.27276
G0 F3600 X-43.021 Y4.495
G1 F1800 X-46.41 Y1.107 E92.51183
G0 F3600 X-46.609 Y1.473
G1 F1800 X-43.262 Y4.82 E92.74798
G0 F3600 X-43.457 Y5.191
G1 F1800 X-47.085 Y1.563 E93.00396
G0 F3600 X-47.56 Y1.653
G1 F1800 X-43.609 Y5.605 E93.28276
G0 F3600 X-43.721 Y6.058
G1 F1800 X-48.034 Y1.745 E93.58706
G0 F3600 X-48.466 Y1.879
G1 F1800 X-46.868 Y3.477 E93.69981
G0 F3600 X-47.456 Y3.455
G1 F1800 X-48.899 Y2.012 E93.80162
G0 F3600 X-49.328 Y2.148
G1 F1800 X-48.042 Y3.434 E93.89235
G0 F3600 X-48.629 Y3.413
G1 F1800 X-49.746 Y2.296 E93.97117
G0 F3600 X-50.164 Y2.444
G1 F1800 X-49.217 Y3.391 E94.03798
G0 F3600 X-49.809 Y3.365
G1 F1800 X-50.581 Y2.592 E94.09249
G0 F3600 X-50.999 Y2.74
G1 F1800 X-50.417 Y3.322 E94.13355
G0 F3600 X-51.029 Y3.276
G1 F1800 X-51.417 Y2.888 E94.16092
G0 F3600 X-51.641 Y3.23
G1 F1800 X-51.835 Y3.036 E94.17461
G0 F3600 X-47.153 Y4.211
G0 X-47.155 Y6.654
G0 X-52.017 Y6.813
G1 F1800 X-42.501 Y16.329 E94.84602
G0 F3600 X-43.067 Y16.329
G1 F1800 X-52.662 Y6.734 E95.523
G0 F3600 X-53.302 Y6.66
G1 F1800 X-43.632 Y16.329 E96.20523
G0 F3600 X-44.198 Y16.329
G1 F1800 X-53.94 Y6.588 E96.89255
G0 F3600 X-54.578 Y6.515
G1 F1800 X-44.764 Y16.329 E97.58498
G0 F3600 X-45.329 Y16.329
G1 F1800 X-55.215 Y6.444 E98.28245
G0 F3600 X-55.852 Y6.372
G1 F1800 X-45.895 Y16.329 E98.98497
G0 F3600 X-46.461 Y16.329
G1 F1800 X-56.478 Y6.313 E99.69169
G0 F3600 X-57.082 Y6.274
G1 F1800 X-47.026 Y16.329 E100.40116
G0 F3600 X-47.592 Y16.329
G1 F1800 X-57.687 Y6.235 E101.11338
G0 F3600 X-58.291 Y6.196
G1 F1800 X-48.158 Y16.329 E101.82832
G0 F3600 X-48.723 Y16.329
G1 F1800 X-58.896 Y6.157 E102.54605
G0 F3600 X-59.499 Y6.12
G1 F1800 X-49.289 Y16.329 E103.26638
