;FLAVOR:Marlin
;TIME:2312
;Filament used: 3.24845m
;Layer height: 0.3
;MINX:-69.794
;MINY:-94.234
;MINZ:0.3
;MAXX:56.434
;MAXY:-58.634
;MAXZ:9
;Generated with Cura_SteamEngine 4.7.1
M140 S50
M105
M190 S50
M104 S250
M105
M109 S250
M82 ;absolute extrusion mode
G28 ;Home
G1 Z15.0 F6000 ;Move the platform down 15mm
;Prime the extruder
G92 E0
G1 F200 E3
G92 E0
G92 E0
G92 E0
G1 F1500 E-6.5
;LAYER_COUNT:30
;LAYER:0
M107
G0 F3600 X37.508 Y-58.634 Z0.3
;TYPE:SKIRT
G1 F1500 E0
G1 F1800 X-50.868 Y-58.634 E4.4091
G1 X-51.657 Y-58.674 E4.44851
G1 X-52.437 Y-58.793 E4.48788
G1 X-53.202 Y-58.991 E4.5273
G1 X-53.942 Y-59.265 E4.56667
G1 X-54.651 Y-59.613 E4.60607
G1 X-55.031 Y-59.838 E4.6281
G1 X-55.643 Y-60.224 E4.6642
G1 X-55.827 Y-60.286 E4.67389
G1 X-56.244 Y-60.32 E4.69476
G1 X-60.428 Y-60.32 E4.9035
G1 X-61.531 Y-60.398 E4.95867
G1 X-61.93 Y-60.455 E4.97878
G1 X-62.705 Y-60.607 E5.01818
G1 X-63.647 Y-60.904 E5.06746
G1 X-63.972 Y-61.03 E5.08485
G1 X-64.692 Y-61.353 E5.12422
G1 X-65.515 Y-61.837 E5.17185
G1 X-65.804 Y-62.032 E5.18924
G1 X-66.435 Y-62.506 E5.22862
G1 X-67.142 Y-63.174 E5.27714
G1 X-67.382 Y-63.431 E5.29469
G1 X-67.891 Y-64.035 E5.33409
G1 X-68.417 Y-64.822 E5.38132
G1 X-68.591 Y-65.12 E5.39853
G1 X-68.954 Y-65.821 E5.43792
G1 X-69.296 Y-66.714 E5.48563
G1 X-69.401 Y-67.048 E5.50309
G1 X-69.599 Y-67.812 E5.54247
G1 X-69.709 Y-68.497 E5.57708
G1 X-69.743 Y-68.793 E5.59195
G1 X-69.794 Y-69.683 E5.63642
G1 X-69.794 Y-80.434 E6.17279
G1 X-69.754 Y-81.223 E6.2122
G1 X-69.635 Y-82.003 E6.25157
G1 X-69.437 Y-82.768 E6.29099
G1 X-69.163 Y-83.508 E6.33036
G1 X-68.815 Y-84.217 E6.36976
G1 X-68.397 Y-84.888 E6.4092
G1 X-67.914 Y-85.512 E6.44857
G1 X-67.371 Y-86.085 E6.48796
G1 X-66.772 Y-86.6 E6.52737
G1 X-66.124 Y-87.051 E6.56676
G1 X-65.433 Y-87.435 E6.6062
G1 X-64.708 Y-87.747 E6.64557
G1 X-63.955 Y-87.984 E6.68496
G1 X-63.181 Y-88.143 E6.72438
G1 X-62.396 Y-88.224 E6.76375
G1 X-61.994 Y-88.234 E6.78381
G1 X-39.261 Y-88.234 E7.91797
G1 X-39.123 Y-88.767 E7.94543
G1 X-38.849 Y-89.507 E7.9848
G1 X-38.501 Y-90.216 E8.02421
G1 X-38.083 Y-90.887 E8.06365
G1 X-37.6 Y-91.511 E8.10301
G1 X-37.057 Y-92.084 E8.1424
G1 X-36.458 Y-92.599 E8.18181
G1 X-35.81 Y-93.05 E8.2212
G1 X-35.119 Y-93.434 E8.26064
G1 X-34.394 Y-93.746 E8.30002
G1 X-33.641 Y-93.983 E8.3394
G1 X-32.867 Y-94.142 E8.37882
G1 X-32.082 Y-94.223 E8.41819
G1 X-31.68 Y-94.233 E8.43825
G1 X-24.68 Y-94.233 E8.78749
G1 X-23.891 Y-94.193 E8.8269
G1 X-23.111 Y-94.074 E8.86626
G1 X-22.93 Y-94.027 E8.87559
G1 X-22.367 Y-94.143 E8.90427
G1 X-21.582 Y-94.224 E8.94364
G1 X-21.18 Y-94.234 E8.96371
G1 X-1.68 Y-94.233 E9.93656
G1 X-.891 Y-94.193 E9.97598
G1 X-.11 Y-94.073 E10.0154
G1 X0.654 Y-93.876 E10.05476
G1 X1.395 Y-93.601 E10.0942
G1 X2.104 Y-93.254 E10.13358
G1 X2.774 Y-92.836 E10.17298
G1 X2.825 Y-92.797 E10.17618
G1 X3.19 Y-93.051 E10.19836
G1 X3.881 Y-93.435 E10.2378
G1 X4.606 Y-93.747 E10.27718
G1 X5.359 Y-93.984 E10.31656
G1 X6.133 Y-94.143 E10.35599
G1 X6.918 Y-94.224 E10.39536
G1 X7.321 Y-94.234 E10.41547
G1 X21.321 Y-94.233 E11.11393
G1 X22.109 Y-94.193 E11.1533
G1 X22.89 Y-94.073 E11.19272
G1 X23.654 Y-93.876 E11.23208
G1 X24.326 Y-93.627 E11.26783
G1 X24.606 Y-93.747 E11.28303
G1 X25.359 Y-93.984 E11.32242
G1 X26.133 Y-94.143 E11.36184
G1 X26.918 Y-94.224 E11.40121
G1 X27.321 Y-94.234 E11.42132
G1 X34.321 Y-94.233 E11.77055
G1 X35.11 Y-94.193 E11.80997
G1 X35.89 Y-94.073 E11.84934
G1 X36.655 Y-93.875 E11.88876
G1 X37.395 Y-93.601 E11.92813
G1 X38.104 Y-93.253 E11.96754
G1 X38.775 Y-92.836 E12.00695
G1 X39.399 Y-92.353 E12.04632
G1 X39.972 Y-91.809 E12.08574
G1 X40.486 Y-91.21 E12.12511
G1 X40.938 Y-90.562 E12.16453
G1 X41.321 Y-89.871 E12.20395
G1 X41.633 Y-89.146 E12.24332
G1 X41.87 Y-88.393 E12.28271
G1 X41.903 Y-88.234 E12.29081
G1 X48.634 Y-88.234 E12.62662
G1 X49.423 Y-88.194 E12.66603
G1 X50.203 Y-88.075 E12.7054
G1 X50.968 Y-87.877 E12.74482
G1 X51.708 Y-87.603 E12.78419
G1 X52.417 Y-87.255 E12.82359
G1 X53.088 Y-86.837 E12.86303
G1 X53.712 Y-86.354 E12.9024
G1 X54.285 Y-85.811 E12.94179
G1 X54.8 Y-85.212 E12.9812
G1 X55.251 Y-84.564 E13.02059
G1 X55.635 Y-83.873 E13.06003
G1 X55.947 Y-83.148 E13.0994
G1 X56.184 Y-82.395 E13.13879
G1 X56.343 Y-81.621 E13.17821
G1 X56.424 Y-80.836 E13.21758
G1 X56.434 Y-80.434 E13.23764
G1 X56.434 Y-69.686 E13.77386
G1 X56.358 Y-68.597 E13.82832
G1 X56.302 Y-68.2 E13.84833
G1 X56.152 Y-67.424 E13.88776
G1 X55.853 Y-66.477 E13.9373
G1 X55.727 Y-66.151 E13.95474
G1 X55.406 Y-65.43 E13.99412
G1 X54.918 Y-64.6 E14.04215
G1 X54.723 Y-64.311 E14.05954
G1 X54.249 Y-63.68 E14.09892
G1 X53.593 Y-62.985 E14.1466
G1 X53.335 Y-62.743 E14.16425
G1 X52.733 Y-62.233 E14.20361
G1 X51.915 Y-61.686 E14.2527
G1 X51.617 Y-61.513 E14.26989
G1 X50.915 Y-61.152 E14.30928
G1 X50.06 Y-60.824 E14.35496
G1 X49.726 Y-60.718 E14.37245
G1 X48.963 Y-60.518 E14.4118
G1 X48.226 Y-60.4 E14.44904
G1 X47.928 Y-60.367 E14.46399
G1 X47.069 Y-60.32 E14.50691
G1 X42.884 Y-60.32 E14.7157
G1 X42.376 Y-60.263 E14.74121
G1 X42.286 Y-60.225 E14.74608
G1 X41.669 Y-59.836 E14.78247
G1 X40.98 Y-59.45 E14.82187
G1 X40.256 Y-59.134 E14.86128
G1 X39.504 Y-58.894 E14.90066
G1 X38.732 Y-58.731 E14.94003
G1 X37.946 Y-58.646 E14.97947
G1 X37.508 Y-58.634 E15.00133
G0 F3600 X37.508 Y-59.034
G1 F1800 X-50.868 Y-59.034 E19.41043
G1 X-51.636 Y-59.074 E19.4488
G1 X-52.396 Y-59.193 E19.48717
G1 X-53.139 Y-59.391 E19.52554
G1 X-53.858 Y-59.665 E19.56392
G1 X-54.818 Y-60.176 E19.61818
G1 X-55.458 Y-60.58 E19.65594
G1 X-55.768 Y-60.683 E19.67224
G1 X-56.224 Y-60.72 E19.69506
G1 X-60.428 Y-60.72 E19.9048
G1 X-61.475 Y-60.794 E19.95717
G1 X-61.874 Y-60.851 E19.97727
G1 X-62.628 Y-61 E20.01562
G1 X-63.502 Y-61.277 E20.06136
G1 X-63.827 Y-61.403 E20.07875
G1 X-64.529 Y-61.718 E20.11714
G1 X-65.291 Y-62.169 E20.16131
G1 X-65.58 Y-62.364 E20.17871
G1 X-66.194 Y-62.827 E20.21707
G1 X-66.849 Y-63.447 E20.26207
G1 X-67.089 Y-63.704 E20.27961
G1 X-67.584 Y-64.293 E20.318
G1 X-68.071 Y-65.024 E20.36182
G1 X-68.245 Y-65.322 E20.37903
G1 X-68.598 Y-66.005 E20.41739
G1 X-68.914 Y-66.834 E20.46165
G1 X-69.019 Y-67.168 E20.47912
G1 X-69.212 Y-67.912 E20.51747
G1 X-69.312 Y-68.543 E20.54934
G1 X-69.346 Y-68.839 E20.56421
G1 X-69.394 Y-69.683 E20.60638
G1 X-69.394 Y-80.434 E21.14275
G1 X-69.354 Y-81.202 E21.18112
G1 X-69.235 Y-81.962 E21.2195
G1 X-69.037 Y-82.705 E21.25786
G1 X-68.763 Y-83.424 E21.29625
G1 X-68.416 Y-84.11 E21.3346
G1 X-68 Y-84.757 E21.37298
G1 X-67.519 Y-85.357 E21.41134
G1 X-66.978 Y-85.904 E21.44972
G1 X-66.383 Y-86.392 E21.48812
G1 X-65.741 Y-86.815 E21.52647
G1 X-65.058 Y-87.17 E21.56488
G1 X-64.343 Y-87.451 E21.6032
G1 X-63.601 Y-87.657 E21.64162
G1 X-62.843 Y-87.785 E21.67997
G1 X-61.994 Y-87.834 E21.7224
G1 X-38.941 Y-87.834 E22.87252
G1 X-38.921 Y-87.961 E22.87893
G1 X-38.723 Y-88.704 E22.9173
G1 X-38.449 Y-89.423 E22.95568
G1 X-38.102 Y-90.109 E22.99404
G1 X-37.686 Y-90.756 E23.03241
G1 X-37.205 Y-91.356 E23.07078
G1 X-36.664 Y-91.903 E23.10916
G1 X-36.069 Y-92.391 E23.14755
G1 X-35.427 Y-92.814 E23.18591
G1 X-34.744 Y-93.169 E23.22431
G1 X-34.029 Y-93.45 E23.26264
G1 X-33.287 Y-93.656 E23.30106
G1 X-32.529 Y-93.784 E23.33941
G1 X-31.68 Y-93.833 E23.38184
G1 X-24.68 Y-93.833 E23.73107
G1 X-23.912 Y-93.793 E23.76944
G1 X-23.152 Y-93.674 E23.80782
G1 X-22.935 Y-93.616 E23.81902
G1 X-22.787 Y-93.657 E23.82668
G1 X-22.029 Y-93.785 E23.86504
G1 X-21.18 Y-93.834 E23.90746
G1 X-1.68 Y-93.833 E24.88032
G1 X-.912 Y-93.793 E24.91869
G1 X-.152 Y-93.673 E24.95708
G1 X0.592 Y-93.476 E24.99547
G1 X1.31 Y-93.202 E25.03382
G1 X1.997 Y-92.855 E25.07221
G1 X2.644 Y-92.439 E25.11059
G1 X2.818 Y-92.299 E25.12173
G1 X2.931 Y-92.392 E25.12903
G1 X3.573 Y-92.815 E25.16739
G1 X4.256 Y-93.17 E25.20579
G1 X4.971 Y-93.451 E25.24412
G1 X5.713 Y-93.657 E25.28254
G1 X6.471 Y-93.785 E25.32089
G1 X7.321 Y-93.834 E25.36337
G1 X21.321 Y-93.833 E26.06183
G1 X22.089 Y-93.793 E26.1002
G1 X22.848 Y-93.673 E26.13853
G1 X23.592 Y-93.476 E26.17693
G1 X24.311 Y-93.202 E26.21532
G1 X24.323 Y-93.196 E26.21599
G1 X24.971 Y-93.451 E26.25073
G1 X25.713 Y-93.657 E26.28915
G1 X26.471 Y-93.785 E26.3275
G1 X27.321 Y-93.834 E26.36998
G1 X34.321 Y-93.833 E26.71921
G1 X35.089 Y-93.793 E26.75758
G1 X35.849 Y-93.673 E26.79596
G1 X36.592 Y-93.476 E26.83431
G1 X37.311 Y-93.202 E26.8727
G1 X37.997 Y-92.855 E26.91106
G1 X38.644 Y-92.438 E26.94946
G1 X39.244 Y-91.957 E26.98782
G1 X39.791 Y-91.416 E27.02621
G1 X40.279 Y-90.821 E27.0646
G1 X40.702 Y-90.179 E27.10295
G1 X41.056 Y-89.496 E27.14133
G1 X41.338 Y-88.781 E27.17968
G1 X41.544 Y-88.039 E27.2181
G1 X41.578 Y-87.834 E27.22847
G1 X48.634 Y-87.834 E27.58049
G1 X49.402 Y-87.794 E27.61886
G1 X50.162 Y-87.675 E27.65724
G1 X50.905 Y-87.477 E27.6956
G1 X51.624 Y-87.203 E27.73399
G1 X52.31 Y-86.856 E27.77234
G1 X52.957 Y-86.44 E27.81072
G1 X53.557 Y-85.959 E27.84908
G1 X54.104 Y-85.418 E27.88746
G1 X54.592 Y-84.823 E27.92586
G1 X55.015 Y-84.181 E27.96421
G1 X55.37 Y-83.498 E28.00262
G1 X55.651 Y-82.783 E28.04094
G1 X55.857 Y-82.041 E28.07936
G1 X55.985 Y-81.283 E28.11771
G1 X56.034 Y-80.434 E28.16014
G1 X56.034 Y-69.686 E28.69636
G1 X55.961 Y-68.652 E28.74808
G1 X55.905 Y-68.255 E28.76808
G1 X55.759 Y-67.5 E28.80644
G1 X55.48 Y-66.621 E28.85245
G1 X55.354 Y-66.295 E28.86989
G1 X55.04 Y-65.593 E28.90826
G1 X54.586 Y-64.824 E28.95281
G1 X54.391 Y-64.535 E28.9702
G1 X53.928 Y-63.921 E29.00857
G1 X53.32 Y-63.277 E29.05276
G1 X53.062 Y-63.035 E29.0704
G1 X52.474 Y-62.538 E29.10881
G1 X51.714 Y-62.032 E29.15437
G1 X51.416 Y-61.859 E29.17156
G1 X50.732 Y-61.508 E29.20991
G1 X49.939 Y-61.206 E29.25225
G1 X49.605 Y-61.1 E29.26973
G1 X48.861 Y-60.905 E29.3081
G1 X48.181 Y-60.798 E29.34244
G1 X47.883 Y-60.765 E29.3574
G1 X47.069 Y-60.72 E29.39807
G1 X42.864 Y-60.72 E29.60786
G1 X42.255 Y-60.646 E29.63847
G1 X42.093 Y-60.577 E29.64725
G1 X41.455 Y-60.175 E29.68488
G1 X40.784 Y-59.799 E29.72325
G1 X40.078 Y-59.495 E29.7616
G1 X39.344 Y-59.265 E29.79997
G1 X38.59 Y-59.113 E29.83835
G1 X37.508 Y-59.034 E29.89247
G0 F3600 X37.508 Y-59.434
G1 F1800 X-50.868 Y-59.434 E34.30157
G1 X-51.615 Y-59.474 E34.33889
G1 X-52.353 Y-59.593 E34.37619
G1 X-53.075 Y-59.791 E34.41354
G1 X-53.771 Y-60.064 E34.45084
G1 X-54.604 Y-60.515 E34.49809
G1 X-55.27 Y-60.935 E34.53738
G1 X-55.701 Y-61.079 E34.56005
G1 X-56.205 Y-61.12 E34.58527
G1 X-60.428 Y-61.12 E34.79596
G1 X-61.418 Y-61.19 E34.84548
G1 X-61.817 Y-61.247 E34.86558
G1 X-62.551 Y-61.393 E34.90292
G1 X-63.357 Y-61.65 E34.94513
G1 X-63.682 Y-61.776 E34.96252
G1 X-64.364 Y-62.084 E34.99985
G1 X-65.067 Y-62.5 E35.0406
G1 X-65.356 Y-62.695 E35.058
G1 X-65.953 Y-63.146 E35.09533
G1 X-66.557 Y-63.72 E35.1369
G1 X-66.797 Y-63.977 E35.15444
G1 X-67.278 Y-64.551 E35.1918
G1 X-67.726 Y-65.225 E35.23218
G1 X-67.9 Y-65.523 E35.2494
G1 X-68.242 Y-66.189 E35.28675
G1 X-68.533 Y-66.954 E35.32758
G1 X-68.638 Y-67.288 E35.34505
G1 X-68.824 Y-68.012 E35.38234
G1 X-68.914 Y-68.588 E35.41143
G1 X-68.948 Y-68.884 E35.42629
G1 X-68.994 Y-69.683 E35.46622
G1 X-68.994 Y-80.434 E36.00259
G1 X-68.954 Y-81.181 E36.03991
G1 X-68.835 Y-81.919 E36.07721
G1 X-68.637 Y-82.641 E36.11456
G1 X-68.364 Y-83.337 E36.15186
G1 X-68.017 Y-84 E36.18919
G1 X-67.602 Y-84.623 E36.22654
G1 X-67.123 Y-85.197 E36.26383
G1 X-66.586 Y-85.718 E36.30116
G1 X-65.996 Y-86.177 E36.33846
G1 X-65.36 Y-86.572 E36.37581
G1 X-64.686 Y-86.896 E36.41312
G1 X-63.981 Y-87.146 E36.45044
G1 X-63.253 Y-87.32 E36.48778
G1 X-62.511 Y-87.415 E36.5251
G1 X-61.994 Y-87.434 E36.55091
G1 X-38.599 Y-87.434 E37.71809
G1 X-38.521 Y-87.918 E37.74255
G1 X-38.323 Y-88.64 E37.7799
G1 X-38.05 Y-89.336 E37.8172
G1 X-37.703 Y-89.999 E37.85453
G1 X-37.288 Y-90.622 E37.89188
G1 X-36.809 Y-91.196 E37.92918
G1 X-36.272 Y-91.717 E37.96651
G1 X-35.682 Y-92.176 E38.0038
G1 X-35.046 Y-92.571 E38.04115
G1 X-34.372 Y-92.895 E38.07846
G1 X-33.667 Y-93.145 E38.11578
G1 X-32.939 Y-93.319 E38.15312
G1 X-32.197 Y-93.414 E38.19044
G1 X-31.68 Y-93.433 E38.21625
G1 X-24.68 Y-93.433 E38.56549
G1 X-23.933 Y-93.393 E38.60281
G1 X-23.195 Y-93.274 E38.6401
G1 X-22.933 Y-93.202 E38.65366
G1 X-22.439 Y-93.32 E38.679
G1 X-21.697 Y-93.415 E38.71632
G1 X-21.18 Y-93.434 E38.74213
G1 X-1.68 Y-93.433 E39.71499
G1 X-.933 Y-93.393 E39.75231
G1 X-.194 Y-93.273 E39.78966
G1 X0.527 Y-93.076 E39.82695
G1 X1.224 Y-92.802 E39.86431
G1 X1.887 Y-92.456 E39.90162
G1 X2.509 Y-92.041 E39.93893
G1 X2.815 Y-91.786 E39.9588
G1 X3.318 Y-92.177 E39.99059
G1 X3.954 Y-92.572 E40.02794
G1 X4.628 Y-92.896 E40.06525
G1 X5.333 Y-93.146 E40.10256
G1 X6.061 Y-93.32 E40.13991
G1 X6.803 Y-93.415 E40.17723
G1 X7.32 Y-93.434 E40.20304
G1 X21.32 Y-93.433 E40.9015
G1 X22.067 Y-93.393 E40.93882
G1 X22.806 Y-93.273 E40.97618
G1 X23.527 Y-93.076 E41.01346
G1 X24.224 Y-92.802 E41.05083
G1 X24.324 Y-92.75 E41.05645
G1 X24.628 Y-92.896 E41.07328
G1 X25.333 Y-93.146 E41.1106
G1 X26.061 Y-93.32 E41.14794
G1 X26.803 Y-93.415 E41.18526
G1 X27.321 Y-93.434 E41.21112
G1 X34.321 Y-93.433 E41.56035
G1 X35.068 Y-93.393 E41.59767
G1 X35.806 Y-93.273 E41.63498
G1 X36.528 Y-93.076 E41.67231
G1 X37.224 Y-92.802 E41.70963
G1 X37.887 Y-92.456 E41.74694
G1 X38.51 Y-92.041 E41.78429
G1 X39.084 Y-91.562 E41.82159
G1 X39.604 Y-91.024 E41.85891
G1 X40.064 Y-90.434 E41.89624
G1 X40.458 Y-89.798 E41.93356
G1 X40.782 Y-89.124 E41.97087
G1 X41.032 Y-88.419 E42.00819
G1 X41.206 Y-87.691 E42.04554
G1 X41.239 Y-87.434 E42.05846
G1 X48.634 Y-87.434 E42.4274
G1 X49.381 Y-87.394 E42.46472
G1 X50.119 Y-87.275 E42.50202
G1 X50.841 Y-87.077 E42.53937
G1 X51.537 Y-86.804 E42.57667
G1 X52.2 Y-86.457 E42.614
G1 X52.823 Y-86.042 E42.65135
G1 X53.397 Y-85.563 E42.68864
G1 X53.918 Y-85.026 E42.72597
G1 X54.377 Y-84.436 E42.76327
G1 X54.772 Y-83.8 E42.80062
G1 X55.096 Y-83.126 E42.83793
G1 X55.346 Y-82.421 E42.87525
G1 X55.52 Y-81.693 E42.91259
G1 X55.615 Y-80.951 E42.94991
G1 X55.634 Y-80.434 E42.97572
G1 X55.634 Y-69.686 E43.51194
G1 X55.565 Y-68.708 E43.56085
G1 X55.509 Y-68.311 E43.58086
G1 X55.365 Y-67.577 E43.61817
G1 X55.107 Y-66.765 E43.66068
G1 X54.981 Y-66.439 E43.67812
G1 X54.675 Y-65.757 E43.71541
G1 X54.255 Y-65.048 E43.75652
G1 X54.06 Y-64.759 E43.77392
G1 X53.609 Y-64.162 E43.81124
G1 X53.046 Y-63.568 E43.85208
G1 X52.788 Y-63.326 E43.86972
G1 X52.216 Y-62.845 E43.90701
G1 X51.513 Y-62.378 E43.94912
G1 X51.215 Y-62.205 E43.96631
G1 X50.549 Y-61.865 E44.00361
G1 X49.818 Y-61.587 E44.04263
G1 X49.484 Y-61.481 E44.06011
G1 X48.76 Y-61.293 E44.09743
G1 X48.137 Y-61.196 E44.12889
G1 X47.839 Y-61.163 E44.14385
G1 X47.069 Y-61.12 E44.18232
G1 X42.845 Y-61.12 E44.39306
G1 X42.343 Y-61.08 E44.41818
G1 X41.913 Y-60.936 E44.44081
G1 X41.242 Y-60.513 E44.48038
G1 X40.589 Y-60.148 E44.5177
G1 X39.901 Y-59.856 E44.55499
G1 X39.185 Y-59.638 E44.59233
G1 X38.45 Y-59.498 E44.62966
G1 X37.508 Y-59.434 E44.67676
G0 F3600 X37.508 Y-59.834
G1 F1800 X-50.868 Y-59.834 E49.08586
G1 X-51.593 Y-59.874 E49.12208
G1 X-52.31 Y-59.993 E49.15835
G1 X-53.009 Y-60.191 E49.19459
G1 X-53.682 Y-60.464 E49.23082
G1 X-54.391 Y-60.853 E49.27117
G1 X-55.087 Y-61.292 E49.31222
G1 X-55.634 Y-61.475 E49.341
G1 X-56.197 Y-61.52 E49.36918
G1 X-60.428 Y-61.52 E49.58026
G1 X-61.361 Y-61.586 E49.62693
G1 X-61.76 Y-61.643 E49.64704
G1 X-62.473 Y-61.785 E49.68331
G1 X-63.213 Y-62.023 E49.72209
G1 X-63.538 Y-62.149 E49.73948
G1 X-64.2 Y-62.449 E49.77574
G1 X-64.844 Y-62.832 E49.81312
G1 X-65.133 Y-63.027 E49.83051
G1 X-65.711 Y-63.466 E49.86672
G1 X-66.265 Y-63.993 E49.90487
G1 X-66.505 Y-64.25 E49.92242
G1 X-66.971 Y-64.808 E49.95868
G1 X-67.381 Y-65.427 E49.99573
G1 X-67.555 Y-65.725 E50.01294
G1 X-67.886 Y-66.372 E50.0492
G1 X-68.151 Y-67.074 E50.08664
G1 X-68.256 Y-67.408 E50.1041
G1 X-68.436 Y-68.112 E50.14036
G1 X-68.517 Y-68.634 E50.16671
G1 X-68.551 Y-68.93 E50.18157
G1 X-68.594 Y-69.683 E50.2192
G1 X-68.594 Y-80.434 E50.75557
G1 X-68.554 Y-81.159 E50.7918
G1 X-68.435 Y-81.876 E50.82806
G1 X-68.237 Y-82.575 E50.8643
G1 X-67.964 Y-83.248 E50.90054
G1 X-67.619 Y-83.887 E50.93677
G1 X-67.205 Y-84.484 E50.97301
G1 X-66.729 Y-85.032 E51.00923
G1 X-66.195 Y-85.525 E51.04549
G1 X-65.61 Y-85.955 E51.08171
G1 X-64.981 Y-86.319 E51.11796
G1 X-64.316 Y-86.612 E51.15422
