;FLAVOR:Marlin
;TIME:9895
;Filament used: 13.6039m
;Layer height: 0.3
;MINX:-121.867
;MINY:-63.114
;MINZ:0.3
;MAXX:17.8
;MAXY:63.114
;MAXZ:21.9
;Generated with Cura_SteamEngine 4.7.1
M140 S50
M105
M190 S50
M104 S250
M105
M109 S250
M82 ;absolute extrusion mode
G28 ;Home
G1 Z15.0 F6000 ;Move the platform down 15mm
;Prime the extruder
G92 E0
G1 F200 E3
G92 E0
G92 E0
G92 E0
G1 F1500 E-6.5
;LAYER_COUNT:73
;LAYER:0
M107
G0 F3600 X-87.218 Y-19.8 Z0.3
;TYPE:SKIRT
G1 F1500 E0
G1 F1800 X-87.218 Y-28 E0.4091
G1 X-87.178 Y-28.789 E0.44851
G1 X-87.059 Y-29.569 E0.48788
G1 X-86.861 Y-30.334 E0.5273
G1 X-86.611 Y-31.008 E0.56317
G1 X-86.738 Y-31.308 E0.57942
G1 X-87.289 Y-30.834 E0.61568
G1 X-87.937 Y-30.383 E0.65507
G1 X-88.628 Y-29.999 E0.69451
G1 X-89.353 Y-29.687 E0.73389
G1 X-90.106 Y-29.45 E0.77327
G1 X-90.88 Y-29.291 E0.81269
G1 X-91.665 Y-29.21 E0.85206
G1 X-92.067 Y-29.2 E0.87213
G1 X-96.267 Y-29.2 E1.08166
G1 X-96.267 Y-19.8 E1.55063
G1 X-87.218 Y-19.8 E2.00209
G0 F3600 X-86.818 Y-19.4
G1 F1800 X-86.818 Y-28 E2.43114
G1 X-86.778 Y-28.768 E2.46951
G1 X-86.659 Y-29.528 E2.50789
G1 X-86.461 Y-30.271 E2.54625
G1 X-86.187 Y-30.99 E2.58464
G1 X-86.18 Y-31.003 E2.58538
G1 X-86.435 Y-31.651 E2.62012
G1 X-86.551 Y-32.068 E2.64171
G1 X-87.083 Y-31.53 E2.67946
G1 X-87.678 Y-31.042 E2.71785
G1 X-88.32 Y-30.619 E2.75621
G1 X-89.003 Y-30.264 E2.79461
G1 X-89.718 Y-29.983 E2.83294
G1 X-90.46 Y-29.777 E2.87136
G1 X-91.218 Y-29.649 E2.90971
G1 X-92.067 Y-29.6 E2.95214
G1 X-96.667 Y-29.6 E3.18163
G1 X-96.667 Y-19.4 E3.69051
G1 X-86.818 Y-19.4 E4.18188
G0 F3600 X-86.418 Y-19
G1 F1800 X-86.418 Y-28 E4.63089
G1 X-86.378 Y-28.747 E4.66821
G1 X-86.259 Y-29.485 E4.70551
G1 X-86.061 Y-30.207 E4.74286
G1 X-85.788 Y-30.903 E4.78016
G1 X-85.734 Y-31.005 E4.78592
G1 X-85.88 Y-31.308 E4.8027
G1 X-86.13 Y-32.013 E4.84002
G1 X-86.304 Y-32.741 E4.87736
G1 X-86.337 Y-32.995 E4.89014
G1 X-86.459 Y-32.811 E4.90115
G1 X-86.938 Y-32.237 E4.93845
G1 X-87.475 Y-31.716 E4.97578
G1 X-88.065 Y-31.257 E5.01307
G1 X-88.701 Y-30.862 E5.05042
G1 X-89.375 Y-30.538 E5.08773
G1 X-90.08 Y-30.288 E5.12505
G1 X-90.808 Y-30.114 E5.16239
G1 X-91.55 Y-30.019 E5.19972
G1 X-92.067 Y-30 E5.22553
G1 X-97.067 Y-30 E5.47498
G1 X-97.067 Y-19 E6.02377
G1 X-86.418 Y-19 E6.55505
G0 F3600 X-86.018 Y-18.6
G1 F1800 X-86.018 Y-28 E7.02402
G1 X-85.978 Y-28.725 E7.06024
G1 X-85.859 Y-29.442 E7.0965
G1 X-85.661 Y-30.141 E7.13275
G1 X-85.388 Y-30.814 E7.16898
G1 X-85.303 Y-31.013 E7.17978
G1 X-85.596 Y-31.678 E7.21603
G1 X-85.814 Y-32.371 E7.25228
G1 X-85.954 Y-33.083 E7.28848
G1 X-86.018 Y-34 E7.33434
G1 X-86.018 Y-34.381 E7.35335
G1 X-86.097 Y-34.186 E7.36384
G1 X-86.442 Y-33.547 E7.40007
G1 X-86.856 Y-32.95 E7.43632
G1 X-87.332 Y-32.402 E7.47253
G1 X-87.866 Y-31.909 E7.50879
G1 X-88.451 Y-31.479 E7.54501
G1 X-89.08 Y-31.115 E7.58127
G1 X-89.745 Y-30.822 E7.61753
G1 X-90.438 Y-30.604 E7.65377
G1 X-91.15 Y-30.464 E7.68997
G1 X-92.067 Y-30.4 E7.73583
G1 X-97.467 Y-30.4 E8.00524
G1 X-97.467 Y-18.6 E8.59394
G1 X-86.018 Y-18.6 E9.16514
G0 F3600 X-85.618 Y-18.2
G1 F1800 X-85.618 Y-28 E9.65406
G1 X-85.578 Y-28.703 E9.68919
G1 X-85.459 Y-29.397 E9.72432
G1 X-85.261 Y-30.072 E9.75941
G1 X-84.989 Y-30.721 E9.79452
G1 X-84.833 Y-30.999 E9.81043
G1 X-85.041 Y-31.389 E9.83248
G1 X-85.301 Y-32.043 E9.86759
G1 X-85.485 Y-32.723 E9.90273
G1 X-85.591 Y-33.419 E9.93786
G1 X-85.618 Y-34 E9.96688
G1 X-85.618 Y-41 E10.31611
G1 X-85.578 Y-41.703 E10.35124
G1 X-85.459 Y-42.397 E10.38637
G1 X-85.261 Y-43.072 E10.42146
G1 X-84.989 Y-43.721 E10.45657
G1 X-84.644 Y-44.335 E10.49171
G1 X-84.233 Y-44.906 E10.52681
G1 X-83.759 Y-45.427 E10.56195
G1 X-83.229 Y-45.891 E10.59709
G1 X-82.65 Y-46.291 E10.6322
G1 X-82.029 Y-46.623 E10.66733
G1 X-81.375 Y-46.883 E10.70244
G1 X-80.695 Y-47.067 E10.73759
G1 X-79.999 Y-47.173 E10.77271
G1 X-79.618 Y-47.191 E10.79174
G1 X-79.618 Y-55.314 E11.197
G1 X-79.578 Y-56.017 E11.23213
G1 X-79.459 Y-56.711 E11.26726
G1 X-79.261 Y-57.386 E11.30235
G1 X-78.989 Y-58.035 E11.33746
G1 X-78.644 Y-58.649 E11.3726
G1 X-78.233 Y-59.22 E11.4077
G1 X-77.759 Y-59.741 E11.44284
G1 X-77.229 Y-60.205 E11.47798
G1 X-76.65 Y-60.605 E11.51309
G1 X-76.029 Y-60.937 E11.54822
G1 X-75.375 Y-61.197 E11.58333
G1 X-74.695 Y-61.381 E11.61848
G1 X-73.999 Y-61.487 E11.6536
G1 X-73.418 Y-61.514 E11.68262
G1 X-62.67 Y-61.514 E12.21884
G1 X-61.793 Y-61.452 E12.2627
G1 X-61.394 Y-61.395 E12.28281
G1 X-60.704 Y-61.256 E12.31793
G1 X-60.051 Y-61.046 E12.35215
G1 X-59.725 Y-60.921 E12.36957
G1 X-59.083 Y-60.632 E12.40469
G1 X-58.465 Y-60.263 E12.4406
G1 X-58.179 Y-60.069 E12.45784
G1 X-57.619 Y-59.641 E12.49301
G1 X-57.129 Y-59.171 E12.52688
G1 X-56.887 Y-58.912 E12.54457
G1 X-56.436 Y-58.371 E12.57971
G1 X-56.067 Y-57.813 E12.61308
G1 X-55.893 Y-57.516 E12.63025
G1 X-55.573 Y-56.889 E12.66537
G1 X-55.335 Y-56.263 E12.69879
G1 X-55.229 Y-55.93 E12.71622
G1 X-55.054 Y-55.248 E12.75135
G1 X-54.975 Y-54.731 E12.77744
G1 X-54.942 Y-54.433 E12.7924
G1 X-54.904 Y-53.751 E12.82648
G1 X-54.904 Y-49.497 E13.03871
G1 X-54.855 Y-48.889 E13.06914
G1 X-54.771 Y-48.55 E13.08656
G1 X-54.631 Y-48.219 E13.10449
G1 X-54.174 Y-47.495 E13.14721
G1 X-53.833 Y-46.879 E13.18234
G1 X-53.564 Y-46.229 E13.21743
G1 X-53.37 Y-45.552 E13.25257
G1 X-53.254 Y-44.858 E13.28767
G1 X-53.218 Y-44.188 E13.32115
G1 X-53.218 Y-44.16 E13.32254
G1 X-52.815 Y-44.72 E13.35696
G1 X-52.341 Y-45.241 E13.3921
G1 X-51.811 Y-45.705 E13.42725
G1 X-51.232 Y-46.105 E13.46236
G1 X-50.611 Y-46.437 E13.49749
G1 X-49.957 Y-46.697 E13.5326
G1 X-49.277 Y-46.881 E13.56775
G1 X-48.581 Y-46.987 E13.60287
G1 X-48 Y-47.014 E13.63189
G1 X-47.095 Y-47.014 E13.67704
G1 X-46.262 Y-47.107 E13.71885
G1 X-45.797 Y-47.27 E13.74344
G1 X-45.375 Y-47.535 E13.7683
G1 X-45.035 Y-47.875 E13.79229
G1 X-44.77 Y-48.296 E13.81711
G1 X-44.608 Y-48.759 E13.84158
G1 X-44.514 Y-49.605 E13.88404
G1 X-44.514 Y-53.748 E14.09074
G1 X-44.454 Y-54.612 E14.13395
G1 X-44.398 Y-55.01 E14.154
G1 X-44.26 Y-55.7 E14.18911
G1 X-44.039 Y-56.387 E14.22511
G1 X-43.913 Y-56.712 E14.2425
G1 X-43.621 Y-57.353 E14.27764
G1 X-43.271 Y-57.939 E14.3117
G1 X-43.076 Y-58.228 E14.32909
G1 X-42.65 Y-58.788 E14.36419
G1 X-42.179 Y-59.282 E14.39825
G1 X-41.921 Y-59.524 E14.41589
G1 X-41.381 Y-59.976 E14.45103
G1 X-40.784 Y-60.368 E14.48666
G1 X-40.485 Y-60.541 E14.50389
G1 X-39.857 Y-60.859 E14.53901
G1 X-39.261 Y-61.083 E14.57078
G1 X-38.928 Y-61.189 E14.58821
G1 X-38.246 Y-61.364 E14.62334
G1 X-37.729 Y-61.443 E14.64943
G1 X-37.431 Y-61.476 E14.66439
G1 X-36.749 Y-61.514 E14.69847
G1 X-26 Y-61.514 E15.23474
G1 X-25.297 Y-61.474 E15.26987
G1 X-24.603 Y-61.355 E15.305
G1 X-23.928 Y-61.157 E15.34009
G1 X-23.279 Y-60.885 E15.3752
G1 X-22.665 Y-60.54 E15.41033
G1 X-22.094 Y-60.129 E15.44543
G1 X-21.573 Y-59.655 E15.48057
G1 X-21.109 Y-59.125 E15.51572
G1 X-20.709 Y-58.546 E15.55083
G1 X-20.377 Y-57.925 E15.58596
G1 X-20.117 Y-57.271 E15.62107
G1 X-19.933 Y-56.591 E15.65622
G1 X-19.827 Y-55.895 E15.69134
G1 X-19.8 Y-55.314 E15.72036
G1 X-19.8 Y-37 E16.63405
G1 X-19.84 Y-36.297 E16.66918
G1 X-19.959 Y-35.603 E16.70431
G1 X-20.157 Y-34.928 E16.7394
G1 X-20.429 Y-34.279 E16.77451
G1 X-20.774 Y-33.665 E16.80964
G1 X-21.185 Y-33.094 E16.84474
G1 X-21.659 Y-32.573 E16.87988
G1 X-22.189 Y-32.109 E16.91503
G1 X-22.768 Y-31.709 E16.95014
G1 X-23.389 Y-31.377 E16.98527
G1 X-24.043 Y-31.117 E17.02038
G1 X-24.723 Y-30.933 E17.05553
G1 X-25.419 Y-30.827 E17.09065
G1 X-26 Y-30.8 E17.11967
G1 X-31.8 Y-30.8 E17.40903
G1 X-31.8 Y-18.2 E18.03765
G1 X-16.2 Y-18.2 E18.81593
G1 X-16.2 Y-28 E19.30486
G1 X-16.16 Y-28.703 E19.33999
G1 X-16.041 Y-29.397 E19.37512
G1 X-15.843 Y-30.072 E19.41021
G1 X-15.571 Y-30.721 E19.44532
G1 X-15.415 Y-30.999 E19.46122
G1 X-15.623 Y-31.389 E19.48328
G1 X-15.883 Y-32.043 E19.51839
G1 X-16.067 Y-32.723 E19.55353
G1 X-16.173 Y-33.419 E19.58866
G1 X-16.2 Y-34 E19.61767
G1 X-16.2 Y-41 E19.96691
G1 X-16.16 Y-41.703 E20.00204
G1 X-16.041 Y-42.397 E20.03716
G1 X-15.843 Y-43.072 E20.07226
G1 X-15.571 Y-43.721 E20.10737
G1 X-15.226 Y-44.335 E20.1425
G1 X-14.815 Y-44.906 E20.1776
G1 X-14.341 Y-45.427 E20.21274
G1 X-13.811 Y-45.891 E20.24789
G1 X-13.232 Y-46.291 E20.283
G1 X-12.611 Y-46.623 E20.31813
G1 X-11.957 Y-46.883 E20.35324
G1 X-11.277 Y-47.067 E20.38839
G1 X-10.581 Y-47.173 E20.42351
G1 X-10.2 Y-47.191 E20.44254
G1 X-10.2 Y-55.314 E20.8478
G1 X-10.16 Y-56.017 E20.88293
G1 X-10.041 Y-56.711 E20.91806
G1 X-9.843 Y-57.386 E20.95315
G1 X-9.571 Y-58.035 E20.98826
G1 X-9.226 Y-58.649 E21.02339
G1 X-8.815 Y-59.22 E21.05849
G1 X-8.341 Y-59.741 E21.09363
G1 X-7.811 Y-60.205 E21.12878
G1 X-7.232 Y-60.605 E21.16389
G1 X-6.611 Y-60.937 E21.19902
G1 X-5.957 Y-61.197 E21.23413
G1 X-5.277 Y-61.381 E21.26928
G1 X-4.581 Y-61.487 E21.3044
G1 X-4 Y-61.514 E21.33342
G1 X6.748 Y-61.514 E21.86964
G1 X7.625 Y-61.452 E21.9135
G1 X8.024 Y-61.395 E21.93361
G1 X8.714 Y-61.256 E21.96872
G1 X9.367 Y-61.046 E22.00295
G1 X9.693 Y-60.921 E22.02036
G1 X10.335 Y-60.632 E22.05549
G1 X10.953 Y-60.263 E22.0914
G1 X11.239 Y-60.069 E22.10864
G1 X11.799 Y-59.641 E22.14381
G1 X12.289 Y-59.171 E22.17768
G1 X12.531 Y-58.912 E22.19536
G1 X12.982 Y-58.371 E22.2305
G1 X13.351 Y-57.813 E22.26388
G1 X13.525 Y-57.516 E22.28105
G1 X13.845 Y-56.889 E22.31617
G1 X14.083 Y-56.263 E22.34958
G1 X14.189 Y-55.93 E22.36702
G1 X14.364 Y-55.248 E22.40215
G1 X14.443 Y-54.731 E22.42824
G1 X14.476 Y-54.433 E22.4432
G1 X14.514 Y-53.751 E22.47727
G1 X14.514 Y-49.497 E22.68951
G1 X14.563 Y-48.889 E22.71994
G1 X14.647 Y-48.55 E22.73736
G1 X14.787 Y-48.219 E22.75529
G1 X15.244 Y-47.495 E22.79801
G1 X15.585 Y-46.879 E22.83313
G1 X15.854 Y-46.229 E22.86823
G1 X16.048 Y-45.552 E22.90337
G1 X16.164 Y-44.858 E22.93847
G1 X16.2 Y-44.188 E22.97194
G1 X16.2 Y44.188 E27.38104
G1 X16.16 Y44.891 E27.41617
G1 X16.041 Y45.585 E27.4513
G1 X15.843 Y46.26 E27.48639
G1 X15.571 Y46.909 E27.5215
G1 X15.244 Y47.495 E27.55498
G1 X14.787 Y48.219 E27.5977
G1 X14.649 Y48.545 E27.61536
G1 X14.562 Y48.898 E27.63349
G1 X14.514 Y49.498 E27.66352
G1 X14.514 Y53.748 E27.87556
G1 X14.453 Y54.614 E27.91887
G1 X14.397 Y55.011 E27.93887
G1 X14.259 Y55.701 E27.97398
G1 X14.047 Y56.365 E28.00875
G1 X13.922 Y56.691 E28.02617
G1 X13.633 Y57.333 E28.0613
G1 X13.267 Y57.947 E28.09696
G1 X13.072 Y58.235 E28.11431
G1 X12.645 Y58.795 E28.14944
G1 X12.171 Y59.289 E28.1836
G1 X11.912 Y59.531 E28.20129
G1 X11.371 Y59.982 E28.23642
G1 X10.805 Y60.355 E28.27024
G1 X10.507 Y60.529 E28.28746
G1 X9.88 Y60.849 E28.32258
G1 X9.262 Y61.083 E28.35555
G1 X8.929 Y61.189 E28.37298
G1 X8.247 Y61.364 E28.40811
G1 X7.728 Y61.444 E28.43431
G1 X7.429 Y61.477 E28.44932
G1 X6.749 Y61.514 E28.48329
G1 X-4 Y61.514 E29.01956
G1 X-4.703 Y61.474 E29.05469
G1 X-5.397 Y61.355 E29.08982
G1 X-6.072 Y61.157 E29.12491
G1 X-6.721 Y60.885 E29.16002
G1 X-7.335 Y60.54 E29.19516
G1 X-7.906 Y60.129 E29.23026
G1 X-8.427 Y59.655 E29.2654
G1 X-8.891 Y59.125 E29.30054
G1 X-9.291 Y58.546 E29.33565
G1 X-9.623 Y57.925 E29.37078
G1 X-9.883 Y57.271 E29.4059
G1 X-10.067 Y56.591 E29.44104
G1 X-10.173 Y55.895 E29.47616
G1 X-10.2 Y55.314 E29.50518
G1 X-10.2 Y38.175 E30.36025
G1 X-10.429 Y38.721 E30.38979
G1 X-10.774 Y39.335 E30.42493
G1 X-11.185 Y39.906 E30.46003
G1 X-11.659 Y40.427 E30.49517
G1 X-12.189 Y40.891 E30.53031
G1 X-12.768 Y41.291 E30.56542
G1 X-13.389 Y41.623 E30.60055
G1 X-14.043 Y41.883 E30.63566
G1 X-14.723 Y42.067 E30.67081
G1 X-15.419 Y42.173 E30.70593
G1 X-16 Y42.2 E30.73495
G1 X-19.8 Y42.2 E30.92453
G1 X-19.8 Y55.314 E31.57879
G1 X-19.84 Y56.017 E31.61392
G1 X-19.959 Y56.711 E31.64905
G1 X-20.157 Y57.386 E31.68415
G1 X-20.429 Y58.035 E31.71925
G1 X-20.774 Y58.649 E31.75439
G1 X-21.185 Y59.22 E31.78949
G1 X-21.659 Y59.741 E31.82463
G1 X-22.189 Y60.205 E31.85977
G1 X-22.768 Y60.605 E31.89488
G1 X-23.389 Y60.937 E31.93001
G1 X-24.043 Y61.197 E31.96513
G1 X-24.723 Y61.381 E32.00027
G1 X-25.419 Y61.487 E32.0354
G1 X-26 Y61.514 E32.06441
G1 X-36.748 Y61.514 E32.60063
G1 X-37.623 Y61.452 E32.6444
G1 X-38.023 Y61.395 E32.66455
G1 X-38.713 Y61.256 E32.69967
G1 X-39.389 Y61.038 E32.73511
G1 X-39.714 Y60.912 E32.7525
G1 X-40.355 Y60.62 E32.78764
G1 X-40.949 Y60.265 E32.82216
G1 X-41.237 Y60.07 E32.83951
G1 X-41.797 Y59.643 E32.87465
G1 X-42.284 Y59.177 E32.90828
G1 X-42.525 Y58.92 E32.92585
G1 X-42.976 Y58.38 E32.96095
G1 X-43.368 Y57.784 E32.99654
G1 X-43.541 Y57.485 E33.01378
G1 X-43.859 Y56.857 E33.0489
G1 X-44.083 Y56.261 E33.08066
G1 X-44.189 Y55.928 E33.0981
G1 X-44.364 Y55.246 E33.13322
G1 X-44.443 Y54.734 E33.15907
G1 X-44.476 Y54.438 E33.17393
G1 X-44.514 Y53.751 E33.20826
G1 X-44.514 Y49.589 E33.4159
G1 X-44.607 Y48.763 E33.45737
G1 X-44.77 Y48.296 E33.48205
G1 X-45.035 Y47.875 E33.50686
G1 X-45.375 Y47.535 E33.53085
G1 X-45.797 Y47.27 E33.55571
G1 X-46.256 Y47.109 E33.57998
G1 X-47.107 Y47.014 E33.6227
G1 X-48 Y47.014 E33.66725
G1 X-48.703 Y46.974 E33.70238
G1 X-49.397 Y46.855 E33.73751
G1 X-50.072 Y46.657 E33.77261
G1 X-50.721 Y46.385 E33.80771
G1 X-51.335 Y46.04 E33.84285
G1 X-51.906 Y45.629 E33.87795
G1 X-52.427 Y45.155 E33.91309
G1 X-52.891 Y44.625 E33.94823
G1 X-53.218 Y44.152 E33.97692
G1 X-53.218 Y44.188 E33.97872
G1 X-53.258 Y44.891 E34.01385
G1 X-53.377 Y45.585 E34.04898
G1 X-53.575 Y46.26 E34.08407
G1 X-53.847 Y46.909 E34.11918
G1 X-54.174 Y47.495 E34.15266
G1 X-54.631 Y48.219 E34.19537
G1 X-54.769 Y48.545 E34.21303
G1 X-54.856 Y48.898 E34.23117
G1 X-54.904 Y49.498 E34.2612
G1 X-54.904 Y53.748 E34.47324
G1 X-54.965 Y54.614 E34.51655
G1 X-55.021 Y55.011 E34.53655
G1 X-55.159 Y55.701 E34.57166
G1 X-55.371 Y56.365 E34.60643
G1 X-55.496 Y56.691 E34.62385
G1 X-55.785 Y57.333 E34.65898
G1 X-56.151 Y57.947 E34.69464
G1 X-56.346 Y58.235 E34.71199
G1 X-56.773 Y58.795 E34.74712
G1 X-57.247 Y59.289 E34.78128
G1 X-57.506 Y59.531 E34.79896
G1 X-58.047 Y59.982 E34.8341
G1 X-58.613 Y60.355 E34.86792
G1 X-58.911 Y60.529 E34.88514
G1 X-59.538 Y60.849 E34.92026
G1 X-60.156 Y61.083 E34.95322
G1 X-60.489 Y61.189 E34.97066
G1 X-61.171 Y61.364 E35.00579
G1 X-61.69 Y61.444 E35.03199
G1 X-61.989 Y61.477 E35.04699
G1 X-62.669 Y61.514 E35.08097
G1 X-73.418 Y61.514 E35.61724
G1 X-74.121 Y61.474 E35.65237
G1 X-74.815 Y61.355 E35.6875
G1 X-75.49 Y61.157 E35.72259
G1 X-76.139 Y60.885 E35.7577
G1 X-76.753 Y60.54 E35.79284
G1 X-77.324 Y60.129 E35.82794
G1 X-77.845 Y59.655 E35.86308
G1 X-78.309 Y59.125 E35.89822
G1 X-78.709 Y58.546 E35.93333
G1 X-79.041 Y57.925 E35.96846
G1 X-79.301 Y57.271 E36.00357
G1 X-79.485 Y56.591 E36.03872
G1 X-79.591 Y55.895 E36.07384
G1 X-79.618 Y55.314 E36.10286
G1 X-79.618 Y41.687 E36.78271
G1 X-80.11 Y41.883 E36.80914
G1 X-80.79 Y42.067 E36.84428
G1 X-81.486 Y42.173 E36.87941
G1 X-82.067 Y42.2 E36.90842
G1 X-85.867 Y42.2 E37.09801
G1 X-85.867 Y55.314 E37.75227
G1 X-85.907 Y56.017 E37.78739
G1 X-86.026 Y56.711 E37.82252
G1 X-86.224 Y57.386 E37.85762
G1 X-86.496 Y58.035 E37.89273
G1 X-86.841 Y58.649 E37.92786
G1 X-87.252 Y59.22 E37.96296
G1 X-87.726 Y59.741 E37.9981
G1 X-88.256 Y60.205 E38.03325
G1 X-88.835 Y60.605 E38.06836
G1 X-89.456 Y60.937 E38.10349
G1 X-90.11 Y61.197 E38.1386
G1 X-90.79 Y61.381 E38.17374
G1 X-91.486 Y61.487 E38.20887
G1 X-92.067 Y61.514 E38.23789
G1 X-102.815 Y61.514 E38.77411
G1 X-103.69 Y61.452 E38.81787
G1 X-104.09 Y61.395 E38.83803
G1 X-104.78 Y61.256 E38.87314
G1 X-105.456 Y61.038 E38.90858
G1 X-105.781 Y60.912 E38.92597
G1 X-106.422 Y60.62 E38.96111
G1 X-107.016 Y60.265 E38.99563
G1 X-107.304 Y60.07 E39.01299
G1 X-107.864 Y59.643 E39.04812
G1 X-108.351 Y59.177 E39.08175
G1 X-108.592 Y58.92 E39.09933
G1 X-109.043 Y58.38 E39.13443
G1 X-109.435 Y57.784 E39.17002
G1 X-109.608 Y57.485 E39.18725
G1 X-109.926 Y56.857 E39.22237
G1 X-110.15 Y56.261 E39.25413
G1 X-110.256 Y55.928 E39.27157
G1 X-110.431 Y55.246 E39.3067
G1 X-110.51 Y54.734 E39.33254
G1 X-110.543 Y54.438 E39.3474
G1 X-110.581 Y53.751 E39.38173
G1 X-110.581 Y49.594 E39.58912
G1 X-110.675 Y48.762 E39.6309
G1 X-110.838 Y48.295 E39.65557
G1 X-111.102 Y47.875 E39.68032
G1 X-111.442 Y47.535 E39.70431
G1 X-111.865 Y47.269 E39.72924
G1 X-112.321 Y47.109 E39.75335
G1 X-113.175 Y47.014 E39.79622
G1 X-114.067 Y47.014 E39.84072
G1 X-114.77 Y46.974 E39.87585
