;FLAVOR:Marlin
;TIME:4957
;Filament used: 6.81033m
;Layer height: 0.3
;MINX:-120.044
;MINY:-71.113
;MINZ:0.3
;MAXX:-47.266
;MAXY:56.907
;MAXZ:21.9
;Generated with Cura_SteamEngine 4.7.1
M140 S50
M105
M190 S50
M104 S250
M105
M109 S250
M82 ;absolute extrusion mode
G28 ;Home
G1 Z15.0 F6000 ;Move the platform down 15mm
;Prime the extruder
G92 E0
G1 F200 E3
G92 E0
G92 E0
G92 E0
G1 F1500 E-6.5
;LAYER_COUNT:73
;LAYER:0
M107
G0 F3600 X-82.866 Y-26.007 Z0.3
;TYPE:SKIRT
G1 F1500 E0
G1 F1800 X-82.866 Y-35.999 E0.4985
G1 X-82.826 Y-36.788 E0.53792
G1 X-82.707 Y-37.568 E0.57728
G1 X-82.509 Y-38.333 E0.61671
G1 X-82.26 Y-39.006 E0.65251
G1 X-82.38 Y-39.285 E0.66766
G1 X-82.617 Y-40.038 E0.70704
G1 X-82.776 Y-40.812 E0.74646
G1 X-82.788 Y-40.925 E0.75213
G1 X-82.801 Y-40.873 E0.75481
G1 X-83.075 Y-40.133 E0.79418
G1 X-83.423 Y-39.424 E0.83358
G1 X-83.841 Y-38.753 E0.87302
G1 X-84.324 Y-38.129 E0.91239
G1 X-84.867 Y-37.556 E0.95177
G1 X-85.466 Y-37.041 E0.99118
G1 X-86.114 Y-36.59 E1.03057
G1 X-86.805 Y-36.206 E1.07001
G1 X-87.53 Y-35.894 E1.10939
G1 X-88.283 Y-35.657 E1.14877
G1 X-89.057 Y-35.498 E1.18819
G1 X-89.842 Y-35.417 E1.22756
G1 X-90.244 Y-35.407 E1.24763
G1 X-94.444 Y-35.407 E1.45717
G1 X-94.444 Y-26.007 E1.92613
G1 X-82.866 Y-26.007 E2.50376
G0 F3600 X-82.466 Y-25.607
G1 F1800 X-82.466 Y-35.999 E3.02222
G1 X-82.426 Y-36.767 E3.06059
G1 X-82.307 Y-37.527 E3.09897
G1 X-82.109 Y-38.27 E3.13733
G1 X-81.835 Y-38.989 E3.17572
G1 X-81.829 Y-39.001 E3.17639
G1 X-82.084 Y-39.65 E3.21117
G1 X-82.29 Y-40.392 E3.24959
G1 X-82.418 Y-41.15 E3.28795
G1 X-82.467 Y-42 E3.33042
G1 X-82.466 Y-49 E3.67965
G1 X-82.426 Y-49.768 E3.71802
G1 X-82.306 Y-50.528 E3.75641
G1 X-82.109 Y-51.271 E3.79476
G1 X-81.835 Y-51.99 E3.83314
G1 X-81.488 Y-52.676 E3.8715
G1 X-81.071 Y-53.323 E3.9099
G1 X-80.59 Y-53.923 E3.94827
G1 X-80.049 Y-54.47 E3.98665
G1 X-79.454 Y-54.958 E4.02504
G1 X-78.812 Y-55.381 E4.0634
G1 X-78.129 Y-55.735 E4.10178
G1 X-77.414 Y-56.017 E4.14012
G1 X-76.672 Y-56.223 E4.17854
G1 X-76.466 Y-56.257 E4.18896
G1 X-76.466 Y-63.314 E4.54103
G1 X-76.426 Y-64.082 E4.5794
G1 X-76.306 Y-64.841 E4.61774
G1 X-76.109 Y-65.585 E4.65614
G1 X-75.835 Y-66.303 E4.69448
G1 X-75.488 Y-66.99 E4.73288
G1 X-75.071 Y-67.637 E4.77128
G1 X-74.59 Y-68.237 E4.80964
G1 X-74.049 Y-68.783 E4.84799
G1 X-73.455 Y-69.271 E4.88634
G1 X-72.812 Y-69.695 E4.92477
G1 X-72.13 Y-70.049 E4.96311
G1 X-71.414 Y-70.331 E5.0015
G1 X-70.673 Y-70.536 E5.03985
G1 X-69.914 Y-70.664 E5.07826
G1 X-69.066 Y-70.713 E5.12063
G1 X-58.319 Y-70.713 E5.6568
G1 X-57.285 Y-70.64 E5.70852
G1 X-56.888 Y-70.584 E5.72852
G1 X-56.133 Y-70.438 E5.76689
G1 X-55.254 Y-70.159 E5.8129
G1 X-54.928 Y-70.033 E5.83033
G1 X-54.226 Y-69.719 E5.8687
G1 X-53.476 Y-69.278 E5.91211
G1 X-53.188 Y-69.085 E5.9294
G1 X-52.573 Y-68.624 E5.96775
G1 X-51.911 Y-68.001 E6.0131
G1 X-51.669 Y-67.743 E6.03075
G1 X-51.172 Y-67.155 E6.06916
G1 X-50.681 Y-66.421 E6.11322
G1 X-50.507 Y-66.124 E6.13039
G1 X-50.153 Y-65.441 E6.16877
G1 X-49.839 Y-64.621 E6.21258
G1 X-49.733 Y-64.287 E6.23006
G1 X-49.538 Y-63.543 E6.26843
G1 X-49.433 Y-62.885 E6.30167
G1 X-49.399 Y-62.586 E6.31669
G1 X-49.352 Y-61.748 E6.35856
G1 X-49.353 Y-57.544 E6.5683
G1 X-49.277 Y-56.924 E6.59946
G1 X-49.216 Y-56.78 E6.60726
G1 X-48.808 Y-56.134 E6.64538
G1 X-48.432 Y-55.463 E6.68376
G1 X-48.128 Y-54.757 E6.72211
G1 X-47.898 Y-54.023 E6.76048
G1 X-47.746 Y-53.269 E6.79886
G1 X-47.667 Y-52.187 E6.85298
G1 X-47.666 Y23.373 E10.62268
G1 X-47.667 Y36.189 E11.26208
G1 X-47.707 Y36.957 E11.30044
G1 X-47.826 Y37.717 E11.33882
G1 X-48.024 Y38.46 E11.37719
G1 X-48.298 Y39.179 E11.41557
G1 X-48.807 Y40.135 E11.46961
G1 X-49.216 Y40.784 E11.50788
G1 X-49.315 Y41.081 E11.5235
G1 X-49.353 Y41.564 E11.54767
G1 X-49.353 Y45.749 E11.75646
G1 X-49.426 Y46.788 E11.80842
G1 X-49.482 Y47.183 E11.82833
G1 X-49.63 Y47.938 E11.86671
G1 X-49.895 Y48.782 E11.91085
G1 X-50.019 Y49.107 E11.9282
G1 X-50.33 Y49.81 E11.96655
G1 X-50.792 Y50.598 E12.01212
G1 X-50.987 Y50.888 E12.02956
G1 X-51.449 Y51.503 E12.06793
G1 X-52.065 Y52.156 E12.11272
G1 X-52.323 Y52.398 E12.13037
G1 X-52.911 Y52.895 E12.16878
G1 X-53.664 Y53.397 E12.21393
G1 X-53.963 Y53.571 E12.23119
G1 X-54.647 Y53.923 E12.26957
G1 X-55.434 Y54.224 E12.3116
G1 X-55.766 Y54.33 E12.32899
G1 X-56.51 Y54.526 E12.36738
G1 X-57.184 Y54.634 E12.40143
G1 X-57.484 Y54.668 E12.41649
G1 X-58.317 Y54.715 E12.45812
G1 X-69.067 Y54.715 E12.99444
G1 X-69.835 Y54.675 E13.03281
G1 X-70.595 Y54.556 E13.07118
G1 X-71.338 Y54.358 E13.10955
G1 X-72.057 Y54.084 E13.14793
G1 X-72.743 Y53.737 E13.18629
G1 X-73.39 Y53.321 E13.22466
G1 X-73.99 Y52.84 E13.26303
G1 X-74.537 Y52.299 E13.30141
G1 X-75.025 Y51.704 E13.3398
G1 X-75.448 Y51.062 E13.37816
G1 X-75.803 Y50.379 E13.41656
G1 X-76.084 Y49.664 E13.45489
G1 X-76.29 Y48.922 E13.49331
G1 X-76.418 Y48.164 E13.53166
G1 X-76.467 Y47.315 E13.57409
G1 X-76.467 Y36.154 E14.13091
G1 X-76.497 Y36.174 E14.13271
G1 X-77.18 Y36.529 E14.17112
G1 X-77.895 Y36.81 E14.20944
G1 X-78.637 Y37.016 E14.24786
G1 X-79.395 Y37.144 E14.28621
G1 X-80.244 Y37.193 E14.32864
G1 X-82.844 Y37.193 E14.45836
G1 X-82.844 Y49.107 E15.05275
G1 X-82.884 Y49.875 E15.09111
G1 X-83.003 Y50.635 E15.12949
G1 X-83.201 Y51.378 E15.16786
G1 X-83.475 Y52.097 E15.20624
G1 X-83.822 Y52.783 E15.2446
G1 X-84.238 Y53.43 E15.28297
G1 X-84.719 Y54.03 E15.32134
G1 X-85.26 Y54.577 E15.35972
G1 X-85.855 Y55.065 E15.39811
G1 X-86.497 Y55.488 E15.43647
G1 X-87.18 Y55.843 E15.47487
G1 X-87.895 Y56.124 E15.5132
G1 X-88.637 Y56.33 E15.55162
G1 X-89.395 Y56.458 E15.58997
G1 X-90.244 Y56.507 E15.6324
G1 X-100.992 Y56.507 E16.16862
G1 X-102.054 Y56.43 E16.22174
G1 X-102.454 Y56.372 E16.2419
G1 X-103.208 Y56.223 E16.28025
G1 X-104.048 Y55.956 E16.32422
G1 X-104.373 Y55.831 E16.3416
G1 X-105.076 Y55.518 E16.37999
G1 X-105.88 Y55.042 E16.4266
G1 X-106.168 Y54.846 E16.44398
G1 X-106.781 Y54.38 E16.4824
G1 X-107.413 Y53.779 E16.52591
G1 X-107.653 Y53.522 E16.54345
G1 X-108.148 Y52.933 E16.58184
G1 X-108.641 Y52.193 E16.6262
G1 X-108.815 Y51.894 E16.64346
G1 X-109.167 Y51.21 E16.68184
G1 X-109.475 Y50.403 E16.72493
G1 X-109.58 Y50.071 E16.7423
G1 X-109.773 Y49.327 E16.78065
G1 X-109.876 Y48.684 E16.81314
G1 X-109.91 Y48.388 E16.828
G1 X-109.958 Y47.544 E16.87018
G1 X-109.958 Y43.454 E17.07423
G1 X-110.029 Y42.82 E17.10606
G1 X-110.218 Y42.426 E17.12786
G1 X-110.558 Y42.153 E17.14961
G1 X-110.771 Y42.079 E17.16086
G1 X-111.414 Y42.007 E17.19314
G1 X-112.244 Y42.007 E17.23455
G1 X-113.012 Y41.967 E17.27292
G1 X-113.772 Y41.848 E17.3113
G1 X-114.515 Y41.65 E17.34966
G1 X-115.234 Y41.376 E17.38805
G1 X-115.92 Y41.029 E17.4264
G1 X-116.567 Y40.613 E17.46478
G1 X-117.167 Y40.132 E17.50314
G1 X-117.714 Y39.591 E17.54152
G1 X-118.202 Y38.996 E17.57992
G1 X-118.625 Y38.354 E17.61827
G1 X-118.98 Y37.671 E17.65668
G1 X-119.261 Y36.956 E17.695
G1 X-119.467 Y36.214 E17.73342
G1 X-119.595 Y35.456 E17.77177
G1 X-119.644 Y34.607 E17.8142
G1 X-119.644 Y-47.021 E21.88664
G1 X-119.604 Y-47.789 E21.92501
G1 X-119.485 Y-48.549 E21.96339
G1 X-119.287 Y-49.292 E22.00175
G1 X-119.013 Y-50.011 E22.04013
G1 X-118.666 Y-50.697 E22.07849
G1 X-118.25 Y-51.344 E22.11686
G1 X-117.769 Y-51.944 E22.15523
G1 X-117.228 Y-52.491 E22.19361
G1 X-116.633 Y-52.979 E22.232
G1 X-115.991 Y-53.402 E22.27036
G1 X-115.308 Y-53.757 E22.30876
G1 X-114.593 Y-54.038 E22.34709
G1 X-113.851 Y-54.244 E22.38551
G1 X-113.093 Y-54.372 E22.42386
G1 X-112.244 Y-54.421 E22.46629
G1 X-111.407 Y-54.421 E22.50805
G1 X-110.775 Y-54.492 E22.53978
G1 X-110.562 Y-54.566 E22.55103
G1 X-110.217 Y-54.841 E22.57304
G1 X-110.03 Y-55.233 E22.59471
G1 X-109.958 Y-55.882 E22.62728
G1 X-109.958 Y-59.955 E22.83049
G1 X-109.883 Y-61.004 E22.88295
G1 X-109.826 Y-61.402 E22.90301
G1 X-109.678 Y-62.157 E22.9414
G1 X-109.408 Y-63.009 E22.98599
G1 X-109.283 Y-63.334 E23.00336
G1 X-108.97 Y-64.037 E23.04175
G1 X-108.5 Y-64.832 E23.08783
G1 X-108.304 Y-65.121 E23.10525
G1 X-107.84 Y-65.734 E23.1436
G1 X-107.243 Y-66.364 E23.18691
G1 X-106.985 Y-66.606 E23.20455
G1 X-106.397 Y-67.103 E23.24296
G1 X-105.628 Y-67.614 E23.28903
G1 X-105.329 Y-67.787 E23.30626
G1 X-104.644 Y-68.137 E23.34464
G1 X-103.874 Y-68.431 E23.38576
G1 X-103.542 Y-68.537 E23.40315
G1 X-102.798 Y-68.733 E23.44153
G1 X-102.105 Y-68.843 E23.47654
G1 X-101.807 Y-68.876 E23.4915
G1 X-100.993 Y-68.921 E23.53217
G1 X-90.244 Y-68.921 E24.06844
G1 X-89.476 Y-68.881 E24.10681
G1 X-88.716 Y-68.762 E24.14519
G1 X-87.973 Y-68.564 E24.18355
G1 X-87.254 Y-68.29 E24.22193
G1 X-86.568 Y-67.943 E24.26029
G1 X-85.921 Y-67.527 E24.29866
G1 X-85.321 Y-67.046 E24.33703
G1 X-84.774 Y-66.505 E24.37541
G1 X-84.286 Y-65.91 E24.4138
G1 X-83.863 Y-65.268 E24.45216
G1 X-83.508 Y-64.585 E24.49056
G1 X-83.227 Y-63.87 E24.52889
G1 X-83.021 Y-63.128 E24.56731
G1 X-82.893 Y-62.37 E24.60566
G1 X-82.844 Y-61.521 E24.64809
G1 X-82.844 Y-43.207 E25.56178
G1 X-82.884 Y-42.439 E25.60015
G1 X-83.003 Y-41.679 E25.63853
G1 X-83.201 Y-40.936 E25.67689
G1 X-83.475 Y-40.217 E25.71527
G1 X-83.822 Y-39.531 E25.75363
G1 X-84.238 Y-38.884 E25.792
G1 X-84.719 Y-38.284 E25.83037
G1 X-85.26 Y-37.737 E25.86875
G1 X-85.855 Y-37.249 E25.90714
G1 X-86.497 Y-36.826 E25.9455
G1 X-87.18 Y-36.471 E25.9839
G1 X-87.895 Y-36.19 E26.02223
G1 X-88.637 Y-35.984 E26.06065
G1 X-89.395 Y-35.856 E26.099
G1 X-90.244 Y-35.807 E26.14143
G1 X-94.844 Y-35.807 E26.37092
G1 X-94.844 Y-25.607 E26.8798
G1 X-82.466 Y-25.607 E27.49735
G0 F3600 X-82.066 Y-25.207
G1 F1800 X-82.066 Y-35.999 E28.03576
G1 X-82.026 Y-36.746 E28.07308
G1 X-81.907 Y-37.484 E28.11038
G1 X-81.709 Y-38.206 E28.14773
G1 X-81.436 Y-38.902 E28.18503
G1 X-81.383 Y-39.003 E28.19072
G1 X-81.529 Y-39.307 E28.20754
G1 X-81.779 Y-40.012 E28.24486
G1 X-81.953 Y-40.74 E28.2822
G1 X-82.048 Y-41.482 E28.31952
G1 X-82.067 Y-42 E28.34538
G1 X-82.066 Y-49 E28.69462
G1 X-82.026 Y-49.747 E28.73194
G1 X-81.906 Y-50.485 E28.76924
G1 X-81.709 Y-51.207 E28.80658
G1 X-81.435 Y-51.903 E28.8439
G1 X-81.089 Y-52.566 E28.88121
G1 X-80.674 Y-53.189 E28.91855
G1 X-80.195 Y-53.763 E28.95585
G1 X-79.657 Y-54.283 E28.99318
G1 X-79.067 Y-54.743 E29.0305
G1 X-78.431 Y-55.137 E29.06783
G1 X-77.757 Y-55.461 E29.10514
G1 X-77.052 Y-55.711 E29.14246
G1 X-76.324 Y-55.885 E29.1798
G1 X-76.067 Y-55.918 E29.19273
G1 X-76.066 Y-63.313 E29.56167
G1 X-76.026 Y-64.06 E29.59899
G1 X-75.906 Y-64.799 E29.63634
G1 X-75.709 Y-65.52 E29.67363
G1 X-75.435 Y-66.217 E29.71099
G1 X-75.089 Y-66.88 E29.7483
G1 X-74.674 Y-67.502 E29.78561
G1 X-74.195 Y-68.077 E29.82294
G1 X-73.657 Y-68.597 E29.86027
G1 X-73.067 Y-69.057 E29.8976
G1 X-72.432 Y-69.451 E29.93488
G1 X-71.757 Y-69.775 E29.97223
G1 X-71.052 Y-70.025 E30.00955
G1 X-70.325 Y-70.199 E30.04685
G1 X-69.583 Y-70.294 E30.08417
G1 X-69.066 Y-70.313 E30.10998
G1 X-58.319 Y-70.313 E30.64615
G1 X-57.341 Y-70.244 E30.69506
G1 X-56.944 Y-70.188 E30.71507
G1 X-56.21 Y-70.044 E30.75238
G1 X-55.398 Y-69.786 E30.79489
G1 X-55.072 Y-69.66 E30.81233
G1 X-54.39 Y-69.354 E30.84962
G1 X-53.699 Y-68.946 E30.88965
G1 X-53.411 Y-68.753 E30.90695
G1 X-52.813 Y-68.304 E30.94426
G1 X-52.202 Y-67.727 E30.98619
G1 X-51.96 Y-67.469 E31.00383
G1 X-51.479 Y-66.897 E31.04112
G1 X-51.026 Y-66.218 E31.08184
G1 X-50.852 Y-65.921 E31.09902
G1 X-50.509 Y-65.257 E31.1363
G1 X-50.22 Y-64.5 E31.17673
G1 X-50.114 Y-64.166 E31.19421
G1 X-49.926 Y-63.442 E31.23153
G1 X-49.831 Y-62.84 E31.26193
G1 X-49.797 Y-62.541 E31.27695
G1 X-49.752 Y-61.748 E31.31657
G1 X-49.753 Y-57.524 E31.52731
G1 X-49.713 Y-57.019 E31.55258
G1 X-49.573 Y-56.597 E31.57476
G1 X-49.146 Y-55.921 E31.61465
G1 X-48.781 Y-55.268 E31.65198
G1 X-48.489 Y-54.58 E31.68927
G1 X-48.271 Y-53.864 E31.72661
G1 X-48.131 Y-53.129 E31.76393
G1 X-48.067 Y-52.187 E31.81104
G1 X-48.066 Y23.373 E35.58074
G1 X-48.067 Y36.189 E36.22014
G1 X-48.107 Y36.936 E36.25746
G1 X-48.226 Y37.674 E36.29475
G1 X-48.424 Y38.396 E36.3321
G1 X-48.697 Y39.092 E36.3694
G1 X-49.145 Y39.922 E36.41646
G1 X-49.57 Y40.596 E36.45621
G1 X-49.712 Y41.023 E36.47866
G1 X-49.753 Y41.544 E36.50473
G1 X-49.753 Y45.749 E36.71452
G1 X-49.822 Y46.732 E36.76368
G1 X-49.878 Y47.127 E36.78359
G1 X-50.023 Y47.861 E36.82092
G1 X-50.269 Y48.639 E36.86162
G1 X-50.393 Y48.964 E36.87898
G1 X-50.696 Y49.648 E36.9163
G1 X-51.124 Y50.375 E36.95839
G1 X-51.319 Y50.665 E36.97583
G1 X-51.769 Y51.263 E37.01316
G1 X-52.339 Y51.865 E37.05452
G1 X-52.597 Y52.107 E37.07217
G1 X-53.169 Y52.588 E37.10946
G1 X-53.865 Y53.051 E37.15116
G1 X-54.164 Y53.225 E37.16842
G1 X-54.83 Y53.566 E37.20575
G1 X-55.556 Y53.843 E37.24452
G1 X-55.888 Y53.949 E37.26191
G1 X-56.612 Y54.138 E37.29924
G1 X-57.229 Y54.236 E37.3304
G1 X-57.529 Y54.27 E37.34547
G1 X-58.317 Y54.315 E37.38484
G1 X-69.067 Y54.315 E37.92116
G1 X-69.814 Y54.275 E37.95849
G1 X-70.552 Y54.156 E37.99578
G1 X-71.274 Y53.958 E38.03313
G1 X-71.97 Y53.685 E38.07043
G1 X-72.633 Y53.338 E38.10776
G1 X-73.256 Y52.923 E38.14511
G1 X-73.83 Y52.444 E38.18241
G1 X-74.351 Y51.907 E38.21974
G1 X-74.81 Y51.317 E38.25703
G1 X-75.205 Y50.681 E38.29438
G1 X-75.529 Y50.007 E38.33169
G1 X-75.779 Y49.302 E38.36901
G1 X-75.953 Y48.574 E38.40635
G1 X-76.048 Y47.832 E38.44367
G1 X-76.067 Y47.315 E38.46948
G1 X-76.067 Y35.4 E39.06393
G1 X-76.242 Y35.536 E39.07498
G1 X-76.878 Y35.931 E39.11234
G1 X-77.552 Y36.255 E39.14964
G1 X-78.257 Y36.505 E39.18696
G1 X-78.985 Y36.679 E39.22431
G1 X-79.727 Y36.774 E39.26163
G1 X-80.244 Y36.793 E39.28744
G1 X-83.244 Y36.793 E39.43711
G1 X-83.244 Y49.107 E40.05146
G1 X-83.284 Y49.854 E40.08878
G1 X-83.403 Y50.592 E40.12607
G1 X-83.601 Y51.314 E40.16342
G1 X-83.874 Y52.01 E40.20072
G1 X-84.221 Y52.673 E40.23806
G1 X-84.636 Y53.296 E40.2754
G1 X-85.115 Y53.87 E40.3127
G1 X-85.652 Y54.391 E40.35003
G1 X-86.242 Y54.85 E40.38732
G1 X-86.878 Y55.245 E40.42467
G1 X-87.552 Y55.569 E40.46198
G1 X-88.257 Y55.819 E40.4993
G1 X-88.985 Y55.993 E40.53665
G1 X-89.727 Y56.088 E40.57397
G1 X-90.244 Y56.107 E40.59978
G1 X-100.992 Y56.107 E41.136
G1 X-101.996 Y56.035 E41.18621
G1 X-102.396 Y55.977 E41.20638
G1 X-103.13 Y55.83 E41.24373
G1 X-103.905 Y55.582 E41.28432
G1 X-104.23 Y55.457 E41.30169
G1 X-104.913 Y55.152 E41.33901
G1 X-105.655 Y54.711 E41.38208
G1 X-105.943 Y54.515 E41.39946
G1 X-106.538 Y54.062 E41.43677
G1 X-107.121 Y53.506 E41.47696
G1 X-107.361 Y53.249 E41.4945
G1 X-107.842 Y52.675 E41.53186
G1 X-108.295 Y51.992 E41.57275
G1 X-108.469 Y51.693 E41.59001
G1 X-108.81 Y51.027 E41.62734
G1 X-109.093 Y50.283 E41.66705
G1 X-109.198 Y49.951 E41.68443
G1 X-109.385 Y49.227 E41.72173
G1 X-109.478 Y48.639 E41.75143
G1 X-109.512 Y48.343 E41.7663
G1 X-109.558 Y47.544 E41.80622
G1 X-109.558 Y43.427 E42.01162
G1 X-109.636 Y42.735 E42.04636
G1 X-109.74 Y42.438 E42.06206
G1 X-109.907 Y42.171 E42.07778
G1 X-110.122 Y41.956 E42.09295
G1 X-110.39 Y41.788 E42.10873
G1 X-110.678 Y41.687 E42.12395
G1 X-111.396 Y41.607 E42.15999
G1 X-112.244 Y41.607 E42.2023
G1 X-112.991 Y41.567 E42.23962
G1 X-113.729 Y41.448 E42.27692
G1 X-114.451 Y41.25 E42.31427
G1 X-115.147 Y40.977 E42.35157
G1 X-115.81 Y40.63 E42.3889
G1 X-116.433 Y40.215 E42.42625
G1 X-117.007 Y39.736 E42.46355
G1 X-117.528 Y39.199 E42.50087
G1 X-117.987 Y38.609 E42.53817
G1 X-118.382 Y37.973 E42.57552
G1 X-118.706 Y37.299 E42.61283
G1 X-118.956 Y36.594 E42.65015
G1 X-119.13 Y35.866 E42.68749
G1 X-119.225 Y35.124 E42.72481
G1 X-119.244 Y34.607 E42.75062
G1 X-119.244 Y-47.021 E46.82306
G1 X-119.204 Y-47.768 E46.86038
G1 X-119.085 Y-48.506 E46.89768
G1 X-118.887 Y-49.228 E46.93503
G1 X-118.614 Y-49.924 E46.97233
G1 X-118.267 Y-50.587 E47.00966
G1 X-117.852 Y-51.21 E47.04701
G1 X-117.373 Y-51.784 E47.0843
G1 X-116.836 Y-52.305 E47.12163
G1 X-116.246 Y-52.764 E47.15893
G1 X-115.61 Y-53.159 E47.19628
G1 X-114.936 Y-53.483 E47.23359
G1 X-114.231 Y-53.733 E47.2709
G1 X-113.503 Y-53.907 E47.30825
G1 X-112.761 Y-54.002 E47.34557
G1 X-112.244 Y-54.021 E47.37138
G1 X-111.381 Y-54.021 E47.41443
G1 X-110.685 Y-54.099 E47.44938
G1 X-110.387 Y-54.203 E47.46512
G1 X-110.124 Y-54.369 E47.48064
G1 X-109.906 Y-54.586 E47.49598
G1 X-109.739 Y-54.853 E47.5117
G1 X-109.637 Y-55.144 E47.52708
G1 X-109.558 Y-55.855 E47.56277
