;FLAVOR:Marlin
;TIME:4955
;Filament used: 6.81762m
;Layer height: 0.3
;MINX:-121.867
;MINY:-63.114
;MINZ:0.3
;MAXX:-51.618
;MAXY:63.114
;MAXZ:21.9
;Generated with Cura_SteamEngine 4.7.1
M140 S50
M105
M190 S50
M104 S250
M105
M109 S250
M82 ;absolute extrusion mode
G28 ;Home
G1 Z15.0 F6000 ;Move the platform down 15mm
;Prime the extruder
G92 E0
G1 F200 E3
G92 E0
G92 E0
G92 E0
G1 F1500 E-6.5
;LAYER_COUNT:73
;LAYER:0
M107
G0 F3600 X-87.218 Y-19.8 Z0.3
;TYPE:SKIRT
G1 F1500 E0
G1 F1800 X-87.218 Y-28 E0.4091
G1 X-87.178 Y-28.789 E0.44851
G1 X-87.059 Y-29.569 E0.48788
G1 X-86.861 Y-30.334 E0.5273
G1 X-86.611 Y-31.008 E0.56317
G1 X-86.738 Y-31.308 E0.57942
G1 X-87.289 Y-30.834 E0.61568
G1 X-87.937 Y-30.383 E0.65507
G1 X-88.628 Y-29.999 E0.69451
G1 X-89.353 Y-29.687 E0.73389
G1 X-90.106 Y-29.45 E0.77327
G1 X-90.88 Y-29.291 E0.81269
G1 X-91.665 Y-29.21 E0.85206
G1 X-92.067 Y-29.2 E0.87213
G1 X-96.267 Y-29.2 E1.08166
G1 X-96.267 Y-19.8 E1.55063
G1 X-87.218 Y-19.8 E2.00209
G0 F3600 X-86.818 Y-19.4
G1 F1800 X-86.818 Y-28 E2.43114
G1 X-86.778 Y-28.768 E2.46951
G1 X-86.659 Y-29.528 E2.50789
G1 X-86.461 Y-30.271 E2.54625
G1 X-86.187 Y-30.99 E2.58464
G1 X-86.18 Y-31.003 E2.58538
G1 X-86.435 Y-31.651 E2.62012
G1 X-86.551 Y-32.068 E2.64171
G1 X-87.083 Y-31.53 E2.67946
G1 X-87.678 Y-31.042 E2.71785
G1 X-88.32 Y-30.619 E2.75621
G1 X-89.003 Y-30.264 E2.79461
G1 X-89.718 Y-29.983 E2.83294
G1 X-90.46 Y-29.777 E2.87136
G1 X-91.218 Y-29.649 E2.90971
G1 X-92.067 Y-29.6 E2.95214
G1 X-96.667 Y-29.6 E3.18163
G1 X-96.667 Y-19.4 E3.69051
G1 X-86.818 Y-19.4 E4.18188
G0 F3600 X-86.418 Y-19
G1 F1800 X-86.418 Y-28 E4.63089
G1 X-86.378 Y-28.747 E4.66821
G1 X-86.259 Y-29.485 E4.70551
G1 X-86.061 Y-30.207 E4.74286
G1 X-85.788 Y-30.903 E4.78016
G1 X-85.734 Y-31.005 E4.78592
G1 X-85.88 Y-31.308 E4.8027
G1 X-86.13 Y-32.013 E4.84002
G1 X-86.304 Y-32.741 E4.87736
G1 X-86.337 Y-32.995 E4.89014
G1 X-86.459 Y-32.811 E4.90115
G1 X-86.938 Y-32.237 E4.93845
G1 X-87.475 Y-31.716 E4.97578
G1 X-88.065 Y-31.257 E5.01307
G1 X-88.701 Y-30.862 E5.05042
G1 X-89.375 Y-30.538 E5.08773
G1 X-90.08 Y-30.288 E5.12505
G1 X-90.808 Y-30.114 E5.16239
G1 X-91.55 Y-30.019 E5.19972
G1 X-92.067 Y-30 E5.22553
G1 X-97.067 Y-30 E5.47498
G1 X-97.067 Y-19 E6.02377
G1 X-86.418 Y-19 E6.55505
G0 F3600 X-86.018 Y-18.6
G1 F1800 X-86.018 Y-28 E7.02402
G1 X-85.978 Y-28.725 E7.06024
G1 X-85.859 Y-29.442 E7.0965
G1 X-85.661 Y-30.141 E7.13275
G1 X-85.388 Y-30.814 E7.16898
G1 X-85.303 Y-31.013 E7.17978
G1 X-85.596 Y-31.678 E7.21603
G1 X-85.814 Y-32.371 E7.25228
G1 X-85.954 Y-33.083 E7.28848
G1 X-86.018 Y-34 E7.33434
G1 X-86.018 Y-34.381 E7.35335
G1 X-86.097 Y-34.186 E7.36384
G1 X-86.442 Y-33.547 E7.40007
G1 X-86.856 Y-32.95 E7.43632
G1 X-87.332 Y-32.402 E7.47253
G1 X-87.866 Y-31.909 E7.50879
G1 X-88.451 Y-31.479 E7.54501
G1 X-89.08 Y-31.115 E7.58127
G1 X-89.745 Y-30.822 E7.61753
G1 X-90.438 Y-30.604 E7.65377
G1 X-91.15 Y-30.464 E7.68997
G1 X-92.067 Y-30.4 E7.73583
G1 X-97.467 Y-30.4 E8.00524
G1 X-97.467 Y-18.6 E8.59394
G1 X-86.018 Y-18.6 E9.16514
G0 F3600 X-85.618 Y-18.2
G1 F1800 X-85.618 Y-28 E9.65406
G1 X-85.578 Y-28.703 E9.68919
G1 X-85.459 Y-29.397 E9.72432
G1 X-85.261 Y-30.072 E9.75941
G1 X-84.989 Y-30.721 E9.79452
G1 X-84.833 Y-30.999 E9.81043
G1 X-85.041 Y-31.389 E9.83248
G1 X-85.301 Y-32.043 E9.86759
G1 X-85.485 Y-32.723 E9.90273
G1 X-85.591 Y-33.419 E9.93786
G1 X-85.618 Y-34 E9.96688
G1 X-85.618 Y-41 E10.31611
G1 X-85.578 Y-41.703 E10.35124
G1 X-85.459 Y-42.397 E10.38637
G1 X-85.261 Y-43.072 E10.42146
G1 X-84.989 Y-43.721 E10.45657
G1 X-84.644 Y-44.335 E10.49171
G1 X-84.233 Y-44.906 E10.52681
G1 X-83.759 Y-45.427 E10.56195
G1 X-83.229 Y-45.891 E10.59709
G1 X-82.65 Y-46.291 E10.6322
G1 X-82.029 Y-46.623 E10.66733
G1 X-81.375 Y-46.883 E10.70244
G1 X-80.695 Y-47.067 E10.73759
G1 X-79.999 Y-47.173 E10.77271
G1 X-79.618 Y-47.191 E10.79174
G1 X-79.618 Y-55.314 E11.197
G1 X-79.578 Y-56.017 E11.23213
G1 X-79.459 Y-56.711 E11.26726
G1 X-79.261 Y-57.386 E11.30235
G1 X-78.989 Y-58.035 E11.33746
G1 X-78.644 Y-58.649 E11.3726
G1 X-78.233 Y-59.22 E11.4077
G1 X-77.759 Y-59.741 E11.44284
G1 X-77.229 Y-60.205 E11.47798
G1 X-76.65 Y-60.605 E11.51309
G1 X-76.029 Y-60.937 E11.54822
G1 X-75.375 Y-61.197 E11.58333
G1 X-74.695 Y-61.381 E11.61848
G1 X-73.999 Y-61.487 E11.6536
G1 X-73.418 Y-61.514 E11.68262
G1 X-62.67 Y-61.514 E12.21884
G1 X-61.793 Y-61.452 E12.2627
G1 X-61.394 Y-61.395 E12.28281
G1 X-60.704 Y-61.256 E12.31793
G1 X-60.051 Y-61.046 E12.35215
G1 X-59.725 Y-60.921 E12.36957
G1 X-59.083 Y-60.632 E12.40469
G1 X-58.465 Y-60.263 E12.4406
G1 X-58.179 Y-60.069 E12.45784
G1 X-57.619 Y-59.641 E12.49301
G1 X-57.129 Y-59.171 E12.52688
G1 X-56.887 Y-58.912 E12.54457
G1 X-56.436 Y-58.371 E12.57971
G1 X-56.067 Y-57.813 E12.61308
G1 X-55.893 Y-57.516 E12.63025
G1 X-55.573 Y-56.889 E12.66537
G1 X-55.335 Y-56.263 E12.69879
G1 X-55.229 Y-55.93 E12.71622
G1 X-55.054 Y-55.248 E12.75135
G1 X-54.975 Y-54.731 E12.77744
G1 X-54.942 Y-54.433 E12.7924
G1 X-54.904 Y-53.751 E12.82648
G1 X-54.904 Y-49.497 E13.03871
G1 X-54.855 Y-48.889 E13.06914
G1 X-54.771 Y-48.55 E13.08656
G1 X-54.631 Y-48.219 E13.10449
G1 X-54.174 Y-47.495 E13.14721
G1 X-53.833 Y-46.879 E13.18234
G1 X-53.564 Y-46.229 E13.21743
G1 X-53.37 Y-45.552 E13.25257
G1 X-53.254 Y-44.858 E13.28767
G1 X-53.218 Y-44.188 E13.32115
G1 X-53.218 Y44.188 E17.73024
G1 X-53.258 Y44.891 E17.76537
G1 X-53.377 Y45.585 E17.8005
G1 X-53.575 Y46.26 E17.8356
G1 X-53.847 Y46.909 E17.8707
G1 X-54.174 Y47.495 E17.90418
G1 X-54.631 Y48.219 E17.9469
G1 X-54.769 Y48.545 E17.96456
G1 X-54.856 Y48.898 E17.9827
G1 X-54.904 Y49.498 E18.01273
G1 X-54.904 Y53.748 E18.22476
G1 X-54.965 Y54.614 E18.26807
G1 X-55.021 Y55.011 E18.28807
G1 X-55.159 Y55.701 E18.32318
G1 X-55.371 Y56.365 E18.35796
G1 X-55.496 Y56.691 E18.37537
G1 X-55.785 Y57.333 E18.4105
G1 X-56.151 Y57.947 E18.44616
G1 X-56.346 Y58.235 E18.46351
G1 X-56.773 Y58.795 E18.49865
G1 X-57.247 Y59.289 E18.5328
G1 X-57.506 Y59.531 E18.55049
G1 X-58.047 Y59.982 E18.58563
G1 X-58.613 Y60.355 E18.61944
G1 X-58.911 Y60.529 E18.63666
G1 X-59.538 Y60.849 E18.67178
G1 X-60.156 Y61.083 E18.70475
G1 X-60.489 Y61.189 E18.72218
G1 X-61.171 Y61.364 E18.75731
G1 X-61.69 Y61.444 E18.78351
G1 X-61.989 Y61.477 E18.79852
G1 X-62.669 Y61.514 E18.83249
G1 X-73.418 Y61.514 E19.36876
G1 X-74.121 Y61.474 E19.40389
G1 X-74.815 Y61.355 E19.43902
G1 X-75.49 Y61.157 E19.47412
G1 X-76.139 Y60.885 E19.50922
G1 X-76.753 Y60.54 E19.54436
G1 X-77.324 Y60.129 E19.57946
G1 X-77.845 Y59.655 E19.6146
G1 X-78.309 Y59.125 E19.64974
G1 X-78.709 Y58.546 E19.68485
G1 X-79.041 Y57.925 E19.71999
G1 X-79.301 Y57.271 E19.7551
G1 X-79.485 Y56.591 E19.79024
G1 X-79.591 Y55.895 E19.82537
G1 X-79.618 Y55.314 E19.85438
G1 X-79.618 Y41.687 E20.53424
G1 X-80.11 Y41.883 E20.56066
G1 X-80.79 Y42.067 E20.59581
G1 X-81.486 Y42.173 E20.63093
G1 X-82.067 Y42.2 E20.65995
G1 X-85.867 Y42.2 E20.84953
G1 X-85.867 Y55.314 E21.50379
G1 X-85.907 Y56.017 E21.53892
G1 X-86.026 Y56.711 E21.57405
G1 X-86.224 Y57.386 E21.60914
G1 X-86.496 Y58.035 E21.64425
G1 X-86.841 Y58.649 E21.67939
G1 X-87.252 Y59.22 E21.71449
G1 X-87.726 Y59.741 E21.74963
G1 X-88.256 Y60.205 E21.78477
G1 X-88.835 Y60.605 E21.81988
G1 X-89.456 Y60.937 E21.85501
G1 X-90.11 Y61.197 E21.89012
G1 X-90.79 Y61.381 E21.92527
G1 X-91.486 Y61.487 E21.96039
G1 X-92.067 Y61.514 E21.98941
G1 X-102.815 Y61.514 E22.52563
G1 X-103.69 Y61.452 E22.56939
G1 X-104.09 Y61.395 E22.58955
G1 X-104.78 Y61.256 E22.62467
G1 X-105.456 Y61.038 E22.6601
G1 X-105.781 Y60.912 E22.67749
G1 X-106.422 Y60.62 E22.71264
G1 X-107.016 Y60.265 E22.74716
G1 X-107.304 Y60.07 E22.76451
G1 X-107.864 Y59.643 E22.79964
G1 X-108.351 Y59.177 E22.83327
G1 X-108.592 Y58.92 E22.85085
G1 X-109.043 Y58.38 E22.88595
G1 X-109.435 Y57.784 E22.92154
G1 X-109.608 Y57.485 E22.93877
G1 X-109.926 Y56.857 E22.97389
G1 X-110.15 Y56.261 E23.00566
G1 X-110.256 Y55.928 E23.02309
G1 X-110.431 Y55.246 E23.05822
G1 X-110.51 Y54.734 E23.08407
G1 X-110.543 Y54.438 E23.09893
G1 X-110.581 Y53.751 E23.13325
G1 X-110.581 Y49.594 E23.34065
G1 X-110.675 Y48.762 E23.38242
G1 X-110.838 Y48.295 E23.4071
G1 X-111.102 Y47.875 E23.43185
G1 X-111.442 Y47.535 E23.45583
G1 X-111.865 Y47.269 E23.48076
G1 X-112.321 Y47.109 E23.50487
G1 X-113.175 Y47.014 E23.54774
G1 X-114.067 Y47.014 E23.59225
G1 X-114.77 Y46.974 E23.62737
G1 X-115.464 Y46.855 E23.6625
G1 X-116.139 Y46.657 E23.6976
G1 X-116.788 Y46.385 E23.73271
G1 X-117.402 Y46.04 E23.76784
G1 X-117.973 Y45.629 E23.80294
G1 X-118.494 Y45.155 E23.83808
G1 X-118.958 Y44.625 E23.87323
G1 X-119.358 Y44.046 E23.90834
G1 X-119.69 Y43.425 E23.94347
G1 X-119.95 Y42.771 E23.97858
G1 X-120.134 Y42.091 E24.01372
G1 X-120.24 Y41.395 E24.04885
G1 X-120.267 Y40.814 E24.07787
G1 X-120.267 Y-40.814 E28.1503
G1 X-120.227 Y-41.517 E28.18543
G1 X-120.108 Y-42.211 E28.22056
G1 X-119.91 Y-42.886 E28.25566
G1 X-119.638 Y-43.535 E28.29076
G1 X-119.293 Y-44.149 E28.3259
G1 X-118.882 Y-44.72 E28.361
G1 X-118.408 Y-45.241 E28.39614
G1 X-117.878 Y-45.705 E28.43128
G1 X-117.299 Y-46.105 E28.46639
G1 X-116.678 Y-46.437 E28.50153
G1 X-116.024 Y-46.697 E28.53664
G1 X-115.344 Y-46.881 E28.57178
G1 X-114.648 Y-46.987 E28.60691
G1 X-114.067 Y-47.014 E28.63592
G1 X-113.163 Y-47.014 E28.68103
G1 X-112.328 Y-47.107 E28.72294
G1 X-111.865 Y-47.269 E28.74741
G1 X-111.442 Y-47.535 E28.77234
G1 X-111.102 Y-47.875 E28.79633
G1 X-110.838 Y-48.295 E28.82108
G1 X-110.676 Y-48.758 E28.84555
G1 X-110.581 Y-49.608 E28.88822
G1 X-110.581 Y-53.748 E29.09477
G1 X-110.521 Y-54.612 E29.13798
G1 X-110.465 Y-55.01 E29.15803
G1 X-110.327 Y-55.7 E29.19314
G1 X-110.106 Y-56.387 E29.22914
G1 X-109.98 Y-56.712 E29.24653
G1 X-109.688 Y-57.353 E29.28167
G1 X-109.338 Y-57.939 E29.31573
G1 X-109.143 Y-58.228 E29.33312
G1 X-108.717 Y-58.788 E29.36822
G1 X-108.246 Y-59.282 E29.40228
G1 X-107.988 Y-59.524 E29.41992
G1 X-107.448 Y-59.976 E29.45506
G1 X-106.851 Y-60.368 E29.49069
G1 X-106.552 Y-60.541 E29.50792
G1 X-105.924 Y-60.859 E29.54304
G1 X-105.328 Y-61.083 E29.57481
G1 X-104.995 Y-61.189 E29.59224
G1 X-104.313 Y-61.364 E29.62737
G1 X-103.796 Y-61.443 E29.65346
G1 X-103.498 Y-61.476 E29.66842
G1 X-102.816 Y-61.514 E29.7025
G1 X-92.067 Y-61.514 E30.23877
G1 X-91.364 Y-61.474 E30.2739
G1 X-90.67 Y-61.355 E30.30903
G1 X-89.995 Y-61.157 E30.34412
G1 X-89.346 Y-60.885 E30.37923
G1 X-88.732 Y-60.54 E30.41436
G1 X-88.161 Y-60.129 E30.44946
G1 X-87.64 Y-59.655 E30.4846
G1 X-87.176 Y-59.125 E30.51975
G1 X-86.776 Y-58.546 E30.55486
G1 X-86.444 Y-57.925 E30.58999
G1 X-86.184 Y-57.271 E30.6251
G1 X-86 Y-56.591 E30.66025
G1 X-85.894 Y-55.895 E30.69537
G1 X-85.867 Y-55.314 E30.72439
G1 X-85.867 Y-37 E31.63808
G1 X-85.907 Y-36.297 E31.67321
G1 X-86.026 Y-35.603 E31.70834
G1 X-86.224 Y-34.928 E31.74343
G1 X-86.496 Y-34.279 E31.77854
G1 X-86.841 Y-33.665 E31.81367
G1 X-87.252 Y-33.094 E31.84877
G1 X-87.726 Y-32.573 E31.88391
G1 X-88.256 Y-32.109 E31.91906
G1 X-88.835 Y-31.709 E31.95417
G1 X-89.456 Y-31.377 E31.9893
G1 X-90.11 Y-31.117 E32.02441
G1 X-90.79 Y-30.933 E32.05956
G1 X-91.486 Y-30.827 E32.09468
G1 X-92.067 Y-30.8 E32.1237
G1 X-97.867 Y-30.8 E32.41306
G1 X-97.867 Y-18.2 E33.04168
G1 X-85.618 Y-18.2 E33.65278
G0 F3600 X-85.218 Y-17.8
G1 F1800 X-85.218 Y-28 E34.16166
G1 X-85.178 Y-28.68 E34.19565
G1 X-85.059 Y-29.35 E34.2296
G1 X-84.862 Y-30.002 E34.26358
G1 X-84.59 Y-30.626 E34.29754
G1 X-84.372 Y-30.998 E34.31905
G1 X-84.47 Y-31.15 E34.32807
G1 X-84.769 Y-31.762 E34.36205
G1 X-84.994 Y-32.404 E34.39599
G1 X-85.143 Y-33.069 E34.42999
G1 X-85.218 Y-34 E34.47659
G1 X-85.218 Y-41 E34.82582
G1 X-85.178 Y-41.68 E34.85981
G1 X-85.059 Y-42.35 E34.89376
G1 X-84.862 Y-43.002 E34.92774
G1 X-84.59 Y-43.626 E34.9617
G1 X-84.246 Y-44.214 E34.99568
G1 X-83.836 Y-44.758 E35.02967
G1 X-83.365 Y-45.249 E35.06361
G1 X-82.84 Y-45.683 E35.0976
G1 X-82.268 Y-46.052 E35.13156
G1 X-81.656 Y-46.351 E35.16554
G1 X-81.014 Y-46.576 E35.19948
G1 X-80.349 Y-46.725 E35.23348
G1 X-79.418 Y-46.8 E35.28008
G1 X-79.218 Y-46.8 E35.29005
G1 X-79.218 Y-55.314 E35.71482
G1 X-79.178 Y-55.994 E35.7488
G1 X-79.059 Y-56.664 E35.78275
G1 X-78.862 Y-57.316 E35.81673
G1 X-78.59 Y-57.94 E35.85069
G1 X-78.246 Y-58.528 E35.88468
G1 X-77.836 Y-59.072 E35.91867
G1 X-77.365 Y-59.563 E35.95261
G1 X-76.84 Y-59.997 E35.98659
G1 X-76.268 Y-60.366 E36.02055
G1 X-75.656 Y-60.665 E36.05454
G1 X-75.014 Y-60.89 E36.08848
G1 X-74.349 Y-61.039 E36.12248
G1 X-73.418 Y-61.114 E36.16907
G1 X-62.67 Y-61.114 E36.70529
G1 X-61.85 Y-61.056 E36.74631
G1 X-61.451 Y-60.999 E36.76641
G1 X-60.784 Y-60.863 E36.80038
G1 X-60.194 Y-60.673 E36.8313
G1 X-59.868 Y-60.548 E36.84872
G1 X-59.248 Y-60.267 E36.88268
G1 X-58.689 Y-59.932 E36.91519
G1 X-58.403 Y-59.738 E36.93243
G1 X-57.863 Y-59.323 E36.96641
G1 X-57.421 Y-58.898 E36.997
G1 X-57.179 Y-58.639 E37.01469
G1 X-56.744 Y-58.115 E37.04866
G1 X-56.413 Y-57.611 E37.07875
G1 X-56.239 Y-57.314 E37.09592
G1 X-55.929 Y-56.707 E37.12992
G1 X-55.716 Y-56.141 E37.1601
G1 X-55.61 Y-55.808 E37.17753
G1 X-55.442 Y-55.148 E37.21151
G1 X-55.339 Y-54.389 E37.24972
G1 X-55.304 Y-53.751 E37.2816
G1 X-55.304 Y-49.477 E37.49483
G1 X-55.252 Y-48.829 E37.52726
G1 X-55.152 Y-48.424 E37.54807
G1 X-54.986 Y-48.034 E37.56922
G1 X-54.512 Y-47.282 E37.61357
G1 X-54.183 Y-46.686 E37.64753
G1 X-53.927 Y-46.055 E37.68151
G1 X-53.746 Y-45.399 E37.71546
G1 X-53.643 Y-44.726 E37.74942
G1 X-53.618 Y-44.188 E37.77629
G1 X-53.618 Y44.188 E42.18539
G1 X-53.658 Y44.868 E42.21938
G1 X-53.777 Y45.538 E42.25332
G1 X-53.974 Y46.19 E42.28731
G1 X-54.246 Y46.814 E42.32127
G1 X-54.512 Y47.282 E42.34812
G1 X-54.986 Y48.034 E42.39247
G1 X-55.15 Y48.419 E42.41335
G1 X-55.252 Y48.838 E42.43486
G1 X-55.304 Y49.478 E42.4669
G1 X-55.304 Y53.748 E42.67993
G1 X-55.361 Y54.558 E42.72044
G1 X-55.417 Y54.955 E42.74044
G1 X-55.551 Y55.623 E42.77443
G1 X-55.744 Y56.222 E42.80583
G1 X-55.869 Y56.548 E42.82325
G1 X-56.15 Y57.168 E42.85721
G1 X-56.482 Y57.723 E42.88947
G1 X-56.677 Y58.011 E42.90683
G1 X-57.091 Y58.551 E42.94077
G1 X-57.52 Y58.997 E42.97165
G1 X-57.779 Y59.239 E42.98933
G1 X-58.303 Y59.674 E43.02331
G1 X-58.814 Y60.01 E43.05382
G1 X-59.112 Y60.184 E43.07104
G1 X-59.72 Y60.492 E43.10504
G1 X-60.278 Y60.702 E43.13478
G1 X-60.611 Y60.808 E43.15222
G1 X-61.271 Y60.976 E43.1862
G1 X-62.033 Y61.079 E43.22456
G1 X-62.669 Y61.114 E43.25634
G1 X-73.418 Y61.114 E43.79261
G1 X-74.098 Y61.074 E43.82659
G1 X-74.768 Y60.955 E43.86054
G1 X-75.42 Y60.758 E43.89452
G1 X-76.044 Y60.486 E43.92848
G1 X-76.632 Y60.142 E43.96247
G1 X-77.176 Y59.732 E43.99645
G1 X-77.667 Y59.261 E44.0304
G1 X-78.101 Y58.736 E44.06438
G1 X-78.47 Y58.164 E44.09834
G1 X-78.769 Y57.552 E44.13232
G1 X-78.994 Y56.91 E44.16626
G1 X-79.143 Y56.245 E44.20026
G1 X-79.218 Y55.314 E44.24686
G1 X-79.218 Y41.052 E44.9584
G1 X-79.829 Y41.351 E44.99233
G1 X-80.471 Y41.576 E45.02627
G1 X-81.136 Y41.725 E45.06027
G1 X-82.067 Y41.8 E45.10687
G1 X-86.267 Y41.8 E45.31641
G1 X-86.267 Y55.314 E45.99063
G1 X-86.307 Y55.994 E46.02461
G1 X-86.426 Y56.664 E46.05856
G1 X-86.623 Y57.316 E46.09254
G1 X-86.895 Y57.94 E46.1265
G1 X-87.239 Y58.528 E46.16049
G1 X-87.649 Y59.072 E46.19447
G1 X-88.12 Y59.563 E46.22842
G1 X-88.645 Y59.997 E46.2624
G1 X-89.217 Y60.366 E46.29636
G1 X-89.829 Y60.665 E46.33034
G1 X-90.471 Y60.89 E46.36428
G1 X-91.136 Y61.039 E46.39828
G1 X-92.067 Y61.114 E46.44488
G1 X-102.815 Y61.114 E46.9811
G1 X-103.633 Y61.056 E47.02201
G1 X-104.033 Y60.999 E47.04217
G1 X-104.701 Y60.864 E47.07617
G1 X-105.312 Y60.665 E47.10823
G1 X-105.637 Y60.539 E47.12562
G1 X-106.256 Y60.256 E47.15958
G1 X-106.792 Y59.934 E47.19077
G1 X-107.08 Y59.739 E47.20812
G1 X-107.62 Y59.325 E47.24207
G1 X-108.059 Y58.903 E47.27245
G1 X-108.3 Y58.646 E47.29003
G1 X-108.736 Y58.123 E47.324
G1 X-109.089 Y57.584 E47.35614
G1 X-109.262 Y57.285 E47.37338
G1 X-109.568 Y56.676 E47.40738
G1 X-109.769 Y56.139 E47.43599
G1 X-109.875 Y55.806 E47.45342
G1 X-110.043 Y55.146 E47.4874
G1 X-110.145 Y54.394 E47.52526
G1 X-110.181 Y53.751 E47.55739
G1 X-110.181 Y49.575 E47.76573
G1 X-110.283 Y48.669 E47.81122
G1 X-110.475 Y48.121 E47.84019
G1 X-110.786 Y47.625 E47.86939
