;FLAVOR:Marlin
;TIME:8002
;Filament used: 11.2932m
;Layer height: 0.3
;MINX:-77.3
;MINY:-29.652
;MINZ:0.3
;MAXX:29.3
;MAXY:30.332
;MAXZ:14.7
;Generated with Cura_SteamEngine 4.7.1
M140 S50
M105
M190 S50
M104 S255
M105
M109 S255
M82 ;absolute extrusion mode
G28 ;Home
G1 Z15.0 F6000 ;Move the platform down 15mm
;Prime the extruder
G92 E0
G1 F200 E3
G92 E0
G92 E0
G92 E0
G1 F1500 E-6.5
;LAYER_COUNT:49
;LAYER:0
M107
;MESH:bottomMidq10_14_2020.stl
G0 F3600 X-3.125 Y-5.281 Z0.3
;TYPE:WALL-INNER
G1 F1500 E0
G1 F1800 X-3.735 Y-4.957 E0.03446
G1 X-3.82 Y-4.917 E0.03915
G1 X-4.35 Y-4.46 E0.07406
G1 X-4.421 Y-4.407 E0.07848
G1 X-4.859 Y-3.831 E0.11458
G1 X-4.912 Y-3.766 E0.11877
G1 X-5.224 Y-3.116 E0.15474
G1 X-5.264 Y-3.042 E0.15893
G1 X-5.469 Y-2.236 E0.20043
G1 X-5.514 Y-1.42 E0.2412
G1 X-5.414 Y-.676 E0.27865
G1 X-5.397 Y-.594 E0.28283
G1 X-5.139 Y0.156 E0.3224
G1 X-4.767 Y0.793 E0.3592
G1 X-4.718 Y0.865 E0.36355
G1 X-4.247 Y1.385 E0.39855
G1 X-4.183 Y1.449 E0.40306
G1 X-3.609 Y1.857 E0.4382
G1 X-3.531 Y1.904 E0.44274
G1 X-2.901 Y2.166 E0.47678
G1 X-2.812 Y2.198 E0.4815
G1 X-2.111 Y2.313 E0.51694
G1 X-1.992 Y2.314 E0.52288
G1 X-1.286 Y2.264 E0.55819
G1 X-.541 Y2.029 E0.59716
G1 X0.135 Y1.628 E0.63638
G1 X0.717 Y1.084 E0.67612
G1 X1.219 Y0.345 E0.72069
G1 X1.569 Y-.589 E0.77045
G1 X1.688 Y-1.585 E0.8205
G1 X1.608 Y-2.404 E0.86155
G1 X1.376 Y-3.183 E0.9021
G1 X0.997 Y-3.895 E0.94234
G1 X0.486 Y-4.51 E0.98224
G1 X-.139 Y-4.996 E1.02173
G1 X-.833 Y-5.322 E1.05999
G1 X-.923 Y-5.346 E1.06464
G1 X-1.607 Y-5.49 E1.09951
G1 X-2.384 Y-5.472 E1.13828
G1 X-3.035 Y-5.299 E1.17189
G1 X-3.125 Y-5.281 E1.17647
G0 F3600 X-3.158 Y-5.375
G0 X-4.699 Y-8.538
G0 X-5.12 Y-10.018
G0 X-5.021 Y-10.016
G1 F1800 X-4.941 Y-9.337 E1.21058
G1 X-4.925 Y-9.241 E1.21543
G1 X-4.664 Y-8.556 E1.252
G1 X-4.24 Y-7.94 E1.28931
G1 X-3.678 Y-7.443 E1.32674
G1 X-3.016 Y-7.096 E1.36403
G1 X-2.29 Y-6.917 E1.40134
G1 X-1.541 Y-6.917 E1.43871
G1 X-.815 Y-7.096 E1.47601
G1 X-.152 Y-7.443 E1.51334
G1 X0.409 Y-7.94 E1.55074
G1 X0.833 Y-8.556 E1.58804
G1 X1.099 Y-9.256 E1.6254
G1 X1.175 Y-9.886 E1.65706
G1 X1.191 Y-9.985 E1.66207
G1 X1.11 Y-10.66 E1.69598
G1 X1.094 Y-10.756 E1.70084
G1 X0.833 Y-11.442 E1.73746
G1 X0.409 Y-12.058 E1.77477
G1 X-.153 Y-12.554 E1.81216
G1 X-.815 Y-12.901 E1.84945
G1 X-1.541 Y-13.08 E1.88676
G1 X-2.29 Y-13.08 E1.92412
G1 X-3.016 Y-12.901 E1.96143
G1 X-3.677 Y-12.554 E1.99867
G1 X-4.239 Y-12.058 E2.03607
G1 X-4.664 Y-11.442 E2.07341
G1 X-4.93 Y-10.741 E2.11081
G1 X-5.004 Y-10.114 E2.14231
G1 X-5.021 Y-10.016 E2.14728
G0 F3600 X-5.12 Y-10.018
G0 X-5.12 Y-22.018
G0 X-5.021 Y-22.016
G1 F1800 X-4.941 Y-21.337 E2.18138
G1 X-4.925 Y-21.241 E2.18624
G1 X-4.664 Y-20.556 E2.22281
G1 X-4.24 Y-19.94 E2.26012
G1 X-3.678 Y-19.443 E2.29755
G1 X-3.016 Y-19.096 E2.33484
G1 X-2.29 Y-18.917 E2.37214
G1 X-1.541 Y-18.917 E2.40951
G1 X-.815 Y-19.096 E2.44682
G1 X-.152 Y-19.443 E2.48415
G1 X0.409 Y-19.94 E2.52154
G1 X0.833 Y-20.556 E2.55885
G1 X1.099 Y-21.256 E2.59621
G1 X1.175 Y-21.886 E2.62787
G1 X1.191 Y-21.985 E2.63287
G1 X1.11 Y-22.66 E2.66679
G1 X1.094 Y-22.756 E2.67165
G1 X0.833 Y-23.442 E2.70826
G1 X0.409 Y-24.058 E2.74557
G1 X-.153 Y-24.554 E2.78297
G1 X-.815 Y-24.901 E2.82026
G1 X-1.541 Y-25.08 E2.85756
G1 X-2.29 Y-25.08 E2.89493
G1 X-3.016 Y-24.901 E2.93224
G1 X-3.677 Y-24.554 E2.96948
G1 X-4.239 Y-24.058 E3.00688
G1 X-4.664 Y-23.442 E3.04422
G1 X-4.93 Y-22.741 E3.08162
G1 X-5.004 Y-22.114 E3.11312
G1 X-5.021 Y-22.016 E3.11808
G0 F3600 X-5.12 Y-22.018
G0 X-5.06 Y-10.017
G0 X-4.699 Y-8.538
G0 X-1.21 Y-5.442
G0 X-.119 Y-5.03
G0 X0.513 Y-4.538
G0 X1.03 Y-3.917
G0 X1.413 Y-3.198
G0 X6.915 Y29.009
G0 X6.985 Y29.079
G1 F1800 X-10.815 Y29.079 E4.00613
G1 X-10.815 Y-28.399 E6.87372
G1 X6.985 Y-28.399 E7.76176
G1 X6.985 Y29.079 E10.62935
G0 F3600 X7.385 Y29.479
;TYPE:WALL-OUTER
G1 F1800 X-11.215 Y29.479 E11.55731
G1 X-11.215 Y-28.799 E14.46481
G1 X7.385 Y-28.799 E15.39277
G1 X7.385 Y29.479 E18.30027
G0 F3600 X7.185 Y29.479
G0 X6.915 Y29.009
G0 X-5.175 Y0.172
G0 X-5.453 Y-.67
G0 X-5.508 Y-2.242
G0 X-5.259 Y-3.134
G0 X-4.89 Y-3.855
G0 X-4.375 Y-4.491
G0 X-3.084 Y-5.391
G0 X-2.987 Y-4.901
G1 F1800 X-3.564 Y-4.595 E18.33285
G1 X-3.6 Y-4.578 E18.33484
G1 X-4.1 Y-4.148 E18.36774
G1 X-4.136 Y-4.121 E18.36999
G1 X-4.54 Y-3.589 E18.40331
G1 X-4.572 Y-3.55 E18.40583
G1 X-4.865 Y-2.939 E18.43964
G1 X-4.889 Y-2.895 E18.44214
G1 X-5.072 Y-2.175 E18.4792
G1 X-5.113 Y-1.436 E18.51613
G1 X-5.019 Y-.743 E18.55102
G1 X-5.01 Y-.699 E18.55326
G1 X-4.774 Y-0.011 E18.58954
G1 X-4.429 Y0.579 E18.62364
G1 X-4.403 Y0.617 E18.62594
G1 X-3.957 Y1.109 E18.65907
G1 X-3.924 Y1.142 E18.6614
G1 X-3.39 Y1.522 E18.6941
G1 X-3.35 Y1.546 E18.69642
G1 X-2.757 Y1.793 E18.72847
G1 X-2.712 Y1.809 E18.73086
G1 X-2.076 Y1.913 E18.76301
G1 X-2.004 Y1.914 E18.7666
G1 X-1.361 Y1.868 E18.79876
G1 X-.705 Y1.661 E18.83308
G1 X-.106 Y1.306 E18.86782
G1 X0.411 Y0.822 E18.90315
G1 X0.861 Y0.16 E18.94309
G1 X1.178 Y-.684 E18.98807
G1 X1.286 Y-1.589 E19.03354
G1 X1.214 Y-2.327 E19.07053
G1 X1.004 Y-3.03 E19.10713
G1 X0.663 Y-3.671 E19.14336
G1 X0.206 Y-4.221 E19.17903
G1 X-.349 Y-4.653 E19.21412
G1 X-.971 Y-4.945 E19.2484
G1 X-1.016 Y-4.957 E19.25073
G1 X-1.644 Y-5.089 E19.28274
G1 X-2.327 Y-5.073 E19.31683
G1 X-2.935 Y-4.912 E19.3482
G1 X-2.987 Y-4.901 E19.35086
G0 F3600 X-3.163 Y-4.808
G0 X-3.396 Y-5.25
G0 X-4.98 Y-9.332
G0 X-4.617 Y-10.005
G1 F1800 X-4.545 Y-9.394 E19.38155
G1 X-4.537 Y-9.347 E19.38393
G1 X-4.307 Y-8.743 E19.41617
G1 X-3.938 Y-8.207 E19.44864
G1 X-3.449 Y-7.775 E19.48119
G1 X-2.873 Y-7.473 E19.51364
G1 X-2.241 Y-7.317 E19.54612
G1 X-1.59 Y-7.317 E19.57859
G1 X-.958 Y-7.473 E19.61107
G1 X-.381 Y-7.775 E19.64356
G1 X0.107 Y-8.207 E19.67608
G1 X0.476 Y-8.743 E19.70854
G1 X0.708 Y-9.352 E19.74106
G1 X0.78 Y-9.952 E19.77121
G1 X0.787 Y-9.994 E19.77333
G1 X0.714 Y-10.603 E19.80393
G1 X0.706 Y-10.65 E19.80631
G1 X0.476 Y-11.255 E19.8386
G1 X0.107 Y-11.791 E19.87107
G1 X-.381 Y-12.222 E19.90355
G1 X-.958 Y-12.524 E19.93604
G1 X-1.59 Y-12.68 E19.96852
G1 X-2.241 Y-12.68 E20.00099
G1 X-2.873 Y-12.524 E20.03347
G1 X-3.449 Y-12.222 E20.06592
G1 X-3.938 Y-11.791 E20.09844
G1 X-4.307 Y-11.255 E20.1309
G1 X-4.539 Y-10.645 E20.16346
G1 X-4.61 Y-10.045 E20.19361
G1 X-4.617 Y-10.005 E20.19563
G0 F3600 X-4.594 Y-9.807
G0 X-5.09 Y-9.75
G0 X-5.109 Y-22.091
G0 X-4.617 Y-22.005
G1 F1800 X-4.545 Y-21.394 E20.22633
G1 X-4.537 Y-21.347 E20.2287
G1 X-4.307 Y-20.743 E20.26095
G1 X-3.938 Y-20.207 E20.29341
G1 X-3.449 Y-19.775 E20.32597
G1 X-2.873 Y-19.473 E20.35841
G1 X-2.241 Y-19.317 E20.39089
G1 X-1.59 Y-19.317 E20.42337
G1 X-.958 Y-19.473 E20.45585
G1 X-.381 Y-19.775 E20.48834
G1 X0.107 Y-20.207 E20.52085
G1 X0.476 Y-20.743 E20.55332
G1 X0.708 Y-21.352 E20.58583
G1 X0.78 Y-21.952 E20.61598
G1 X0.787 Y-21.994 E20.61811
G1 X0.714 Y-22.603 E20.64871
G1 X0.706 Y-22.65 E20.65108
G1 X0.476 Y-23.255 E20.68338
G1 X0.107 Y-23.791 E20.71584
G1 X-.381 Y-24.222 E20.74832
G1 X-.958 Y-24.524 E20.78082
G1 X-1.59 Y-24.68 E20.81329
G1 X-2.241 Y-24.68 E20.84577
G1 X-2.873 Y-24.524 E20.87825
G1 X-3.449 Y-24.222 E20.91069
G1 X-3.938 Y-23.791 E20.94321
G1 X-4.307 Y-23.255 E20.97568
G1 X-4.539 Y-22.645 E21.00824
G1 X-4.61 Y-22.045 E21.03838
G1 X-4.617 Y-22.005 E21.04041
G0 F3600 X-4.594 Y-21.807
G0 X-5.415 Y-22.027
;TYPE:SKIN
G1 F1800 X-5.327 Y-21.282 E21.07784
G1 X-5.303 Y-21.138 E21.08512
G1 X-5.011 Y-20.373 E21.12597
G1 X-4.534 Y-19.679 E21.16798
G1 X-3.901 Y-19.119 E21.21015
G1 X-3.155 Y-18.729 E21.25215
G1 X-2.337 Y-18.527 E21.29418
G1 X-1.494 Y-18.527 E21.33624
G1 X-.676 Y-18.729 E21.37828
G1 X0.071 Y-19.119 E21.42032
G1 X0.703 Y-19.679 E21.46244
G1 X1.18 Y-20.373 E21.50446
G1 X1.481 Y-21.162 E21.54659
G1 X1.565 Y-21.862 E21.58176
G1 X1.585 Y-21.977 E21.58759
G1 X1.582 Y-22.002 E21.58884
G1 X1.588 Y-22.052 E21.59135
G1 X1.576 Y-22.052 E21.59195
G1 X1.496 Y-22.715 E21.62527
G1 X1.472 Y-22.859 E21.63255
G1 X1.18 Y-23.625 E21.67345
G1 X0.703 Y-24.319 E21.71547
G1 X0.069 Y-24.878 E21.75763
G1 X-.676 Y-25.268 E21.79959
G1 X-1.494 Y-25.47 E21.84162
G1 X-2.337 Y-25.47 E21.88368
G1 X-3.155 Y-25.268 E21.92572
G1 X-3.899 Y-24.878 E21.96763
G1 X-4.533 Y-24.319 E22.0098
G1 X-5.011 Y-23.625 E22.05184
G1 X-5.312 Y-22.835 E22.09401
G1 X-5.392 Y-22.159 E22.12798
G1 X-5.415 Y-22.027 E22.13466
G0 F3600 X-10.425 Y-28.009
G1 F1800 X6.595 Y-28.009 E22.98379
G1 X6.595 Y28.689 E25.81247
G1 X-10.425 Y28.689 E26.6616
G1 X-10.425 Y-28.009 E29.49027
G0 F3600 X-2.337 Y-13.47
G1 F1800 X-3.155 Y-13.268 E29.53231
G1 X-3.899 Y-12.878 E29.57422
G1 X-4.533 Y-12.319 E29.61639
G1 X-5.011 Y-11.625 E29.65843
G1 X-5.312 Y-10.835 E29.70061
G1 X-5.392 Y-10.159 E29.73457
G1 X-5.415 Y-10.027 E29.74125
G1 X-5.327 Y-9.282 E29.77868
G1 X-5.303 Y-9.138 E29.78596
G1 X-5.011 Y-8.373 E29.82681
G1 X-4.534 Y-7.679 E29.86883
G1 X-3.901 Y-7.119 E29.91099
G1 X-3.155 Y-6.729 E29.95299
G1 X-2.337 Y-6.527 E29.99503
G1 X-1.494 Y-6.527 E30.03708
G1 X-.676 Y-6.729 E30.07912
G1 X0.071 Y-7.119 E30.12116
G1 X0.703 Y-7.679 E30.16329
G1 X1.18 Y-8.373 E30.2053
G1 X1.481 Y-9.162 E30.24743
G1 X1.565 Y-9.862 E30.28261
G1 X1.585 Y-9.977 E30.28843
G1 X1.582 Y-10.002 E30.28969
G1 X1.588 Y-10.052 E30.2922
G1 X1.576 Y-10.052 E30.2928
G1 X1.496 Y-10.715 E30.32611
G1 X1.472 Y-10.859 E30.3334
G1 X1.18 Y-11.625 E30.3743
G1 X0.703 Y-12.319 E30.41631
G1 X0.069 Y-12.878 E30.45848
G1 X-.676 Y-13.268 E30.50043
G1 X-1.494 Y-13.47 E30.54247
G1 X-2.337 Y-13.47 E30.58452
G0 F3600 X-3.699 Y-12.586
G0 X-4.699 Y-11.46
G0 X-5.06 Y-10.017
G0 X-4.699 Y-8.538
G0 X-2.439 Y-5.86
G1 F1800 X-3.126 Y-5.678 E30.61998
G1 X-3.257 Y-5.652 E30.62664
G1 X-3.911 Y-5.306 E30.66356
G1 X-4.035 Y-5.247 E30.67041
G1 X-4.594 Y-4.765 E30.70723
G1 X-4.698 Y-4.686 E30.71375
G1 X-5.161 Y-4.077 E30.75192
G1 X-5.243 Y-3.977 E30.75837
G1 X-5.567 Y-3.301 E30.79577
G1 X-5.63 Y-3.185 E30.80235
G1 X-5.857 Y-2.295 E30.84818
G1 X-5.906 Y-1.404 E30.8927
G1 X-5.798 Y-.61 E30.93267
G1 X-5.774 Y-.491 E30.93873
G1 X-5.496 Y0.32 E30.9815
G1 X-5.097 Y1.001 E31.02088
G1 X-5.026 Y1.107 E31.02724
G1 X-4.53 Y1.654 E31.06408
G1 X-4.436 Y1.748 E31.07072
G1 X-3.824 Y2.183 E31.10817
G1 X-3.708 Y2.253 E31.11493
G1 X-3.041 Y2.53 E31.15097
G1 X-2.909 Y2.577 E31.15796
G1 X-2.144 Y2.703 E31.19664
G1 X-1.98 Y2.704 E31.20482
G1 X-1.212 Y2.65 E31.24323
G1 X-.381 Y2.388 E31.2867
G1 X0.371 Y1.942 E31.33032
G1 X1.015 Y1.339 E31.37433
G1 X1.568 Y0.526 E31.42339
G1 X1.951 Y-.496 E31.47784
G1 X2.08 Y-1.581 E31.53235
G1 X1.992 Y-2.48 E31.57742
G1 X1.739 Y-3.331 E31.62171
G1 X1.323 Y-4.113 E31.6659
G1 X0.759 Y-4.792 E31.70994
G1 X0.066 Y-5.331 E31.75374
G1 X-.699 Y-5.69 E31.7959
G1 X-.833 Y-5.726 E31.80282
G1 X-1.57 Y-5.88 E31.84038
G1 X-2.439 Y-5.86 E31.88375
G0 F3600 X-.13 Y-7.411
G0 X0.868 Y-8.538
G0 X6.112 Y-27.828
G1 F1800 X6.415 Y-27.525 E31.90513
G0 F3600 X6.415 Y-26.959
G1 F1800 X5.547 Y-27.828 E31.96641
G0 F3600 X4.981 Y-27.828
G1 F1800 X6.415 Y-26.394 E32.06758
G0 F3600 X6.415 Y-25.828
G1 F1800 X4.415 Y-27.828 E32.20869
G0 F3600 X3.85 Y-27.828
G1 F1800 X6.415 Y-25.262 E32.3897
G0 F3600 X6.415 Y-24.697
G1 F1800 X3.284 Y-27.828 E32.61061
G0 F3600 X2.718 Y-27.828
G1 F1800 X6.415 Y-24.131 E32.87146
G0 F3600 X6.415 Y-23.565
G1 F1800 X2.153 Y-27.828 E33.1722
G0 F3600 X1.587 Y-27.828
G1 F1800 X6.415 Y-23 E33.51284
G0 F3600 X6.415 Y-22.434
G1 F1800 X1.021 Y-27.828 E33.89342
G0 F3600 X0.456 Y-27.828
G1 F1800 X6.415 Y-21.868 E34.31389
G0 F3600 X6.415 Y-21.303
G1 F1800 X-.109 Y-27.828 E34.77423
G0 F3600 X-.675 Y-27.828
G1 F1800 X6.415 Y-20.737 E35.2745
G0 F3600 X6.415 Y-20.171
G1 F1800 X-1.24 Y-27.828 E35.81467
G0 F3600 X-1.806 Y-27.828
G1 F1800 X6.415 Y-19.605 E36.39478
G0 F3600 X6.415 Y-19.04
G1 F1800 X-2.372 Y-27.828 E37.01479
G0 F3600 X-2.938 Y-27.828
G1 F1800 X-.475 Y-25.365 E37.18856
G1 X-.405 Y-25.295
G0 F3600 X-1.277 Y-25.602
G1 F1800 X-3.503 Y-27.828 E37.34562
G0 F3600 X-4.069 Y-27.828
G1 F1800 X-1.89 Y-25.649 E37.49936
G0 F3600 X-2.438 Y-25.631
G1 F1800 X-4.635 Y-27.828 E37.65437
G0 F3600 X-5.2 Y-27.828
G1 F1800 X-2.891 Y-25.518 E37.81732
G0 F3600 X-3.321 Y-25.383
G1 F1800 X-5.766 Y-27.828 E37.98983
G0 F3600 X-6.332 Y-27.828
G1 F1800 X-3.693 Y-25.189 E38.17602
G0 F3600 X-4.053 Y-24.983
G1 F1800 X-6.897 Y-27.828 E38.37672
G0 F3600 X-7.463 Y-27.828
G1 F1800 X-4.353 Y-24.718 E38.59614
G0 F3600 X-4.654 Y-24.453
G1 F1800 X-8.029 Y-27.828 E38.83427
G0 F3600 X-8.594 Y-27.828
G1 F1800 X-4.887 Y-24.12 E39.09585
G0 F3600 X-5.118 Y-23.785
G1 F1800 X-9.16 Y-27.828 E39.38107
G0 F3600 X-9.726 Y-27.828
G1 F1800 X-5.291 Y-23.393 E39.69399
G0 F3600 X-5.447 Y-22.983
G1 F1800 X-10.245 Y-27.781 E40.03251
G0 F3600 X-10.245 Y-27.215
G1 F1800 X-5.532 Y-22.502 E40.36504
G0 F3600 X-5.592 Y-21.997
G1 F1800 X-10.245 Y-26.65 E40.69333
G0 F3600 X-10.245 Y-26.084
G1 F1800 X-5.516 Y-21.355 E41.02699
G1 X-5.446 Y-21.285
G0 F3600 X-5.267 Y-20.541
G1 F1800 X-10.245 Y-25.518 E41.37818
G0 F3600 X-10.245 Y-24.953
G1 F1800 X6.415 Y-8.292 E42.55367
G0 F3600 X6.415 Y-8.857
G1 F1800 X-3.358 Y-18.631 E43.24324
G1 X-3.428 Y-18.701
G0 F3600 X-2.555 Y-18.394
G1 F1800 X6.415 Y-9.423 E43.87616
G0 F3600 X6.415 Y-9.989
G1 F1800 X-1.941 Y-18.346 E44.46575
G0 F3600 X-1.394 Y-18.364
G1 F1800 X6.415 Y-10.554 E45.01676
G0 F3600 X6.415 Y-11.12
G1 F1800 X-.941 Y-18.477 E45.5358
G0 F3600 X-.51 Y-18.612
G1 F1800 X6.415 Y-11.686 E46.02443
G0 F3600 X6.415 Y-12.252
G1 F1800 X-.138 Y-18.806 E46.48681
G0 F3600 X0.222 Y-19.011
G1 F1800 X6.415 Y-12.817 E46.9238
G0 F3600 X6.415 Y-13.383
G1 F1800 X0.521 Y-19.277 E47.33965
G0 F3600 X0.821 Y-19.543
G1 F1800 X6.415 Y-13.949 E47.73434
G0 F3600 X6.415 Y-14.514
G1 F1800 X1.055 Y-19.874 E48.11252
G0 F3600 X1.286 Y-20.209
G1 F1800 X6.415 Y-15.08 E48.47439
G0 F3600 X6.415 Y-15.646
G1 F1800 X1.459 Y-20.602 E48.82407
G0 F3600 X1.615 Y-21.011
G1 F1800 X6.415 Y-16.211 E49.16273
G0 F3600 X6.415 Y-16.777
G1 F1800 X1.702 Y-21.491 E49.4953
G0 F3600 X1.764 Y-21.993
G1 F1800 X6.415 Y-17.343 E49.82341
G0 F3600 X6.415 Y-17.908
G1 F1800 X1.686 Y-22.638 E50.15711
G1 X1.616 Y-22.708
G0 F3600 X1.436 Y-23.453
G1 F1800 X6.415 Y-18.474 E50.5084
G1 X6.485 Y-18.404
G0 F3600 X-.221 Y-13.232
G1 F1800 X-10.245 Y-23.256 E51.21565
G0 F3600 X-10.245 Y-23.821
G1 F1800 X6.415 Y-7.16 E52.39114
G0 F3600 X6.415 Y-6.595
G1 F1800 X1.363 Y-11.647 E52.74758
G1 X1.293 Y-11.717
G0 F3600 X1.667 Y-10.777
G1 F1800 X6.415 Y-6.029 E53.08258
G0 F3600 X6.415 Y-5.463
G1 F1800 X1.774 Y-10.104 E53.41003
G0 F3600 X1.714 Y-9.598
G1 F1800 X6.415 Y-4.898 E53.74167
G0 F3600 X6.415 Y-4.332
G1 F1800 X1.648 Y-9.099 E54.07801
G0 F3600 X1.492 Y-8.689
G1 F1800 X6.415 Y-3.766 E54.42535
G0 F3600 X6.415 Y-3.201
G1 F1800 X1.335 Y-8.281 E54.78378
G0 F3600 X1.105 Y-7.945
G1 F1800 X6.415 Y-2.635 E55.15843
G0 F3600 X6.415 Y-2.069
G1 F1800 X0.875 Y-7.609 E55.5493
G0 F3600 X0.586 Y-7.333
G1 F1800 X6.415 Y-1.504 E55.96057
G0 F3600 X6.415 Y-.938
G1 F1800 X0.286 Y-7.067 E56.393
G0 F3600 X-0.058 Y-6.846
G1 F1800 X6.415 Y-.372 E56.84974
G0 F3600 X6.415 Y0.193
G1 F1800 X-.43 Y-6.653 E57.33273
G0 F3600 X-.844 Y-6.501
G1 F1800 X0.21 Y-5.446 E57.40713
G1 X0.28 Y-5.376
G0 F3600 X-.813 Y-5.905
G1 F1800 X-1.297 Y-6.388 E57.44125
G0 F3600 X-1.528 Y-6.053
G1 F1800 X-1.82 Y-6.346 E57.46188
G0 F3600 X-2.087 Y-6.047
G1 F1800 X-2.394 Y-6.354 E57.48354
G0 F3600 X-2.607 Y-6.001
G1 F1800 X-3.146 Y-6.54 E57.52157
G0 F3600 X-3.053 Y-5.882
G1 F1800 X-10.245 Y-13.073 E58.02897
G0 F3600 X-10.245 Y-12.508
G1 F1800 X-3.476 Y-5.738 E58.5066
G0 F3600 X-3.846 Y-5.543
G1 F1800 X-10.245 Y-11.942 E58.95808
G0 F3600 X-10.245 Y-11.376
G1 F1800 X-4.205 Y-5.337 E59.3842
G0 F3600 X-4.509 Y-5.074
G1 F1800 X-10.245 Y-10.81 E59.78891
G0 F3600 X-10.245 Y-10.245
G1 F1800 X-4.819 Y-4.819 E60.17174
G0 F3600 X-5.065 Y-4.499
G1 F1800 X-10.245 Y-9.679 E60.53722
G0 F3600 X-10.245 Y-9.113
G1 F1800 X-5.309 Y-4.178 E60.88544
G0 F3600 X-5.516 Y-3.819
G1 F1800 X-10.245 Y-8.548 E61.2191
G0 F3600 X-10.245 Y-7.982
G1 F1800 X-5.699 Y-3.437 E61.53981
G0 F3600 X-5.855 Y-3.027
G1 F1800 X-10.245 Y-7.416 E61.84951
G0 F3600 X-10.245 Y-6.851
G1 F1800 X-5.97 Y-2.575 E62.15117
G0 F3600 X-6.047 Y-2.088
G1 F1800 X-10.245 Y-6.285 E62.44733
G0 F3600 X-10.245 Y-5.719
G1 F1800 X-6.077 Y-1.552 E62.74137
