;FLAVOR:Marlin
;TIME:1584
;Filament used: 2.25873m
;Layer height: 0.3
;MINX:-9.3
;MINY:-29.3
;MINZ:0.3
;MAXX:9.3
;MAXY:28.978
;MAXZ:14.7
;Generated with Cura_SteamEngine 4.7.1
M140 S50
M105
M190 S50
M104 S255
M105
M109 S255
M82 ;absolute extrusion mode
G28 ;Home
G1 Z15.0 F6000 ;Move the platform down 15mm
;Prime the extruder
G92 E0
G1 F200 E3
G92 E0
G92 E0
G92 E0
G1 F1500 E-6.5
;LAYER_COUNT:49
;LAYER:0
M107
;MESH:bottomMidq10_14_2020.stl
G0 F3600 X-1.21 Y-5.783 Z0.3
;TYPE:WALL-INNER
G1 F1500 E0
G1 F1800 X-1.815 Y-5.46 E0.03422
G1 X-1.903 Y-5.419 E0.03906
G1 X-2.435 Y-4.962 E0.07405
G1 X-2.506 Y-4.908 E0.0785
G1 X-2.944 Y-4.332 E0.1146
G1 X-2.997 Y-4.267 E0.11879
G1 X-3.309 Y-3.617 E0.15476
G1 X-3.349 Y-3.543 E0.15895
G1 X-3.554 Y-2.738 E0.2004
G1 X-3.599 Y-1.922 E0.24117
G1 X-3.499 Y-1.177 E0.27867
G1 X-3.482 Y-1.095 E0.28285
G1 X-3.224 Y-.344 E0.32246
G1 X-2.851 Y0.292 E0.35925
G1 X-2.802 Y0.364 E0.36359
G1 X-2.332 Y0.884 E0.39856
G1 X-2.268 Y0.948 E0.40308
G1 X-1.697 Y1.354 E0.43803
G1 X-1.619 Y1.403 E0.44263
G1 X-.985 Y1.665 E0.47685
G1 X-.896 Y1.697 E0.48157
G1 X-.196 Y1.812 E0.51696
G1 X-0.077 Y1.813 E0.5229
G1 X0.63 Y1.763 E0.55826
G1 X1.374 Y1.527 E0.5972
G1 X2.051 Y1.127 E0.63643
G1 X2.632 Y0.582 E0.67618
G1 X3.134 Y-.156 E0.72071
G1 X3.484 Y-1.091 E0.77051
G1 X3.603 Y-2.085 E0.82046
G1 X3.524 Y-2.905 E0.86156
G1 X3.292 Y-3.685 E0.90216
G1 X2.913 Y-4.397 E0.9424
G1 X2.401 Y-5.011 E0.98228
G1 X1.778 Y-5.496 E1.02167
G1 X1.083 Y-5.824 E1.06001
G1 X0.992 Y-5.848 E1.06471
G1 X0.308 Y-5.991 E1.09957
G1 X-.468 Y-5.974 E1.1383
G1 X-1.12 Y-5.801 E1.17195
G1 X-1.21 Y-5.783 E1.17653
G0 F3600 X-1.243 Y-5.877
G0 X-2.784 Y-9.039
G0 X-3.205 Y-10.516
G0 X-3.106 Y-10.514
G1 F1800 X-3.025 Y-9.839 E1.21045
G1 X-3.009 Y-9.744 E1.21525
G1 X-2.749 Y-9.057 E1.2519
G1 X-2.324 Y-8.441 E1.28924
G1 X-1.764 Y-7.945 E1.32656
G1 X-1.102 Y-7.597 E1.36387
G1 X-.373 Y-7.418 E1.40132
G1 X0.373 Y-7.418 E1.43854
G1 X1.102 Y-7.597 E1.47599
G1 X1.764 Y-7.945 E1.5133
G1 X2.324 Y-8.441 E1.55062
G1 X2.749 Y-9.057 E1.58796
G1 X3.014 Y-9.758 E1.62535
G1 X3.09 Y-10.387 E1.65696
G1 X3.106 Y-10.486 E1.66196
G1 X3.025 Y-11.161 E1.69588
G1 X3.009 Y-11.256 E1.70069
G1 X2.749 Y-11.943 E1.73733
G1 X2.324 Y-12.559 E1.77467
G1 X1.764 Y-13.055 E1.81199
G1 X1.102 Y-13.403 E1.84931
G1 X0.373 Y-13.582 E1.88676
G1 X-.373 Y-13.582 E1.92397
G1 X-1.102 Y-13.403 E1.96142
G1 X-1.764 Y-13.055 E1.99874
G1 X-2.324 Y-12.559 E2.03606
G1 X-2.749 Y-11.943 E2.0734
G1 X-3.014 Y-11.242 E2.11078
G1 X-3.09 Y-10.613 E2.14239
G1 X-3.106 Y-10.514 E2.1474
G0 F3600 X-3.205 Y-10.516
G0 X-3.205 Y-22.516
G0 X-3.106 Y-22.514
G1 F1800 X-3.025 Y-21.839 E2.18131
G1 X-3.009 Y-21.744 E2.18612
G1 X-2.749 Y-21.057 E2.22277
G1 X-2.324 Y-20.441 E2.2601
G1 X-1.764 Y-19.945 E2.29743
G1 X-1.102 Y-19.597 E2.33474
G1 X-.373 Y-19.418 E2.37219
G1 X0.373 Y-19.418 E2.40941
G1 X1.102 Y-19.597 E2.44686
G1 X1.764 Y-19.945 E2.48417
G1 X2.324 Y-20.441 E2.52149
G1 X2.749 Y-21.057 E2.55883
G1 X3.014 Y-21.758 E2.59622
G1 X3.09 Y-22.387 E2.62783
G1 X3.106 Y-22.486 E2.63283
G1 X3.025 Y-23.161 E2.66675
G1 X3.009 Y-23.256 E2.67155
G1 X2.749 Y-23.943 E2.7082
G1 X2.324 Y-24.559 E2.74554
G1 X1.764 Y-25.055 E2.78286
G1 X1.102 Y-25.403 E2.82017
G1 X0.373 Y-25.582 E2.85762
G1 X-.373 Y-25.582 E2.89484
G1 X-1.102 Y-25.403 E2.93229
G1 X-1.764 Y-25.055 E2.9696
G1 X-2.324 Y-24.559 E3.00692
G1 X-2.749 Y-23.943 E3.04426
G1 X-3.014 Y-23.242 E3.08165
G1 X-3.09 Y-22.613 E3.11326
G1 X-3.106 Y-22.514 E3.11826
G0 F3600 X-3.205 Y-22.516
G0 X-3.145 Y-10.514
G0 X-2.784 Y-9.039
G0 X0.702 Y-5.945
G0 X1.798 Y-5.53
G0 X2.946 Y-4.419
G0 X3.329 Y-3.7
G0 X8.83 Y28.508
G0 X8.9 Y28.578
G1 F1800 X-8.9 Y28.578 E4.00631
G1 X-8.9 Y-28.9 E6.8739
G1 X8.9 Y-28.9 E7.76194
G1 X8.9 Y28.578 E10.62953
G0 F3600 X9.3 Y28.978
;TYPE:WALL-OUTER
G1 F1800 X-9.3 Y28.978 E11.55749
G1 X-9.3 Y-29.3 E14.46499
G1 X9.3 Y-29.3 E15.39295
G1 X9.3 Y28.978 E18.30045
G0 F3600 X9.1 Y28.978
G0 X8.83 Y28.508
G0 X-3.26 Y-.328
G0 X-3.538 Y-1.171
G0 X-3.593 Y-2.744
G0 X-3.344 Y-3.635
G0 X-2.975 Y-4.356
G0 X-2.46 Y-4.993
G0 X-1.169 Y-5.893
G0 X-1.072 Y-5.403
G1 F1800 X-1.637 Y-5.101 E18.33241
G1 X-1.685 Y-5.079 E18.33505
G1 X-2.185 Y-4.649 E18.36795
G1 X-2.221 Y-4.622 E18.37019
G1 X-2.625 Y-4.09 E18.40352
G1 X-2.657 Y-4.051 E18.40604
G1 X-2.95 Y-3.44 E18.43984
G1 X-2.974 Y-3.396 E18.44234
G1 X-3.157 Y-2.677 E18.47936
G1 X-3.198 Y-1.938 E18.51628
G1 X-3.104 Y-1.244 E18.55122
G1 X-3.095 Y-1.2 E18.55346
G1 X-2.859 Y-.512 E18.58975
G1 X-2.513 Y0.078 E18.62388
G1 X-2.487 Y0.116 E18.62617
G1 X-2.042 Y0.608 E18.65927
G1 X-2.009 Y0.641 E18.6616
G1 X-1.475 Y1.021 E18.6943
G1 X-1.435 Y1.046 E18.69665
G1 X-.841 Y1.292 E18.72873
G1 X-.796 Y1.308 E18.73111
G1 X-.161 Y1.412 E18.76321
G1 X-0.089 Y1.413 E18.7668
G1 X0.554 Y1.367 E18.79896
G1 X1.21 Y1.159 E18.8333
G1 X1.81 Y0.805 E18.86805
G1 X2.326 Y0.321 E18.90335
G1 X2.776 Y-.341 E18.94328
G1 X3.093 Y-1.186 E18.98831
G1 X3.201 Y-2.09 E19.03373
G1 X3.13 Y-2.828 E19.07072
G1 X2.92 Y-3.532 E19.10737
G1 X2.579 Y-4.173 E19.1436
G1 X2.121 Y-4.722 E19.17927
G1 X1.567 Y-5.153 E19.21428
G1 X0.945 Y-5.447 E19.24861
G1 X0.9 Y-5.459 E19.25093
G1 X0.271 Y-5.59 E19.28299
G1 X-.412 Y-5.575 E19.31707
G1 X-1.02 Y-5.414 E19.34845
G1 X-1.072 Y-5.403 E19.3511
G0 F3600 X-1.248 Y-5.309
G0 X-1.483 Y-5.751
G0 X-3.064 Y-9.834
G0 X-2.702 Y-10.505
G1 F1800 X-2.629 Y-9.896 E19.3817
G1 X-2.621 Y-9.849 E19.38408
G1 X-2.392 Y-9.244 E19.41635
G1 X-2.022 Y-8.708 E19.44885
G1 X-1.535 Y-8.277 E19.48129
G1 X-.959 Y-7.974 E19.51376
G1 X-.325 Y-7.818 E19.54634
G1 X0.325 Y-7.818 E19.57876
G1 X0.959 Y-7.974 E19.61134
G1 X1.535 Y-8.277 E19.64381
G1 X2.022 Y-8.708 E19.67625
G1 X2.392 Y-9.244 E19.70875
G1 X2.623 Y-9.854 E19.74129
G1 X2.695 Y-10.453 E19.77139
G1 X2.702 Y-10.495 E19.77351
G1 X2.629 Y-11.104 E19.80411
G1 X2.621 Y-11.151 E19.80649
G1 X2.392 Y-11.756 E19.83876
G1 X2.022 Y-12.292 E19.87126
G1 X1.535 Y-12.723 E19.9037
G1 X0.959 Y-13.026 E19.93617
G1 X0.325 Y-13.182 E19.96875
G1 X-.325 Y-13.182 E20.00118
G1 X-.959 Y-13.026 E20.03375
G1 X-1.535 Y-12.723 E20.06622
G1 X-2.022 Y-12.292 E20.09867
G1 X-2.392 Y-11.756 E20.13116
G1 X-2.623 Y-11.146 E20.1637
G1 X-2.695 Y-10.547 E20.1938
G1 X-2.702 Y-10.505 E20.19592
G0 F3600 X-2.679 Y-10.307
G0 X-3.175 Y-10.249
G0 X-3.196 Y-22.585
G0 X-2.702 Y-22.505
G1 F1800 X-2.629 Y-21.896 E20.22653
G1 X-2.621 Y-21.849 E20.2289
G1 X-2.392 Y-21.244 E20.26118
G1 X-2.022 Y-20.708 E20.29367
G1 X-1.535 Y-20.277 E20.32612
G1 X-.959 Y-19.974 E20.35859
G1 X-.325 Y-19.818 E20.39116
G1 X0.325 Y-19.818 E20.42359
G1 X0.959 Y-19.974 E20.45616
G1 X1.535 Y-20.277 E20.48863
G1 X2.022 Y-20.708 E20.52108
G1 X2.392 Y-21.244 E20.55357
G1 X2.623 Y-21.854 E20.58611
G1 X2.695 Y-22.453 E20.61621
G1 X2.702 Y-22.495 E20.61834
G1 X2.629 Y-23.104 E20.64894
G1 X2.621 Y-23.151 E20.65132
G1 X2.392 Y-23.756 E20.68359
G1 X2.022 Y-24.292 E20.71608
G1 X1.535 Y-24.723 E20.74853
G1 X0.959 Y-25.026 E20.781
G1 X0.325 Y-25.182 E20.81357
G1 X-.325 Y-25.182 E20.846
G1 X-.959 Y-25.026 E20.87858
G1 X-1.535 Y-24.723 E20.91105
G1 X-2.022 Y-24.292 E20.94349
G1 X-2.392 Y-23.756 E20.97598
G1 X-2.623 Y-23.146 E21.00853
G1 X-2.695 Y-22.547 E21.03863
G1 X-2.702 Y-22.505 E21.04075
G0 F3600 X-2.679 Y-22.307
G0 X-3.491 Y-22.447
;TYPE:SKIN
G1 F1800 X-3.411 Y-21.783 E21.07412
G1 X-3.387 Y-21.641 E21.0813
G1 X-3.097 Y-20.874 E21.12221
G1 X-2.618 Y-20.18 E21.16428
G1 X-1.987 Y-19.621 E21.20634
G1 X-1.241 Y-19.23 E21.24836
G1 X-.42 Y-19.028 E21.29054
G1 X0.42 Y-19.028 E21.33245
G1 X1.241 Y-19.23 E21.37463
G1 X1.987 Y-19.621 E21.41665
G1 X2.618 Y-20.18 E21.45871
G1 X3.097 Y-20.874 E21.50078
G1 X3.396 Y-21.664 E21.54292
G1 X3.48 Y-22.363 E21.57804
G1 X3.5 Y-22.477 E21.58382
G1 X3.497 Y-22.503 E21.58512
G1 X3.503 Y-22.553 E21.58764
G1 X3.491 Y-22.553 E21.58823
G1 X3.411 Y-23.217 E21.6216
G1 X3.387 Y-23.359 E21.62879
G1 X3.097 Y-24.126 E21.6697
G1 X2.618 Y-24.82 E21.71177
G1 X1.987 Y-25.379 E21.75382
G1 X1.241 Y-25.77 E21.79584
G1 X0.42 Y-25.972 E21.83802
G1 X-.42 Y-25.972 E21.87993
G1 X-1.241 Y-25.77 E21.92211
G1 X-1.987 Y-25.379 E21.96413
G1 X-2.618 Y-24.82 E22.00619
G1 X-3.097 Y-24.126 E22.04826
G1 X-3.396 Y-23.336 E22.0904
G1 X-3.48 Y-22.641 E22.12533
G1 X-3.5 Y-22.523 E22.1313
G1 X-3.497 Y-22.497 E22.13261
G1 X-3.503 Y-22.447 E22.13512
G1 X-3.491 Y-22.447 E22.13572
G0 F3600 X-8.51 Y-28.51
G1 F1800 X8.51 Y-28.51 E22.98485
G1 X8.51 Y28.188 E25.81352
G1 X-8.51 Y28.188 E26.66265
G1 X-8.51 Y-28.51 E29.49133
G0 F3600 X-.42 Y-13.972
G1 F1800 X-1.241 Y-13.77 E29.53351
G1 X-1.987 Y-13.379 E29.57553
G1 X-2.618 Y-12.82 E29.61759
G1 X-3.097 Y-12.126 E29.65966
G1 X-3.396 Y-11.336 E29.7018
G1 X-3.48 Y-10.641 E29.73673
G1 X-3.5 Y-10.523 E29.7427
G1 X-3.497 Y-10.497 E29.744
G1 X-3.503 Y-10.447 E29.74652
G1 X-3.491 Y-10.447 E29.74711
G1 X-3.411 Y-9.783 E29.78048
G1 X-3.387 Y-9.641 E29.78767
G1 X-3.097 Y-8.874 E29.82858
G1 X-2.618 Y-8.18 E29.87065
G1 X-1.987 Y-7.621 E29.9127
G1 X-1.241 Y-7.23 E29.95472
G1 X-.42 Y-7.028 E29.9969
G1 X0.42 Y-7.028 E30.03881
G1 X1.241 Y-7.23 E30.08099
G1 X1.987 Y-7.621 E30.12301
G1 X2.618 Y-8.18 E30.16507
G1 X3.097 Y-8.874 E30.20714
G1 X3.396 Y-9.664 E30.24928
G1 X3.48 Y-10.363 E30.28441
G1 X3.5 Y-10.477 E30.29018
G1 X3.497 Y-10.503 E30.29149
G1 X3.503 Y-10.553 E30.294
G1 X3.491 Y-10.553 E30.2946
G1 X3.411 Y-11.217 E30.32797
G1 X3.387 Y-11.359 E30.33515
G1 X3.097 Y-12.126 E30.37606
G1 X2.618 Y-12.82 E30.41813
G1 X1.987 Y-13.379 E30.46019
G1 X1.241 Y-13.77 E30.50221
G1 X0.42 Y-13.972 E30.54439
G1 X-.42 Y-13.972 E30.5863
G0 F3600 X-1.786 Y-13.087
G0 X-2.784 Y-11.961
G0 X-3.145 Y-10.514
G0 X-2.784 Y-9.039
G0 X-.523 Y-6.362
G1 F1800 X-1.211 Y-6.18 E30.6218
G1 X-1.343 Y-6.154 E30.62851
G1 X-1.993 Y-5.807 E30.66527
G1 X-2.116 Y-5.75 E30.67204
G1 X-2.678 Y-5.268 E30.70898
G1 X-2.784 Y-5.187 E30.71563
G1 X-3.246 Y-4.578 E30.75377
G1 X-3.328 Y-4.478 E30.76022
G1 X-3.652 Y-3.802 E30.79762
G1 X-3.715 Y-3.686 E30.8042
G1 X-3.942 Y-2.797 E30.84998
G1 X-3.991 Y-1.906 E30.8945
G1 X-3.883 Y-1.111 E30.93453
G1 X-3.859 Y-.992 E30.94058
G1 X-3.581 Y-.18 E30.9834
G1 X-3.181 Y0.5 E31.02276
G1 X-3.11 Y0.605 E31.02909
G1 X-2.615 Y1.153 E31.06593
G1 X-2.521 Y1.247 E31.07256
G1 X-1.914 Y1.678 E31.1097
G1 X-1.799 Y1.75 E31.11647
G1 X-1.125 Y2.03 E31.15288
G1 X-.993 Y2.076 E31.15986
G1 X-.229 Y2.202 E31.19849
G1 X-0.065 Y2.203 E31.20667
G1 X0.704 Y2.149 E31.24513
G1 X1.534 Y1.886 E31.28857
G1 X2.287 Y1.441 E31.3322
G1 X2.93 Y0.837 E31.37622
G1 X3.483 Y0.025 E31.42523
G1 X3.866 Y-.998 E31.47973
G1 X3.995 Y-2.081 E31.53414
G1 X3.908 Y-2.98 E31.5792
G1 X3.655 Y-3.833 E31.62359
G1 X3.239 Y-4.616 E31.66783
G1 X2.674 Y-5.293 E31.71182
G1 X1.983 Y-5.83 E31.75548
G1 X1.217 Y-6.192 E31.79775
G1 X1.082 Y-6.228 E31.80472
G1 X0.345 Y-6.381 E31.84227
G1 X-.523 Y-6.362 E31.88559
G0 F3600 X1.786 Y-7.913
G0 X2.784 Y-9.039
G0 X7.874 Y-28.329
G1 F1800 X8.329 Y-27.874 E31.91769
G0 F3600 X8.329 Y-27.308
G1 F1800 X7.308 Y-28.329 E31.98973
G0 F3600 X6.742 Y-28.329
G1 F1800 X8.329 Y-26.742 E32.1017
G0 F3600 X8.329 Y-26.177
G1 F1800 X6.177 Y-28.329 E32.25353
G0 F3600 X5.611 Y-28.329
G1 F1800 X8.329 Y-25.611 E32.4453
G0 F3600 X8.329 Y-25.045
G1 F1800 X5.045 Y-28.329 E32.67701
G0 F3600 X4.48 Y-28.329
G1 F1800 X8.329 Y-24.48 E32.94857
G0 F3600 X8.329 Y-23.914
G1 F1800 X3.914 Y-28.329 E33.26008
G0 F3600 X3.348 Y-28.329
G1 F1800 X8.329 Y-23.348 E33.61151
G0 F3600 X8.329 Y-22.782
G1 F1800 X2.783 Y-28.329 E34.00285
G0 F3600 X2.217 Y-28.329
G1 F1800 X8.329 Y-22.217 E34.43408
G0 F3600 X8.329 Y-21.651
G1 F1800 X1.651 Y-28.329 E34.90525
G0 F3600 X1.086 Y-28.329
G1 F1800 X8.329 Y-21.085 E35.41632
G0 F3600 X8.329 Y-20.52
G1 F1800 X0.52 Y-28.329 E35.96729
G0 F3600 X-0.045 Y-28.329
G1 F1800 X8.329 Y-19.954 E36.55815
G0 F3600 X8.329 Y-19.388
G1 F1800 X-.61 Y-28.329 E37.18892
G0 F3600 X-1.176 Y-28.329
G1 F1800 X1.184 Y-25.968 E37.35546
G0 F3600 X0.435 Y-26.151
G1 F1800 X-1.742 Y-28.329 E37.5091
G0 F3600 X-2.307 Y-28.329
G1 F1800 X-.13 Y-26.151 E37.66273
G0 F3600 X-.646 Y-26.102
G1 F1800 X-2.873 Y-28.329 E37.81986
G0 F3600 X-3.439 Y-28.329
G1 F1800 X-1.099 Y-25.989 E37.98496
G0 F3600 X-1.508 Y-25.832
G1 F1800 X-4.005 Y-28.329 E38.16114
G0 F3600 X-4.57 Y-28.329
G1 F1800 X-1.879 Y-25.638 E38.351
G0 F3600 X-2.22 Y-25.413
G1 F1800 X-5.136 Y-28.329 E38.55674
G0 F3600 X-5.702 Y-28.329
G1 F1800 X-2.52 Y-25.147 E38.78125
G0 F3600 X-2.805 Y-24.866
G1 F1800 X-6.267 Y-28.329 E39.02554
G0 F3600 X-6.833 Y-28.329
G1 F1800 X-3.035 Y-24.531 E39.29351
G0 F3600 X-3.262 Y-24.192
G1 F1800 X-7.399 Y-28.329 E39.5854
G0 F3600 X-7.964 Y-28.329
G1 F1800 X-3.418 Y-23.782 E39.90618
G0 F3600 X-3.573 Y-23.372
G1 F1800 X-8.329 Y-28.128 E40.24174
G0 F3600 X-8.329 Y-27.563
G1 F1800 X-3.633 Y-22.867 E40.57307
G0 F3600 X-3.693 Y-22.36
G1 F1800 X-8.329 Y-26.997 E40.9002
G0 F3600 X-8.329 Y-26.431
G1 F1800 X-3.575 Y-21.677 E41.23562
G1 X-3.505 Y-21.607
G0 F3600 X-3.258 Y-20.794
G1 F1800 X-8.329 Y-25.865 E41.59341
G0 F3600 X-8.329 Y-25.3
G1 F1800 X8.329 Y-8.64 E42.76879
G0 F3600 X8.329 Y-8.075
G1 F1800 X-8.329 Y-24.734 E43.94414
G0 F3600 X-8.329 Y-24.168
G1 F1800 X8.329 Y-7.509 E45.11949
G0 F3600 X8.329 Y-6.943
G1 F1800 X3.375 Y-11.898 E45.46905
G1 X3.305 Y-11.968
G0 F3600 X3.606 Y-11.101
G1 F1800 X8.329 Y-6.378 E45.80229
G0 F3600 X8.329 Y-5.812
G1 F1800 X3.679 Y-10.462 E46.13037
G0 F3600 X3.613 Y-9.963
G1 F1800 X8.329 Y-5.246 E46.46314
G0 F3600 X8.329 Y-4.681
G1 F1800 X3.522 Y-9.488 E46.8023
G0 F3600 X3.366 Y-9.078
G1 F1800 X8.329 Y-4.115 E47.15247
G0 F3600 X8.329 Y-3.549
G1 F1800 X3.189 Y-8.69 E47.51516
G0 F3600 X2.958 Y-8.355
G1 F1800 X8.329 Y-2.983 E47.89415
G0 F3600 X8.329 Y-2.418
G1 F1800 X2.72 Y-8.027 E48.28989
G0 F3600 X2.42 Y-7.761
G1 F1800 X8.329 Y-1.852 E48.7068
G0 F3600 X8.329 Y-1.286
G1 F1800 X2.12 Y-7.496 E49.14492
G0 F3600 X1.755 Y-7.295
G1 F1800 X8.329 Y-.721 E49.60875
G0 F3600 X8.329 Y-.155
G1 F1800 X1.384 Y-7.1 E50.09876
G0 F3600 X0.948 Y-6.971
G1 F1800 X1.809 Y-6.11 E50.1595
G1 X1.879 Y-6.04
G0 F3600 X0.906 Y-6.447
G1 F1800 X0.494 Y-6.859 E50.18857
G0 F3600 X0.229 Y-6.558
G1 F1800 X-0.059 Y-6.847 E50.20893
G0 F3600 X-.323 Y-6.545
G1 F1800 X-.684 Y-6.907 E50.23443
G0 F3600 X-.813 Y-6.47
G1 F1800 X-1.51 Y-7.167 E50.28361
G1 X-1.58 Y-7.237
G0 F3600 X-1.26 Y-6.351
G1 F1800 X-8.329 Y-13.42 E50.78237
G0 F3600 X-8.329 Y-12.855
G1 F1800 X-1.661 Y-6.187 E51.25283
G0 F3600 X-2.03 Y-5.99
G1 F1800 X-8.329 Y-12.289 E51.69726
G0 F3600 X-8.329 Y-11.723
G1 F1800 X-2.372 Y-5.766 E52.11756
G0 F3600 X-2.677 Y-5.505
G1 F1800 X-8.329 Y-11.158 E52.51637
G0 F3600 X-8.329 Y-10.592
G1 F1800 X-2.972 Y-5.235 E52.89434
G0 F3600 X-3.216 Y-4.913
G1 F1800 X-8.329 Y-10.026 E53.25509
G0 F3600 X-8.329 Y-9.461
G1 F1800 X-3.464 Y-4.595 E53.59838
G0 F3600 X-3.651 Y-4.217
G1 F1800 X-8.329 Y-8.895 E53.92843
G0 F3600 X-8.329 Y-8.329
G1 F1800 X-3.836 Y-3.836 E54.24544
G0 F3600 X-3.971 Y-3.406
G1 F1800 X-8.329 Y-7.764 E54.55292
G0 F3600 X-8.329 Y-7.198
G1 F1800 X-4.086 Y-2.954 E54.85232
G0 F3600 X-4.14 Y-2.443
G1 F1800 X-8.329 Y-6.632 E55.14788
G0 F3600 X-8.329 Y-6.066
G1 F1800 X-4.17 Y-1.907 E55.44132
G0 F3600 X-4.082 Y-1.253
G1 F1800 X-8.329 Y-5.501 E55.741
G0 F3600 X-8.329 Y-4.935
G1 F1800 X-3.872 Y-.478 E56.05547
G1 X-3.802 Y-.408
G0 F3600 X-3.267 Y0.692
G1 F1800 X-8.329 Y-4.369 E56.41258
G0 F3600 X-8.329 Y-3.804
G1 F1800 X8.329 Y12.855 E57.58793
G0 F3600 X8.329 Y13.42
G1 F1800 X-8.329 Y-3.238 E58.76324
G0 F3600 X-8.329 Y-2.672
G1 F1800 X8.329 Y13.986 E59.93855
G0 F3600 X8.329 Y14.552
G1 F1800 X-8.329 Y-2.107 E61.1139
G0 F3600 X-8.329 Y-1.541
G1 F1800 X8.329 Y15.117 E62.28921
G0 F3600 X8.329 Y15.683
G1 F1800 X-8.329 Y-.975 E63.46452
G0 F3600 X-8.329 Y-.41
G1 F1800 X8.329 Y16.249 E64.63987
G0 F3600 X8.329 Y16.814
G1 F1800 X-8.329 Y0.155 E65.81522
G0 F3600 X-8.329 Y0.721
G1 F1800 X8.329 Y17.38 E66.99057
G0 F3600 X8.329 Y17.946
G1 F1800 X-8.329 Y1.286 E68.16595
G0 F3600 X-8.329 Y1.852
G1 F1800 X8.329 Y18.512 E69.34133
G0 F3600 X8.329 Y19.077
G1 F1800 X-8.329 Y2.418 E70.51668
G0 F3600 X-8.329 Y2.983
G1 F1800 X8.329 Y19.643 E71.69206
G0 F3600 X8.329 Y20.209
G1 F1800 X-8.329 Y3.549 E72.86744
G0 F3600 X-8.329 Y4.115
G1 F1800 X8.329 Y20.774 E74.04279
G0 F3600 X8.329 Y21.34
G1 F1800 X-8.329 Y4.681 E75.21814
