;FLAVOR:Marlin
;TIME:6495
;Filament used: 9.10459m
;Layer height: 0.3
;MINX:-43.578
;MINY:-39.8
;MINZ:0.3
;MAXX:44.875
;MAXY:39.8
;MAXZ:15
;Generated with Cura_SteamEngine 4.7.1
M140 S50
M105
M190 S50
M104 S255
M105
M109 S255
M82 ;absolute extrusion mode
G28 ;Home
G1 Z15.0 F6000 ;Move the platform down 15mm
;Prime the extruder
G92 E0
G1 F200 E3
G92 E0
G92 E0
G92 E0
G1 F1500 E-6.5
;LAYER_COUNT:50
;LAYER:0
M107
;MESH:base10_10_2020.stl
G0 F3600 X0.405 Y-17.59 Z0.3
;TYPE:WALL-INNER
G1 F1500 E0
G1 F1800 X-2.276 Y-17.28 E0.13465
G1 X-4.875 Y-16.566 E0.26912
G1 X-7.334 Y-15.463 E0.40357
G1 X-9.596 Y-13.999 E0.538
G1 X-10.664 Y-13.047 E0.60938
G1 X-10.897 Y-12.839 E0.62496
G1 X-11.265 Y-12.511 E0.64955
G1 X-11.608 Y-12.205 E0.67248
G1 X-11.626 Y-12.183 E0.6739
G1 X-11.923 Y-11.823 E0.69719
G1 X-11.99 Y-11.742 E0.70243
G1 X-13.322 Y-10.126 E0.80691
G1 X-14.7 Y-7.81 E0.94136
G1 X-15.706 Y-5.311 E1.07576
G1 X-16.32 Y-2.687 E1.21021
G1 X-16.527 Y0.00 E1.34466
G1 X-16.32 Y2.687 E1.47911
G1 X-15.706 Y5.311 E1.61356
G1 X-14.7 Y7.81 E1.74796
G1 X-13.322 Y10.126 E1.88241
G1 X-11.991 Y11.741 E1.98682
G1 X-11.924 Y11.822 E1.99207
G1 X-11.627 Y12.182 E2.01535
G1 X-11.608 Y12.205 E2.01684
G1 X-11.266 Y12.51 E2.0397
G1 X-10.898 Y12.838 E2.06429
G1 X-10.665 Y13.046 E2.07988
G1 X-9.596 Y13.999 E2.15133
G1 X-7.334 Y15.463 E2.28575
G1 X-4.875 Y16.566 E2.42021
G1 X-2.276 Y17.28 E2.55468
G1 X0.401 Y17.589 E2.68912
G1 X2.953 Y17.493 E2.81653
G1 X3.098 Y17.485 E2.82377
G1 X5.6 Y17 E2.95092
G1 X5.742 Y16.971 E2.95815
G1 X8.275 Y16.062 E3.09242
G1 X10.643 Y14.774 E3.2269
G1 X12.726 Y13.186 E3.35758
G1 X12.785 Y13.141 E3.36128
G1 X13.049 Y12.867 E3.38026
G1 X13.396 Y12.506 E3.40524
G1 X13.747 Y12.141 E3.43051
G1 X14.081 Y11.795 E3.4545
G1 X14.149 Y11.724 E3.4594
G1 X14.654 Y11.199 E3.49575
G1 X16.205 Y8.995 E3.6302
G1 X17.4 Y6.58 E3.76463
G1 X18.214 Y4.011 E3.89908
G1 X18.625 Y1.348 E4.03351
G1 X18.625 Y-1.347 E4.16796
G1 X18.237 Y-3.872 E4.29542
G1 X18.213 Y-4.015 E4.30265
G1 X17.4 Y-6.58 E4.43689
G1 X16.205 Y-8.995 E4.57132
G1 X14.654 Y-11.199 E4.70578
G1 X14.148 Y-11.724 E4.74215
G1 X14.081 Y-11.794 E4.74699
G1 X13.748 Y-12.14 E4.77095
G1 X13.397 Y-12.505 E4.79621
G1 X13.05 Y-12.866 E4.82119
G1 X12.785 Y-13.141 E4.84024
G1 X12.725 Y-13.187 E4.84402
G1 X10.643 Y-14.774 E4.97462
G1 X8.275 Y-16.062 E5.10911
G1 X5.739 Y-16.972 E5.24353
G1 X3.097 Y-17.485 E5.3778
G1 X0.548 Y-17.582 E5.50506
G1 X0.405 Y-17.59 E5.51221
G0 F3600 X2.81 Y-17.351
G0 X13.499 Y-15.396
G1 F1800 X13.212 Y-14.977 E5.53755
G1 X13.032 Y-14.504 E5.56279
G1 X12.971 Y-14 E5.58812
G1 X13.032 Y-13.496 E5.61345
G1 X13.091 Y-13.34 E5.62177
G1 X13.118 Y-13.269 E5.62536
G1 X13.212 Y-13.023 E5.63418
G1 X13.499 Y-12.604 E5.6464
G1 X13.88 Y-12.268 E5.65671
G1 X14.328 Y-12.032 E5.67364
G1 X14.423 Y-12.009 E5.67819
G1 X14.822 Y-11.911 E5.69868
G1 X15.328 Y-11.911 E5.72393
G1 X15.822 Y-12.032 E5.7493
G1 X16.27 Y-12.268 E5.77456
G1 X16.651 Y-12.604 E5.79991
G1 X16.938 Y-13.023 E5.82525
G1 X17.118 Y-13.496 E5.85049
G1 X17.179 Y-14 E5.87582
G1 X17.118 Y-14.504 E5.90115
G1 X16.938 Y-14.977 E5.9264
G1 X16.651 Y-15.396 E5.95174
G1 X16.27 Y-15.732 E5.97708
G1 X15.822 Y-15.968 E6.00234
G1 X15.328 Y-16.089 E6.02772
G1 X14.822 Y-16.089 E6.05296
G1 X14.328 Y-15.968 E6.07834
G1 X13.88 Y-15.732 E6.1036
G1 X13.499 Y-15.396 E6.12894
G0 F3600 X19.499 Y-31.396
G1 F1800 X19.212 Y-30.977 E6.15428
G1 X19.032 Y-30.504 E6.17953
G1 X18.971 Y-30 E6.20486
G1 X19.032 Y-29.496 E6.23019
G1 X19.212 Y-29.023 E6.25544
G1 X19.499 Y-28.604 E6.28077
G1 X19.88 Y-28.268 E6.30612
G1 X20.328 Y-28.032 E6.33138
G1 X20.822 Y-27.911 E6.35675
G1 X21.328 Y-27.911 E6.382
G1 X21.822 Y-28.032 E6.40737
G1 X22.27 Y-28.268 E6.43263
G1 X22.651 Y-28.604 E6.45798
G1 X22.938 Y-29.023 E6.48332
G1 X23.118 Y-29.496 E6.50857
G1 X23.179 Y-30 E6.53389
G1 X23.118 Y-30.504 E6.55922
G1 X22.938 Y-30.977 E6.58447
G1 X22.651 Y-31.396 E6.60981
G1 X22.27 Y-31.732 E6.63515
G1 X21.822 Y-31.968 E6.66041
G1 X21.328 Y-32.089 E6.68579
G1 X20.822 Y-32.089 E6.71103
G1 X20.328 Y-31.968 E6.73641
G1 X19.88 Y-31.732 E6.76167
G1 X19.499 Y-31.396 E6.78701
G0 F3600 X20.384 Y-31.815
G0 X40.475 Y-30.6
G1 F1800 X40.475 Y-26.6 E6.98657
G1 X32.967 Y-26.6 E7.36115
G1 X32.807 Y-26.6 E7.36913
G1 X32.626 Y-26.6 E7.37816
G1 X32.807 Y-26.806 E7.38413
G1 X32.881 Y-26.947 E7.39042
G1 X33.042 Y-27.253 E7.40767
G1 X33.164 Y-27.746 E7.43301
G1 X33.164 Y-28.254 E7.45836
G1 X33.042 Y-28.747 E7.48369
G1 X32.807 Y-29.194 E7.50889
G1 X32.471 Y-29.576 E7.53427
G1 X32.052 Y-29.863 E7.55961
G1 X31.579 Y-30.043 E7.58486
G1 X31.075 Y-30.104 E7.61018
G1 X30.571 Y-30.043 E7.63551
G1 X30.098 Y-29.863 E7.66076
G1 X29.679 Y-29.576 E7.6861
G1 X29.342 Y-29.194 E7.71151
G1 X29.107 Y-28.746 E7.73675
G1 X28.986 Y-28.254 E7.76203
G1 X28.986 Y-27.746 E7.78737
G1 X29.107 Y-27.254 E7.81265
G1 X29.268 Y-26.947 E7.82995
G1 X29.342 Y-26.806 E7.83789
G1 X29.524 Y-26.6 E7.8516
G1 X29.342 Y-26.6 E7.85294
G1 X29.182 Y-26.6 E7.85927
G1 X20.475 Y-26.6 E8.29367
G1 X20.475 Y-9.4 E9.15178
G1 X29.182 Y-9.4 E9.58617
G1 X29.342 Y-9.4 E9.59416
G1 X29.524 Y-9.4 E9.60324
G1 X29.342 Y-9.194 E9.60918
G1 X29.268 Y-9.053 E9.61547
G1 X29.107 Y-8.746 E9.63277
G1 X28.986 Y-8.254 E9.65805
G1 X28.986 Y-7.746 E9.68339
G1 X29.107 Y-7.254 E9.70867
G1 X29.342 Y-6.806 E9.73391
G1 X29.679 Y-6.424 E9.75932
G1 X30.098 Y-6.137 E9.78466
G1 X30.571 Y-5.957 E9.80991
G1 X31.075 Y-5.896 E9.83524
G1 X31.579 Y-5.957 E9.86056
G1 X32.052 Y-6.137 E9.88581
G1 X32.471 Y-6.424 E9.91115
G1 X32.807 Y-6.806 E9.93653
G1 X33.042 Y-7.253 E9.96173
G1 X33.164 Y-7.746 E9.98706
G1 X33.164 Y-8.254 E10.01241
G1 X33.042 Y-8.747 E10.03775
G1 X32.881 Y-9.053 E10.055
G1 X32.807 Y-9.194 E10.06294
G1 X32.626 Y-9.4 E10.07662
G1 X32.807 Y-9.4 E10.07795
G1 X32.967 Y-9.4 E10.08428
G1 X40.475 Y-9.4 E10.45885
G1 X40.475 Y30.6 E12.45446
G1 X44.475 Y30.6 E12.65402
G1 X44.475 Y39.4 E13.09306
G1 X-42.325 Y39.4 E17.42353
G1 X-42.325 Y30.6 E17.86256
G1 X-38.325 Y30.6 E18.06212
G1 X-38.325 Y-30.6 E21.1154
G1 X-42.325 Y-30.6 E21.31496
G1 X-42.325 Y-39.4 E21.754
G1 X44.475 Y-39.4 E26.08447
G1 X44.475 Y-30.6 E26.5235
G1 X40.475 Y-30.6 E26.72306
G0 F3600 X32.248 Y-26.421
G0 X29.814 Y-26.221
G0 X20.647 Y-26.428
G0 X20.647 Y-9.572
G0 X29.905 Y-9.579
G0 X32.338 Y-9.779
G0 X34.893 Y-9.56
G0 X32.891 Y-1.312
G0 X32.471 Y-.424
G1 F1800 X32.807 Y-.806 E26.74844
G1 X33.042 Y-1.253 E26.77364
G1 X33.164 Y-1.746 E26.79897
G1 X33.164 Y-2.254 E26.82432
G1 X33.042 Y-2.747 E26.84966
G1 X32.807 Y-3.194 E26.87485
G1 X32.471 Y-3.576 E26.90023
G1 X32.052 Y-3.863 E26.92557
G1 X31.579 Y-4.043 E26.95082
G1 X31.075 Y-4.104 E26.97615
G1 X30.571 Y-4.043 E27.00148
G1 X30.098 Y-3.863 E27.02672
G1 X29.679 Y-3.576 E27.05206
G1 X29.342 Y-3.194 E27.07748
G1 X29.107 Y-2.746 E27.10272
G1 X28.986 Y-2.254 E27.12799
G1 X28.986 Y-1.746 E27.15334
G1 X29.107 Y-1.254 E27.17861
G1 X29.342 Y-.806 E27.20385
G1 X29.679 Y-.424 E27.22927
G1 X30.098 Y-.137 E27.25461
G1 X30.571 Y0.043 E27.27985
G1 X31.075 Y0.104 E27.30518
G1 X31.579 Y0.043 E27.33051
G1 X32.052 Y-.137 E27.35576
G1 X32.471 Y-.424 E27.3811
G0 F3600 X33.003 Y18.234
G0 X32.471 Y19.576
G1 F1800 X32.807 Y19.194 E27.40648
G1 X33.042 Y18.747 E27.43167
G1 X33.164 Y18.254 E27.45701
G1 X33.164 Y17.746 E27.48236
G1 X33.042 Y17.253 E27.50769
G1 X32.807 Y16.806 E27.53289
G1 X32.471 Y16.424 E27.55827
G1 X32.052 Y16.137 E27.58361
G1 X31.579 Y15.957 E27.60886
G1 X31.075 Y15.896 E27.63418
G1 X30.571 Y15.957 E27.65951
G1 X30.098 Y16.137 E27.68476
G1 X29.679 Y16.424 E27.7101
G1 X29.342 Y16.806 E27.73551
G1 X29.107 Y17.254 E27.76075
G1 X28.986 Y17.746 E27.78603
G1 X28.986 Y18.254 E27.81137
G1 X29.107 Y18.746 E27.83665
G1 X29.342 Y19.194 E27.86189
G1 X29.679 Y19.576 E27.88731
G1 X30.098 Y19.863 E27.91264
G1 X30.571 Y20.043 E27.93789
G1 X31.075 Y20.104 E27.96322
G1 X31.579 Y20.043 E27.98855
G1 X32.052 Y19.863 E28.0138
G1 X32.471 Y19.576 E28.03914
G0 F3600 X27.499 Y28.604
G1 F1800 X27.212 Y29.023 E28.06447
G1 X27.032 Y29.496 E28.08972
G1 X26.971 Y30 E28.11505
G1 X27.032 Y30.504 E28.14038
G1 X27.212 Y30.977 E28.16563
G1 X27.499 Y31.396 E28.19097
G1 X27.88 Y31.732 E28.21631
G1 X28.328 Y31.968 E28.24157
G1 X28.822 Y32.089 E28.26695
G1 X29.328 Y32.089 E28.29219
G1 X29.822 Y31.968 E28.31756
G1 X30.27 Y31.732 E28.34283
G1 X30.651 Y31.396 E28.36817
G1 X30.938 Y30.977 E28.39351
G1 X31.118 Y30.504 E28.41876
G1 X31.179 Y30 E28.44409
G1 X31.118 Y29.496 E28.46941
G1 X30.938 Y29.023 E28.49466
G1 X30.651 Y28.604 E28.52
G1 X30.27 Y28.268 E28.54534
G1 X29.822 Y28.032 E28.57061
G1 X29.328 Y27.911 E28.59598
G1 X28.822 Y27.911 E28.62123
G1 X28.328 Y28.032 E28.6466
G1 X27.88 Y28.268 E28.67186
G1 X27.499 Y28.604 E28.69721
G0 F3600 X8.844 Y28.072
G0 X7.499 Y28.604
G1 F1800 X7.212 Y29.023 E28.72254
G1 X7.032 Y29.496 E28.74779
G1 X6.971 Y30 E28.77312
G1 X7.032 Y30.504 E28.79845
G1 X7.212 Y30.977 E28.8237
G1 X7.499 Y31.396 E28.84904
G1 X7.88 Y31.732 E28.87438
G1 X8.328 Y31.968 E28.89964
G1 X8.822 Y32.089 E28.92502
G1 X9.328 Y32.089 E28.95026
G1 X9.822 Y31.968 E28.97563
G1 X10.27 Y31.732 E29.0009
G1 X10.651 Y31.396 E29.02624
G1 X10.938 Y30.977 E29.05158
G1 X11.118 Y30.504 E29.07683
G1 X11.179 Y30 E29.10216
G1 X11.118 Y29.496 E29.12748
G1 X10.938 Y29.023 E29.15273
G1 X10.651 Y28.604 E29.17807
G1 X10.27 Y28.268 E29.20341
G1 X9.822 Y28.032 E29.22868
G1 X9.328 Y27.911 E29.25405
G1 X8.822 Y27.911 E29.2793
G1 X8.328 Y28.032 E29.30467
G1 X7.88 Y28.268 E29.32993
G1 X7.499 Y28.604 E29.35528
G0 F3600 X3.306 Y28.072
G0 X1.499 Y28.604
G1 F1800 X1.212 Y29.023 E29.38061
G1 X1.032 Y29.496 E29.40586
G1 X0.971 Y30 E29.43119
G1 X1.032 Y30.504 E29.45652
G1 X1.212 Y30.977 E29.48177
G1 X1.499 Y31.396 E29.50711
G1 X1.88 Y31.732 E29.53245
G1 X2.328 Y31.968 E29.55771
G1 X2.822 Y32.089 E29.58309
G1 X3.328 Y32.089 E29.60833
G1 X3.822 Y31.968 E29.63371
G1 X4.27 Y31.732 E29.65897
G1 X4.651 Y31.396 E29.68431
G1 X4.938 Y30.977 E29.70965
G1 X5.118 Y30.504 E29.7349
G1 X5.179 Y30 E29.76023
G1 X5.118 Y29.496 E29.78555
G1 X4.938 Y29.023 E29.8108
G1 X4.651 Y28.604 E29.83614
G1 X4.27 Y28.268 E29.86149
G1 X3.822 Y28.032 E29.88675
G1 X3.328 Y27.911 E29.91212
G1 X2.822 Y27.911 E29.93737
G1 X2.328 Y28.032 E29.96274
G1 X1.88 Y28.268 E29.988
G1 X1.499 Y28.604 E30.01335
G0 F3600 X-17.156 Y28.072
G0 X-18.501 Y28.604
G1 F1800 X-18.788 Y29.023 E30.03868
G1 X-18.968 Y29.496 E30.06393
G1 X-19.029 Y30 E30.08926
G1 X-18.968 Y30.504 E30.11459
G1 X-18.788 Y30.977 E30.13984
G1 X-18.501 Y31.396 E30.16518
G1 X-18.12 Y31.732 E30.19052
G1 X-17.672 Y31.968 E30.21578
G1 X-17.178 Y32.089 E30.24116
G1 X-16.672 Y32.089 E30.2664
G1 X-16.178 Y31.968 E30.29178
G1 X-15.73 Y31.732 E30.31704
G1 X-15.349 Y31.396 E30.34238
G1 X-15.062 Y30.977 E30.36772
G1 X-14.882 Y30.504 E30.39297
G1 X-14.821 Y30 E30.4183
G1 X-14.882 Y29.496 E30.44363
G1 X-15.062 Y29.023 E30.46887
G1 X-15.349 Y28.604 E30.49421
G1 X-15.73 Y28.268 E30.51956
G1 X-16.178 Y28.032 E30.54482
G1 X-16.672 Y27.911 E30.57019
G1 X-17.178 Y27.911 E30.59544
G1 X-17.672 Y28.032 E30.62081
G1 X-18.12 Y28.268 E30.64607
G1 X-18.501 Y28.604 E30.67142
G0 F3600 X-23.694 Y28.072
G0 X-25.501 Y28.604
G1 F1800 X-25.788 Y29.023 E30.69675
G1 X-25.968 Y29.496 E30.722
G1 X-26.029 Y30 E30.74733
G1 X-25.968 Y30.504 E30.77266
G1 X-25.788 Y30.977 E30.79791
G1 X-25.501 Y31.396 E30.82325
G1 X-25.12 Y31.732 E30.84859
G1 X-24.672 Y31.968 E30.87385
G1 X-24.178 Y32.089 E30.89923
G1 X-23.672 Y32.089 E30.92447
G1 X-23.178 Y31.968 E30.94985
G1 X-22.73 Y31.732 E30.97511
G1 X-22.349 Y31.396 E31.00045
G1 X-22.062 Y30.977 E31.02579
G1 X-21.882 Y30.504 E31.05104
G1 X-21.821 Y30 E31.07637
G1 X-21.882 Y29.496 E31.1017
G1 X-22.062 Y29.023 E31.12694
G1 X-22.349 Y28.604 E31.15228
G1 X-22.73 Y28.268 E31.17763
G1 X-23.178 Y28.032 E31.20289
G1 X-23.672 Y27.911 E31.22826
G1 X-24.178 Y27.911 E31.25351
G1 X-24.672 Y28.032 E31.27888
G1 X-25.12 Y28.268 E31.30414
G1 X-25.501 Y28.604 E31.32949
G0 F3600 X-14.501 Y12.604
G1 F1800 X-14.788 Y13.023 E31.35483
G1 X-14.968 Y13.496 E31.38007
G1 X-15.029 Y14 E31.4054
G1 X-14.968 Y14.504 E31.43073
G1 X-14.788 Y14.977 E31.45598
G1 X-14.501 Y15.396 E31.48132
G1 X-14.12 Y15.732 E31.50666
G1 X-13.672 Y15.968 E31.53192
G1 X-13.178 Y16.089 E31.5573
G1 X-12.672 Y16.089 E31.58254
G1 X-12.178 Y15.968 E31.60792
G1 X-11.73 Y15.732 E31.63318
G1 X-11.349 Y15.396 E31.65852
G1 X-11.062 Y14.977 E31.68386
G1 X-10.882 Y14.504 E31.70911
G1 X-10.821 Y14 E31.73444
G1 X-10.882 Y13.496 E31.75977
G1 X-10.951 Y13.315 E31.76943
G1 X-11.062 Y13.023 E31.78212
G1 X-11.349 Y12.604 E31.79488
G1 X-11.692 Y12.301 E31.80205
G1 X-11.73 Y12.268 E31.80323
G1 X-12.178 Y12.032 E31.81846
G1 X-12.281 Y12.007 E31.8233
G1 X-12.672 Y11.911 E31.84339
G1 X-13.178 Y11.911 E31.86863
G1 X-13.672 Y12.032 E31.894
G1 X-14.12 Y12.268 E31.91927
G1 X-14.501 Y12.604 E31.94461
G0 F3600 X-26.087 Y-6.864
G0 X-26.454 Y-8.623
G1 F1800 X-26.529 Y-8 E31.97592
G1 X-26.454 Y-7.377 E32.00722
G1 X-26.231 Y-6.79 E32.03855
G1 X-25.875 Y-6.273 E32.06987
G1 X-25.404 Y-5.856 E32.10125
G1 X-24.848 Y-5.565 E32.13256
G1 X-24.239 Y-5.415 E32.16385
G1 X-23.611 Y-5.415 E32.19518
G1 X-23.002 Y-5.565 E32.22647
G1 X-22.446 Y-5.856 E32.25778
G1 X-21.975 Y-6.273 E32.28917
G1 X-21.619 Y-6.79 E32.32048
G1 X-21.396 Y-7.377 E32.35181
G1 X-21.321 Y-8 E32.38312
G1 X-21.396 Y-8.623 E32.41442
G1 X-21.619 Y-9.21 E32.44575
G1 X-21.975 Y-9.727 E32.47707
G1 X-22.446 Y-10.144 E32.50845
G1 X-23.002 Y-10.435 E32.53976
G1 X-23.611 Y-10.585 E32.57105
G1 X-24.239 Y-10.585 E32.60238
G1 X-24.848 Y-10.435 E32.63367
G1 X-25.404 Y-10.144 E32.66498
G1 X-25.875 Y-9.727 E32.69637
G1 X-26.231 Y-9.21 E32.72768
G1 X-26.454 Y-8.623 E32.75901
G0 F3600 X-35.501 Y-1.396
G1 F1800 X-35.788 Y-.977 E32.78435
G1 X-35.968 Y-.504 E32.8096
G1 X-36.029 Y0.00 E32.83493
G1 X-35.968 Y0.504 E32.86025
G1 X-35.788 Y0.977 E32.8855
G1 X-35.501 Y1.396 E32.91084
G1 X-35.12 Y1.732 E32.93619
G1 X-34.672 Y1.968 E32.96145
G1 X-34.178 Y2.089 E32.98682
G1 X-33.672 Y2.089 E33.01207
G1 X-33.178 Y1.968 E33.03744
G1 X-32.73 Y1.732 E33.0627
G1 X-32.349 Y1.396 E33.08805
G1 X-32.062 Y0.977 E33.11338
G1 X-31.882 Y0.504 E33.13863
G1 X-31.821 Y0.00 E33.16396
G1 X-31.882 Y-.504 E33.18929
G1 X-32.062 Y-.977 E33.21454
G1 X-32.349 Y-1.396 E33.23988
G1 X-32.73 Y-1.732 E33.26522
G1 X-33.178 Y-1.968 E33.29048
G1 X-33.672 Y-2.089 E33.31586
G1 X-34.178 Y-2.089 E33.3411
G1 X-34.672 Y-1.968 E33.36648
G1 X-35.12 Y-1.732 E33.39174
G1 X-35.501 Y-1.396 E33.41708
G0 F3600 X-26.454 Y-23.623
G1 F1800 X-26.529 Y-23 E33.44839
G1 X-26.454 Y-22.377 E33.47969
G1 X-26.231 Y-21.79 E33.51102
G1 X-25.875 Y-21.273 E33.54234
G1 X-25.404 Y-20.856 E33.57372
G1 X-24.848 Y-20.565 E33.60503
G1 X-24.239 Y-20.415 E33.63632
G1 X-23.611 Y-20.415 E33.66765
G1 X-23.002 Y-20.565 E33.69894
G1 X-22.446 Y-20.856 E33.73025
G1 X-21.975 Y-21.273 E33.76164
G1 X-21.619 Y-21.79 E33.79295
G1 X-21.396 Y-22.377 E33.82428
G1 X-21.321 Y-23 E33.85559
G1 X-21.396 Y-23.623 E33.88689
G1 X-21.619 Y-24.21 E33.91822
G1 X-21.975 Y-24.727 E33.94954
G1 X-22.446 Y-25.144 E33.98092
G1 X-23.002 Y-25.435 E34.01223
G1 X-23.611 Y-25.585 E34.04352
G1 X-24.239 Y-25.585 E34.07485
G1 X-24.848 Y-25.435 E34.10615
G1 X-25.404 Y-25.144 E34.13745
G1 X-25.875 Y-24.727 E34.16884
G1 X-26.231 Y-24.21 E34.20015
G1 X-26.454 Y-23.623 E34.23148
G0 F3600 X-24.976 Y-29.779
G0 X-24.501 Y-31.396
G1 F1800 X-24.788 Y-30.977 E34.25682
G1 X-24.968 Y-30.504 E34.28207
G1 X-25.029 Y-30 E34.3074
G1 X-24.968 Y-29.496 E34.33273
G1 X-24.788 Y-29.023 E34.35797
G1 X-24.501 Y-28.604 E34.38331
G1 X-24.12 Y-28.268 E34.40866
G1 X-23.672 Y-28.032 E34.43392
G1 X-23.178 Y-27.911 E34.45929
G1 X-22.672 Y-27.911 E34.48454
G1 X-22.178 Y-28.032 E34.50991
G1 X-21.73 Y-28.268 E34.53517
G1 X-21.349 Y-28.604 E34.56052
G1 X-21.062 Y-29.023 E34.58586
G1 X-20.882 Y-29.496 E34.6111
G1 X-20.821 Y-30 E34.63643
G1 X-20.882 Y-30.504 E34.66176
G1 X-21.062 Y-30.977 E34.68701
G1 X-21.349 Y-31.396 E34.71235
G1 X-21.73 Y-31.732 E34.73769
G1 X-22.178 Y-31.968 E34.76295
G1 X-22.672 Y-32.089 E34.78833
G1 X-23.178 Y-32.089 E34.81357
G1 X-23.672 Y-31.968 E34.83895
G1 X-24.12 Y-31.732 E34.86421
G1 X-24.501 Y-31.396 E34.88955
G0 F3600 X-23.616 Y-31.815
G0 X-10.501 Y-31.396
G1 F1800 X-10.788 Y-30.977 E34.91489
