;FLAVOR:Marlin
;TIME:13568
;Filament used: 19.5205m
;Layer height: 0.3
;MINX:-87.787
;MINY:-47.8
;MINZ:0.3
;MAXX:87.788
;MAXY:47.8
;MAXZ:14.7
;Generated with Cura_SteamEngine 4.7.1
M140 S50
M105
M190 S50
M104 S250
M105
M109 S250
M82 ;absolute extrusion mode
G28 ;Home
G1 Z15.0 F6000 ;Move the platform down 15mm
;Prime the extruder
G92 E0
G1 F200 E3
G92 E0
G92 E0
G92 E0
G1 F1500 E-6.5
;LAYER_COUNT:49
;LAYER:0
M107
G0 F3600 X2.271 Y27.757 Z0.3
;TYPE:SKIRT
G1 F1500 E0
G1 F1800 X-2.271 Y27.757 E0.2266
G1 X-2.86 Y27.735 E0.25601
G1 X-3.45 Y27.69 E0.28553
G1 X-3.45 Y39.883 E0.89384
G1 X-3.49 Y40.672 E0.93325
G1 X-3.609 Y41.452 E0.97262
G1 X-3.807 Y42.217 E1.01204
G1 X-4.081 Y42.957 E1.05141
G1 X-4.429 Y43.666 E1.09081
G1 X-4.847 Y44.337 E1.13025
G1 X-5.33 Y44.961 E1.16962
G1 X-5.735 Y45.398 E1.19935
G1 X-5.852 Y45.515 E1.2076
G1 X-6.438 Y46.045 E1.24702
G1 X-7.074 Y46.512 E1.28639
G1 X-7.754 Y46.913 E1.32577
G1 X-8.472 Y47.243 E1.36519
G1 X-9.219 Y47.498 E1.40457
G1 X-9.988 Y47.677 E1.44397
G1 X-10.772 Y47.777 E1.4834
G1 X-11.367 Y47.8 E1.5131
G1 X-21.133 Y47.8 E2.00033
G1 X-21.922 Y47.76 E2.03974
G1 X-22.702 Y47.641 E2.07911
G1 X-23.467 Y47.443 E2.11853
G1 X-24.207 Y47.169 E2.1579
G1 X-24.916 Y46.821 E2.1973
G1 X-25.587 Y46.403 E2.23675
G1 X-26.211 Y45.92 E2.27611
G1 X-26.648 Y45.515 E2.30584
G1 X-26.765 Y45.398 E2.31409
G1 X-27.295 Y44.812 E2.35351
G1 X-27.762 Y44.176 E2.39288
G1 X-28.163 Y43.496 E2.43226
G1 X-28.493 Y42.778 E2.47169
G1 X-28.748 Y42.031 E2.51107
G1 X-28.927 Y41.262 E2.55046
G1 X-29.027 Y40.478 E2.58989
G1 X-29.05 Y39.883 E2.6196
G1 X-29.05 Y21.254 E3.549
G1 X-29.22 Y21.174 E3.55837
G1 X-33.407 Y18.992 E3.79393
G1 X-33.942 Y18.686 E3.82468
G1 X-37.96 Y16.17 E4.06119
G1 X-38.466 Y15.824 E4.09177
G1 X-42.27 Y13.003 E4.32805
G1 X-42.75 Y12.617 E4.35878
G1 X-46.313 Y9.51 E4.59463
G1 X-46.761 Y9.087 E4.62537
G1 X-47.776 Y8.05 E4.69776
G1 X-61.133 Y8.05 E5.36415
G1 X-61.922 Y8.01 E5.40356
G1 X-62.702 Y7.891 E5.44292
G1 X-63.467 Y7.693 E5.48235
G1 X-64.207 Y7.419 E5.52172
G1 X-64.916 Y7.071 E5.56112
G1 X-65.587 Y6.653 E5.60056
G1 X-66.211 Y6.17 E5.63993
G1 X-66.648 Y5.765 E5.66965
G1 X-66.765 Y5.648 E5.67791
G1 X-67.295 Y5.062 E5.71733
G1 X-67.762 Y4.426 E5.75669
G1 X-68.163 Y3.746 E5.79608
G1 X-68.493 Y3.028 E5.8355
G1 X-68.748 Y2.281 E5.87488
G1 X-68.927 Y1.512 E5.91427
G1 X-69.027 Y0.728 E5.9537
G1 X-69.05 Y0.133 E5.98341
G1 X-69.05 Y-9.633 E6.47064
G1 X-69.01 Y-10.422 E6.51005
G1 X-68.891 Y-11.202 E6.54942
G1 X-68.693 Y-11.967 E6.58884
G1 X-68.419 Y-12.707 E6.62821
G1 X-68.071 Y-13.416 E6.66761
G1 X-67.653 Y-14.087 E6.70705
G1 X-67.17 Y-14.711 E6.74642
G1 X-66.765 Y-15.148 E6.77615
G1 X-66.648 Y-15.265 E6.7844
G1 X-66.062 Y-15.795 E6.82382
G1 X-65.426 Y-16.262 E6.86319
G1 X-64.746 Y-16.663 E6.90257
G1 X-64.028 Y-16.993 E6.94199
G1 X-63.767 Y-17.082 E6.95575
G1 X-64.443 Y-18.946 E7.05467
G1 X-64.616 Y-19.482 E7.08277
G1 X-65.384 Y-22.2 E7.22368
G1 X-79.87 Y-22.2 E7.94639
G1 X-80.659 Y-22.24 E7.98581
G1 X-81.439 Y-22.359 E8.02517
G1 X-82.204 Y-22.557 E8.0646
G1 X-82.944 Y-22.831 E8.10396
G1 X-83.653 Y-23.179 E8.14337
G1 X-84.324 Y-23.597 E8.18281
G1 X-84.948 Y-24.08 E8.22218
G1 X-85.385 Y-24.485 E8.2519
G1 X-85.502 Y-24.602 E8.26016
G1 X-86.032 Y-25.188 E8.29958
G1 X-86.499 Y-25.824 E8.33894
G1 X-86.9 Y-26.504 E8.37833
G1 X-87.23 Y-27.222 E8.41775
G1 X-87.485 Y-27.969 E8.45713
G1 X-87.664 Y-28.738 E8.49652
G1 X-87.764 Y-29.522 E8.53595
G1 X-87.787 Y-30.117 E8.56566
G1 X-87.787 Y-39.883 E9.05289
G1 X-87.747 Y-40.672 E9.0923
G1 X-87.628 Y-41.452 E9.13166
G1 X-87.43 Y-42.217 E9.17109
G1 X-87.156 Y-42.957 E9.21046
G1 X-86.808 Y-43.666 E9.24986
G1 X-86.39 Y-44.337 E9.2893
G1 X-85.907 Y-44.961 E9.32867
G1 X-85.502 Y-45.398 E9.35839
G1 X-85.385 Y-45.515 E9.36665
G1 X-84.799 Y-46.045 E9.40607
G1 X-84.163 Y-46.512 E9.44543
G1 X-83.483 Y-46.913 E9.48482
G1 X-82.765 Y-47.243 E9.52424
G1 X-82.018 Y-47.498 E9.56362
G1 X-81.249 Y-47.677 E9.60301
G1 X-80.465 Y-47.777 E9.64244
G1 X-79.87 Y-47.8 E9.67215
G1 X-40.117 Y-47.8 E11.65543
G1 X-39.328 Y-47.76 E11.69485
G1 X-38.548 Y-47.641 E11.73421
G1 X-37.783 Y-47.443 E11.77364
G1 X-37.043 Y-47.169 E11.81301
G1 X-36.334 Y-46.821 E11.85241
G1 X-35.663 Y-46.403 E11.89185
G1 X-35.039 Y-45.92 E11.93122
G1 X-34.602 Y-45.515 E11.96094
G1 X-34.485 Y-45.398 E11.9692
G1 X-33.955 Y-44.812 E12.00862
G1 X-33.488 Y-44.176 E12.04798
G1 X-33.087 Y-43.496 E12.08737
G1 X-32.757 Y-42.778 E12.12679
G1 X-32.502 Y-42.031 E12.16617
G1 X-32.323 Y-41.262 E12.20556
G1 X-32.223 Y-40.478 E12.24499
G1 X-32.2 Y-39.883 E12.2747
G1 X-32.2 Y-37.8 E12.37862
G1 X40.119 Y-37.8 E15.98663
G1 X40.2 Y-40.158 E16.10434
G1 X40.267 Y-40.945 E16.14375
G1 X40.413 Y-41.721 E16.18314
G1 X40.637 Y-42.478 E16.22253
G1 X40.937 Y-43.209 E16.26195
G1 X41.309 Y-43.906 E16.30136
G1 X41.749 Y-44.561 E16.34073
G1 X42.253 Y-45.169 E16.38013
G1 X42.718 Y-45.636 E16.41301
G1 X43.316 Y-46.152 E16.45241
G1 X43.962 Y-46.605 E16.49178
G1 X44.652 Y-46.991 E16.53122
G1 X45.376 Y-47.305 E16.57059
G1 X46.129 Y-47.544 E16.61001
G1 X46.902 Y-47.706 E16.64941
G1 X47.687 Y-47.788 E16.68879
G1 X48.111 Y-47.8 E16.70995
G1 X79.87 Y-47.8 E18.29441
G1 X80.659 Y-47.76 E18.33383
G1 X81.439 Y-47.641 E18.37319
G1 X82.204 Y-47.443 E18.41261
G1 X82.944 Y-47.169 E18.45198
G1 X83.653 Y-46.821 E18.49139
G1 X84.324 Y-46.403 E18.53083
G1 X84.948 Y-45.92 E18.5702
G1 X85.385 Y-45.515 E18.59992
G1 X85.502 Y-45.398 E18.60818
G1 X86.032 Y-44.812 E18.64759
G1 X86.499 Y-44.176 E18.68696
G1 X86.9 Y-43.496 E18.72634
G1 X87.23 Y-42.778 E18.76577
G1 X87.485 Y-42.031 E18.80515
G1 X87.664 Y-41.262 E18.84454
G1 X87.764 Y-40.478 E18.88397
G1 X87.787 Y-39.884 E18.91363
G1 X87.788 Y-30.118 E19.40085
G1 X87.748 Y-29.329 E19.44027
G1 X87.629 Y-28.549 E19.47963
G1 X87.431 Y-27.784 E19.51906
G1 X87.157 Y-27.043 E19.55847
G1 X86.809 Y-26.334 E19.59788
G1 X86.392 Y-25.664 E19.63725
G1 X85.909 Y-25.039 E19.67665
G1 X85.503 Y-24.602 E19.70641
G1 X85.386 Y-24.485 E19.71467
G1 X84.8 Y-23.955 E19.75409
G1 X84.164 Y-23.488 E19.79345
G1 X83.484 Y-23.087 E19.83284
G1 X82.766 Y-22.757 E19.87226
G1 X82.019 Y-22.502 E19.91164
G1 X81.25 Y-22.323 E19.95103
G1 X80.466 Y-22.223 E19.99046
G1 X79.871 Y-22.2 E20.02017
G1 X65.388 Y-22.2 E20.74273
G1 X64.287 Y-18.477 E20.93642
G1 X64.086 Y-17.886 E20.96757
G1 X62.356 Y-13.395 E21.20767
G1 X62.108 Y-12.821 E21.23887
G1 X60.033 Y-8.502 E21.47792
G1 X59.741 Y-7.952 E21.50899
G1 X57.313 Y-3.787 E21.74951
G1 X56.975 Y-3.258 E21.78083
G1 X54.239 Y0.671 E22.01969
G1 X53.863 Y1.167 E22.05075
G1 X50.805 Y4.887 E22.291
G1 X50.388 Y5.355 E22.32227
G1 X47.048 Y8.81 E22.56201
G1 X46.6 Y9.238 E22.59293
G1 X43.001 Y12.413 E22.83236
G1 X42.511 Y12.811 E22.86386
G1 X38.661 Y15.689 E23.10367
G1 X38.149 Y16.041 E23.13467
G1 X34.083 Y18.603 E23.37443
G1 X33.542 Y18.914 E23.40557
G1 X29.284 Y21.143 E23.64535
G1 X29.05 Y21.254 E23.65827
G1 X29.05 Y39.883 E24.58767
G1 X29.01 Y40.672 E24.62709
G1 X28.891 Y41.452 E24.66645
G1 X28.693 Y42.217 E24.70587
G1 X28.419 Y42.957 E24.74524
G1 X28.071 Y43.666 E24.78465
G1 X27.653 Y44.337 E24.82409
G1 X27.17 Y44.961 E24.86345
G1 X26.765 Y45.398 E24.89318
G1 X26.648 Y45.515 E24.90143
G1 X26.062 Y46.045 E24.94085
G1 X25.426 Y46.512 E24.98022
G1 X24.746 Y46.913 E25.0196
G1 X24.028 Y47.243 E25.05903
G1 X23.281 Y47.498 E25.09841
G1 X22.512 Y47.677 E25.1378
G1 X21.728 Y47.777 E25.17723
G1 X21.133 Y47.8 E25.20694
G1 X11.367 Y47.8 E25.69416
G1 X10.578 Y47.76 E25.73358
G1 X9.798 Y47.641 E25.77294
G1 X9.033 Y47.443 E25.81237
G1 X8.293 Y47.169 E25.85173
G1 X7.584 Y46.821 E25.89114
G1 X6.913 Y46.403 E25.93058
G1 X6.289 Y45.92 E25.96995
G1 X5.852 Y45.515 E25.99967
G1 X5.735 Y45.398 E26.00793
G1 X5.205 Y44.812 E26.04735
G1 X4.738 Y44.176 E26.08671
G1 X4.337 Y43.496 E26.1261
G1 X4.007 Y42.778 E26.16552
G1 X3.752 Y42.031 E26.2049
G1 X3.573 Y41.262 E26.24429
G1 X3.473 Y40.478 E26.28372
G1 X3.45 Y39.883 E26.31343
G1 X3.45 Y27.69 E26.92174
G1 X2.86 Y27.735 E26.95126
G1 X2.271 Y27.757 E26.98067
G0 F3600 X2.271 Y27.357
G1 F1800 X-2.271 Y27.357 E27.20727
G1 X-2.83 Y27.336 E27.23518
G1 X-3.85 Y27.259 E27.28621
G1 X-3.85 Y39.883 E27.91602
G1 X-3.89 Y40.651 E27.95439
G1 X-4.009 Y41.411 E27.99277
G1 X-4.207 Y42.154 E28.03113
G1 X-4.481 Y42.873 E28.06952
G1 X-4.828 Y43.559 E28.10787
G1 X-5.244 Y44.206 E28.14625
G1 X-5.725 Y44.806 E28.18461
G1 X-6.134 Y45.233 E28.21411
G1 X-6.706 Y45.747 E28.25248
G1 X-7.328 Y46.2 E28.29087
G1 X-7.993 Y46.586 E28.32923
G1 X-8.695 Y46.901 E28.36762
G1 X-9.426 Y47.141 E28.406
G1 X-10.177 Y47.304 E28.44434
G1 X-10.942 Y47.388 E28.48274
G1 X-11.367 Y47.4 E28.50395
G1 X-21.133 Y47.4 E28.99118
G1 X-21.901 Y47.36 E29.02954
G1 X-22.661 Y47.241 E29.06792
G1 X-23.404 Y47.043 E29.10628
G1 X-24.123 Y46.769 E29.14467
G1 X-24.809 Y46.422 E29.18303
G1 X-25.456 Y46.006 E29.2214
G1 X-26.056 Y45.525 E29.25977
G1 X-26.483 Y45.116 E29.28927
G1 X-26.997 Y44.544 E29.32763
G1 X-27.45 Y43.922 E29.36602
G1 X-27.836 Y43.257 E29.40438
G1 X-28.151 Y42.555 E29.44277
G1 X-28.391 Y41.824 E29.48115
G1 X-28.554 Y41.073 E29.51949
G1 X-28.638 Y40.308 E29.55789
G1 X-28.65 Y39.883 E29.5791
G1 X-28.65 Y21.001 E30.52113
G1 X-29.035 Y20.819 E30.54237
G1 X-33.222 Y18.637 E30.77793
G1 X-33.729 Y18.347 E30.80707
G1 X-37.747 Y15.831 E31.04358
G1 X-38.228 Y15.503 E31.07263
G1 X-42.032 Y12.682 E31.3089
G1 X-42.488 Y12.315 E31.33811
G1 X-46.051 Y9.208 E31.57396
G1 X-46.476 Y8.807 E31.60311
G1 X-47.608 Y7.65 E31.68386
G1 X-61.133 Y7.65 E32.35863
G1 X-61.901 Y7.61 E32.397
G1 X-62.661 Y7.491 E32.43538
G1 X-63.404 Y7.293 E32.47374
G1 X-64.123 Y7.019 E32.51213
G1 X-64.809 Y6.672 E32.55048
G1 X-65.456 Y6.256 E32.58885
G1 X-66.056 Y5.775 E32.62722
G1 X-66.483 Y5.366 E32.65672
G1 X-66.997 Y4.794 E32.69509
G1 X-67.45 Y4.172 E32.73347
G1 X-67.836 Y3.507 E32.77184
G1 X-68.151 Y2.805 E32.81022
G1 X-68.391 Y2.074 E32.84861
G1 X-68.554 Y1.323 E32.88695
G1 X-68.638 Y0.558 E32.92534
G1 X-68.65 Y0.133 E32.94656
G1 X-68.65 Y-9.633 E33.43378
G1 X-68.61 Y-10.401 E33.47215
G1 X-68.491 Y-11.161 E33.51053
G1 X-68.293 Y-11.904 E33.54889
G1 X-68.019 Y-12.623 E33.58728
G1 X-67.672 Y-13.309 E33.62563
G1 X-67.256 Y-13.956 E33.66401
G1 X-66.775 Y-14.556 E33.70237
G1 X-66.366 Y-14.983 E33.73187
G1 X-65.794 Y-15.497 E33.77024
G1 X-65.172 Y-15.95 E33.80863
G1 X-64.507 Y-16.336 E33.84699
G1 X-63.805 Y-16.651 E33.88538
G1 X-63.252 Y-16.833 E33.91442
G1 X-64.067 Y-19.082 E34.03376
G1 X-64.231 Y-19.591 E34.06044
G1 X-65.081 Y-22.6 E34.21644
G1 X-79.87 Y-22.6 E34.95426
G1 X-80.638 Y-22.64 E34.99263
G1 X-81.398 Y-22.759 E35.03101
G1 X-82.141 Y-22.957 E35.06937
G1 X-82.86 Y-23.231 E35.10776
G1 X-83.546 Y-23.578 E35.14611
G1 X-84.193 Y-23.994 E35.18449
G1 X-84.793 Y-24.475 E35.22286
G1 X-85.22 Y-24.884 E35.25235
G1 X-85.734 Y-25.456 E35.29072
G1 X-86.187 Y-26.078 E35.32911
G1 X-86.573 Y-26.743 E35.36747
G1 X-86.888 Y-27.445 E35.40586
G1 X-87.128 Y-28.176 E35.44424
G1 X-87.291 Y-28.927 E35.48258
G1 X-87.375 Y-29.692 E35.52098
G1 X-87.387 Y-30.117 E35.54219
G1 X-87.387 Y-39.883 E36.02942
G1 X-87.347 Y-40.651 E36.06779
G1 X-87.228 Y-41.411 E36.10616
G1 X-87.03 Y-42.154 E36.14453
G1 X-86.756 Y-42.873 E36.18291
G1 X-86.409 Y-43.559 E36.22127
G1 X-85.993 Y-44.206 E36.25964
G1 X-85.512 Y-44.806 E36.29801
G1 X-85.103 Y-45.233 E36.32751
G1 X-84.531 Y-45.747 E36.36587
G1 X-83.909 Y-46.2 E36.40426
G1 X-83.244 Y-46.586 E36.44262
G1 X-82.542 Y-46.901 E36.48101
G1 X-81.811 Y-47.141 E36.5194
G1 X-81.06 Y-47.304 E36.55774
G1 X-80.295 Y-47.388 E36.59613
G1 X-79.87 Y-47.4 E36.61734
G1 X-40.117 Y-47.4 E38.60063
G1 X-39.349 Y-47.36 E38.639
G1 X-38.589 Y-47.241 E38.67738
G1 X-37.846 Y-47.043 E38.71574
G1 X-37.127 Y-46.769 E38.75412
G1 X-36.441 Y-46.422 E38.79248
G1 X-35.794 Y-46.006 E38.83085
G1 X-35.194 Y-45.525 E38.86922
G1 X-34.767 Y-45.116 E38.89872
G1 X-34.253 Y-44.544 E38.93708
G1 X-33.8 Y-43.922 E38.97547
G1 X-33.414 Y-43.257 E39.01384
G1 X-33.099 Y-42.555 E39.05222
G1 X-32.859 Y-41.824 E39.09061
G1 X-32.696 Y-41.073 E39.12895
G1 X-32.612 Y-40.308 E39.16734
G1 X-32.6 Y-39.883 E39.18855
G1 X-32.6 Y-37.4 E39.31243
G1 X40.504 Y-37.4 E42.95961
G1 X40.599 Y-40.144 E43.09659
G1 X40.666 Y-40.911 E43.135
G1 X40.812 Y-41.666 E43.17336
G1 X41.035 Y-42.402 E43.21173
G1 X41.333 Y-43.111 E43.2501
G1 X41.704 Y-43.785 E43.28848
G1 X42.142 Y-44.417 E43.32685
G1 X42.879 Y-45.236 E43.38181
G1 X42.995 Y-45.347 E43.38982
G1 X43.578 Y-45.849 E43.42821
G1 X44.209 Y-46.288 E43.46656
G1 X44.883 Y-46.659 E43.50494
G1 X45.591 Y-46.958 E43.54328
G1 X46.327 Y-47.182 E43.58167
G1 X47.082 Y-47.328 E43.62003
G1 X48.111 Y-47.4 E43.67149
G1 X79.87 Y-47.4 E45.25596
G1 X80.638 Y-47.36 E45.29432
G1 X81.398 Y-47.241 E45.3327
G1 X82.141 Y-47.043 E45.37106
G1 X82.86 Y-46.769 E45.40945
G1 X83.546 Y-46.422 E45.44781
G1 X84.193 Y-46.006 E45.48618
G1 X84.793 Y-45.525 E45.52455
G1 X85.22 Y-45.116 E45.55405
G1 X85.734 Y-44.544 E45.59241
G1 X86.187 Y-43.922 E45.6308
G1 X86.573 Y-43.257 E45.66916
G1 X86.888 Y-42.555 E45.70755
G1 X87.128 Y-41.824 E45.74593
G1 X87.291 Y-41.073 E45.78427
G1 X87.375 Y-40.308 E45.82267
G1 X87.387 Y-39.884 E45.84383
G1 X87.388 Y-30.118 E46.33106
G1 X87.348 Y-29.35 E46.36943
G1 X87.229 Y-28.59 E46.40781
G1 X87.031 Y-27.846 E46.44622
G1 X86.757 Y-27.128 E46.48456
G1 X86.41 Y-26.441 E46.52296
G1 X85.994 Y-25.794 E46.56133
G1 X85.513 Y-25.194 E46.5997
G1 X85.104 Y-24.767 E46.6292
G1 X84.532 Y-24.253 E46.66756
G1 X83.91 Y-23.8 E46.70595
G1 X83.245 Y-23.414 E46.74431
G1 X82.543 Y-23.099 E46.7827
G1 X81.812 Y-22.859 E46.82108
G1 X81.061 Y-22.696 E46.85942
G1 X80.296 Y-22.612 E46.89782
G1 X79.871 Y-22.6 E46.91903
G1 X65.089 Y-22.6 E47.65651
G1 X63.903 Y-18.591 E47.86509
G1 X63.712 Y-18.03 E47.89465
G1 X61.982 Y-13.539 E48.13476
G1 X61.747 Y-12.994 E48.16437
G1 X59.672 Y-8.675 E48.40342
G1 X59.395 Y-8.153 E48.4329
G1 X56.967 Y-3.988 E48.67343
G1 X56.647 Y-3.486 E48.70313
G1 X53.911 Y0.443 E48.94199
G1 X53.554 Y0.913 E48.97144
G1 X50.496 Y4.633 E49.21169
G1 X50.1 Y5.077 E49.24137
G1 X46.76 Y8.532 E49.48111
G1 X46.335 Y8.938 E49.51044
G1 X42.736 Y12.113 E49.74988
G1 X42.272 Y12.491 E49.77973
G1 X38.422 Y15.369 E50.01955
G1 X37.936 Y15.703 E50.04897
G1 X33.87 Y18.265 E50.28873
G1 X33.357 Y18.56 E50.31826
G1 X29.099 Y20.789 E50.55804
G1 X28.65 Y21.001 E50.58281
G1 X28.65 Y39.883 E51.52483
G1 X28.61 Y40.651 E51.5632
G1 X28.491 Y41.411 E51.60158
G1 X28.293 Y42.154 E51.63994
G1 X28.019 Y42.873 E51.67833
G1 X27.672 Y43.559 E51.71668
G1 X27.256 Y44.206 E51.75506
G1 X26.775 Y44.806 E51.79343
G1 X26.366 Y45.233 E51.82292
G1 X25.794 Y45.747 E51.86129
G1 X25.172 Y46.2 E51.89968
G1 X24.507 Y46.586 E51.93804
G1 X23.805 Y46.901 E51.97643
G1 X23.074 Y47.141 E52.01481
G1 X22.323 Y47.304 E52.05315
G1 X21.558 Y47.388 E52.09155
G1 X21.133 Y47.4 E52.11276
G1 X11.367 Y47.4 E52.59999
G1 X10.599 Y47.36 E52.63836
G1 X9.839 Y47.241 E52.67673
G1 X9.096 Y47.043 E52.7151
G1 X8.377 Y46.769 E52.75348
G1 X7.691 Y46.422 E52.79184
G1 X7.044 Y46.006 E52.83021
G1 X6.444 Y45.525 E52.86858
G1 X6.017 Y45.116 E52.89808
G1 X5.503 Y44.544 E52.93644
G1 X5.05 Y43.922 E52.97483
G1 X4.664 Y43.257 E53.01319
G1 X4.349 Y42.555 E53.05158
G1 X4.109 Y41.824 E53.08997
G1 X3.946 Y41.073 E53.12831
G1 X3.862 Y40.308 E53.1667
G1 X3.85 Y39.883 E53.18791
G1 X3.85 Y27.259 E53.81773
G1 X2.829 Y27.336 E53.86881
G1 X2.271 Y27.357 E53.89667
G0 F3600 X2.271 Y26.957
G1 F1800 X-2.271 Y26.957 E54.12327
G1 X-2.8 Y26.937 E54.14968
G1 X-4.25 Y26.827 E54.22223
G1 X-4.25 Y39.883 E54.8736
G1 X-4.29 Y40.63 E54.91092
G1 X-4.409 Y41.368 E54.94821
G1 X-4.607 Y42.09 E54.98556
G1 X-4.88 Y42.786 E55.02286
G1 X-5.227 Y43.449 E55.0602
G1 X-5.642 Y44.072 E55.09754
G1 X-6.3 Y44.833 E55.14773
G1 X-6.417 Y44.95 E55.15599
G1 X-6.974 Y45.45 E55.19333
G1 X-7.58 Y45.887 E55.2306
G1 X-8.23 Y46.258 E55.26794
G1 X-8.916 Y46.557 E55.30528
G1 X-9.63 Y46.781 E55.34261
G1 X-10.363 Y46.928 E55.37991
G1 X-11.367 Y47 E55.43013
G1 X-21.133 Y47 E55.91736
G1 X-21.88 Y46.96 E55.95468
G1 X-22.618 Y46.841 E55.99197
G1 X-23.34 Y46.643 E56.02932
G1 X-24.036 Y46.37 E56.06662
G1 X-24.699 Y46.023 E56.10395
G1 X-25.322 Y45.608 E56.1413
G1 X-26.083 Y44.95 E56.19149
G1 X-26.2 Y44.833 E56.19975
G1 X-26.7 Y44.276 E56.23709
G1 X-27.137 Y43.67 E56.27436
