;FLAVOR:Marlin
;TIME:15809
;Filament used: 22.5619m
;Layer height: 0.3
;MINX:-87.788
;MINY:-47.8
;MINZ:0.3
;MAXX:87.787
;MAXY:47.8
;MAXZ:14.7
;Generated with Cura_SteamEngine 4.7.1
M140 S50
M105
M190 S50
M104 S250
M105
M109 S250
M82 ;absolute extrusion mode
G28 ;Home
G1 Z15.0 F6000 ;Move the platform down 15mm
;Prime the extruder
G92 E0
G1 F200 E3
G92 E0
G92 E0
G92 E0
G1 F1500 E-6.5
;LAYER_COUNT:49
;LAYER:0
M107
G0 F3600 X-2.271 Y-27.757 Z0.3
;TYPE:SKIRT
G1 F1500 E0
G1 F1800 X2.271 Y-27.757 E0.2266
G1 X2.86 Y-27.735 E0.25601
G1 X3.45 Y-27.69 E0.28553
G1 X3.45 Y-39.883 E0.89384
G1 X3.49 Y-40.672 E0.93325
G1 X3.609 Y-41.452 E0.97262
G1 X3.807 Y-42.217 E1.01204
G1 X4.081 Y-42.957 E1.05141
G1 X4.429 Y-43.666 E1.09081
G1 X4.847 Y-44.337 E1.13025
G1 X5.33 Y-44.961 E1.16962
G1 X5.735 Y-45.398 E1.19935
G1 X5.852 Y-45.515 E1.2076
G1 X6.438 Y-46.045 E1.24702
G1 X7.074 Y-46.512 E1.28639
G1 X7.754 Y-46.913 E1.32577
G1 X8.472 Y-47.243 E1.36519
G1 X9.219 Y-47.498 E1.40457
G1 X9.988 Y-47.677 E1.44397
G1 X10.772 Y-47.777 E1.4834
G1 X11.367 Y-47.8 E1.5131
G1 X21.133 Y-47.8 E2.00033
G1 X21.922 Y-47.76 E2.03974
G1 X22.702 Y-47.641 E2.07911
G1 X23.467 Y-47.443 E2.11853
G1 X24.207 Y-47.169 E2.1579
G1 X24.916 Y-46.821 E2.1973
G1 X25.587 Y-46.403 E2.23675
G1 X26.211 Y-45.92 E2.27611
G1 X26.648 Y-45.515 E2.30584
G1 X26.765 Y-45.398 E2.31409
G1 X27.295 Y-44.812 E2.35351
G1 X27.762 Y-44.176 E2.39288
G1 X28.163 Y-43.496 E2.43226
G1 X28.493 Y-42.778 E2.47169
G1 X28.748 Y-42.031 E2.51107
G1 X28.927 Y-41.262 E2.55046
G1 X29.027 Y-40.478 E2.58989
G1 X29.05 Y-39.883 E2.6196
G1 X29.05 Y-21.24 E3.5497
G1 X32.376 Y-19.565 E3.73549
G1 X32.857 Y-19.302 E3.76284
G1 X34.473 Y-18.34 E3.85666
G1 X34.49 Y-18.672 E3.87325
G1 X34.609 Y-19.452 E3.91261
G1 X34.807 Y-20.217 E3.95204
G1 X35.081 Y-20.957 E3.99141
G1 X35.429 Y-21.666 E4.03081
G1 X35.847 Y-22.337 E4.07025
G1 X36.33 Y-22.961 E4.10962
G1 X36.735 Y-23.398 E4.13934
G1 X36.852 Y-23.515 E4.1476
G1 X37.438 Y-24.045 E4.18702
G1 X38.074 Y-24.512 E4.22638
G1 X38.754 Y-24.913 E4.26577
G1 X39.472 Y-25.243 E4.30519
G1 X40.219 Y-25.498 E4.34457
G1 X40.988 Y-25.677 E4.38396
G1 X41.772 Y-25.777 E4.42339
G1 X42.367 Y-25.8 E4.4531
G1 X52.133 Y-25.8 E4.94033
G1 X52.922 Y-25.76 E4.97974
G1 X53.702 Y-25.641 E5.01911
G1 X54.467 Y-25.443 E5.05853
G1 X55.207 Y-25.169 E5.0979
G1 X55.916 Y-24.821 E5.1373
G1 X56.587 Y-24.403 E5.17674
G1 X57.211 Y-23.92 E5.21611
G1 X57.648 Y-23.515 E5.24584
G1 X57.765 Y-23.398 E5.25409
G1 X58.295 Y-22.812 E5.29351
G1 X58.762 Y-22.176 E5.33287
G1 X59.163 Y-21.496 E5.37226
G1 X59.493 Y-20.778 E5.41168
G1 X59.748 Y-20.031 E5.45106
G1 X59.927 Y-19.262 E5.49045
G1 X60.027 Y-18.478 E5.52988
G1 X60.05 Y-17.883 E5.55959
G1 X60.05 Y4.7 E6.68626
G1 X61.883 Y4.7 E6.77771
G1 X62.672 Y4.74 E6.81712
G1 X63.452 Y4.859 E6.85649
G1 X64.217 Y5.057 E6.89591
G1 X64.957 Y5.331 E6.93528
G1 X65.666 Y5.679 E6.97468
G1 X66.337 Y6.097 E7.01413
G1 X66.961 Y6.58 E7.05349
G1 X67.398 Y6.985 E7.08322
G1 X67.515 Y7.102 E7.09147
G1 X68.045 Y7.688 E7.13089
G1 X68.512 Y8.324 E7.17026
G1 X68.913 Y9.004 E7.20964
G1 X69.243 Y9.722 E7.24907
G1 X69.498 Y10.469 E7.28845
G1 X69.677 Y11.238 E7.32784
G1 X69.777 Y12.022 E7.36727
G1 X69.8 Y12.617 E7.39698
G1 X69.8 Y22.2 E7.87507
G1 X79.87 Y22.2 E8.37747
G1 X80.659 Y22.24 E8.41688
G1 X81.439 Y22.359 E8.45625
G1 X82.204 Y22.557 E8.49567
G1 X82.944 Y22.831 E8.53504
G1 X83.653 Y23.179 E8.57444
G1 X84.324 Y23.597 E8.61388
G1 X84.948 Y24.08 E8.65325
G1 X85.385 Y24.485 E8.68297
G1 X85.502 Y24.602 E8.69123
G1 X86.032 Y25.188 E8.73065
G1 X86.499 Y25.824 E8.77001
G1 X86.9 Y26.504 E8.8094
G1 X87.23 Y27.222 E8.84882
G1 X87.485 Y27.969 E8.8882
G1 X87.664 Y28.738 E8.92759
G1 X87.764 Y29.522 E8.96702
G1 X87.787 Y30.117 E8.99673
G1 X87.787 Y39.883 E9.48396
G1 X87.747 Y40.672 E9.52337
G1 X87.628 Y41.452 E9.56274
G1 X87.43 Y42.217 E9.60216
G1 X87.156 Y42.957 E9.64153
G1 X86.808 Y43.666 E9.68093
G1 X86.39 Y44.337 E9.72037
G1 X85.907 Y44.961 E9.75974
G1 X85.502 Y45.398 E9.78947
G1 X85.385 Y45.515 E9.79772
G1 X84.799 Y46.045 E9.83714
G1 X84.163 Y46.512 E9.87651
G1 X83.483 Y46.913 E9.91589
G1 X82.765 Y47.243 E9.95531
G1 X82.018 Y47.498 E9.99469
G1 X81.249 Y47.677 E10.03409
G1 X80.465 Y47.777 E10.07352
G1 X79.87 Y47.8 E10.10322
G1 X45.112 Y47.8 E11.83731
G1 X44.323 Y47.76 E11.87672
G1 X43.543 Y47.641 E11.91609
G1 X42.778 Y47.443 E11.95551
G1 X42.038 Y47.169 E11.99488
G1 X41.329 Y46.821 E12.03428
G1 X40.658 Y46.403 E12.07372
G1 X40.034 Y45.92 E12.11309
G1 X39.603 Y45.525 E12.14226
G1 X39.061 Y44.95 E12.18168
G1 X38.58 Y44.324 E12.22106
G1 X38.164 Y43.653 E12.26045
G1 X37.819 Y42.943 E12.29983
G1 X37.547 Y42.201 E12.33926
G1 X37.351 Y41.436 E12.37866
G1 X37.234 Y40.655 E12.41806
G1 X37.203 Y40.222 E12.43972
G1 X37.058 Y36.839 E12.60865
G1 X36.657 Y33.711 E12.76599
G1 X36.461 Y32.8 E12.81248
G1 X-36.46 Y32.8 E16.45052
G1 X-36.658 Y33.721 E16.49752
G1 X-37.058 Y36.84 E16.6544
G1 X-37.203 Y40.223 E16.82333
G1 X-37.277 Y41.009 E16.86272
G1 X-37.43 Y41.784 E16.90213
G1 X-37.66 Y42.539 E16.94151
G1 X-37.965 Y43.267 E16.98089
G1 X-38.343 Y43.961 E17.02031
G1 X-38.789 Y44.612 E17.05968
G1 X-39.298 Y45.216 E17.09909
G1 X-39.719 Y45.636 E17.12876
G1 X-40.317 Y46.152 E17.16816
G1 X-40.963 Y46.605 E17.20753
G1 X-41.653 Y46.991 E17.24697
G1 X-42.377 Y47.305 E17.28634
G1 X-43.13 Y47.544 E17.32576
G1 X-43.903 Y47.706 E17.36516
G1 X-44.688 Y47.788 E17.40454
G1 X-45.112 Y47.8 E17.4257
G1 X-79.87 Y47.8 E19.15978
G1 X-80.659 Y47.76 E19.1992
G1 X-81.439 Y47.641 E19.23856
G1 X-82.204 Y47.443 E19.27798
G1 X-82.944 Y47.169 E19.31735
G1 X-83.653 Y46.821 E19.35676
G1 X-84.324 Y46.403 E19.3962
G1 X-84.948 Y45.92 E19.43556
G1 X-85.385 Y45.515 E19.46529
G1 X-85.502 Y45.398 E19.47354
G1 X-86.032 Y44.812 E19.51296
G1 X-86.499 Y44.176 E19.55233
G1 X-86.9 Y43.496 E19.59171
G1 X-87.23 Y42.778 E19.63114
G1 X-87.485 Y42.031 E19.67052
G1 X-87.664 Y41.262 E19.70991
G1 X-87.764 Y40.478 E19.74934
G1 X-87.787 Y39.884 E19.779
G1 X-87.788 Y30.118 E20.26622
G1 X-87.748 Y29.329 E20.30564
G1 X-87.629 Y28.549 E20.345
G1 X-87.431 Y27.784 E20.38443
G1 X-87.157 Y27.043 E20.42384
G1 X-86.809 Y26.334 E20.46324
G1 X-86.392 Y25.664 E20.50262
G1 X-85.909 Y25.039 E20.54202
G1 X-85.503 Y24.602 E20.57178
G1 X-85.386 Y24.485 E20.58004
G1 X-84.8 Y23.955 E20.61946
G1 X-84.164 Y23.488 E20.65882
G1 X-83.484 Y23.087 E20.69821
G1 X-82.766 Y22.757 E20.73763
G1 X-82.019 Y22.502 E20.77701
G1 X-81.25 Y22.323 E20.8164
G1 X-80.466 Y22.223 E20.85583
G1 X-79.871 Y22.2 E20.88554
G1 X-69.8 Y22.2 E21.38798
G1 X-69.8 Y12.617 E21.86608
G1 X-69.76 Y11.828 E21.9055
G1 X-69.641 Y11.048 E21.94486
G1 X-69.443 Y10.283 E21.98428
G1 X-69.169 Y9.543 E22.02365
G1 X-68.821 Y8.834 E22.06306
G1 X-68.403 Y8.163 E22.1025
G1 X-67.92 Y7.539 E22.14186
G1 X-67.515 Y7.102 E22.17159
G1 X-67.398 Y6.985 E22.17984
G1 X-66.812 Y6.455 E22.21926
G1 X-66.176 Y5.988 E22.25863
G1 X-65.496 Y5.587 E22.29801
G1 X-64.778 Y5.257 E22.33744
G1 X-64.031 Y5.002 E22.37682
G1 X-63.262 Y4.823 E22.41621
G1 X-62.478 Y4.723 E22.45564
G1 X-61.883 Y4.7 E22.48535
G1 X-59.8 Y4.7 E22.58927
G1 X-59.8 Y-17.883 E23.71594
G1 X-59.76 Y-18.672 E23.75535
G1 X-59.641 Y-19.452 E23.79472
G1 X-59.443 Y-20.217 E23.83414
G1 X-59.169 Y-20.957 E23.87351
G1 X-58.821 Y-21.666 E23.91291
G1 X-58.403 Y-22.337 E23.95235
G1 X-57.92 Y-22.961 E23.99172
G1 X-57.515 Y-23.398 E24.02145
G1 X-57.398 Y-23.515 E24.0297
G1 X-56.812 Y-24.045 E24.06912
G1 X-56.176 Y-24.512 E24.10849
G1 X-55.496 Y-24.913 E24.14787
G1 X-54.778 Y-25.243 E24.18729
G1 X-54.031 Y-25.498 E24.22667
G1 X-53.262 Y-25.677 E24.26606
G1 X-52.478 Y-25.777 E24.3055
G1 X-51.883 Y-25.8 E24.3352
G1 X-42.117 Y-25.8 E24.82243
G1 X-41.328 Y-25.76 E24.86184
G1 X-40.548 Y-25.641 E24.90121
G1 X-39.783 Y-25.443 E24.94063
G1 X-39.043 Y-25.169 E24.98
G1 X-38.334 Y-24.821 E25.0194
G1 X-37.663 Y-24.403 E25.05884
G1 X-37.039 Y-23.92 E25.09821
G1 X-36.602 Y-23.515 E25.12794
G1 X-36.485 Y-23.398 E25.13619
G1 X-35.955 Y-22.812 E25.17561
G1 X-35.488 Y-22.176 E25.21498
G1 X-35.087 Y-21.496 E25.25436
G1 X-34.757 Y-20.778 E25.29379
G1 X-34.502 Y-20.031 E25.33317
G1 X-34.323 Y-19.262 E25.37256
G1 X-34.224 Y-18.488 E25.41149
G1 X-32.73 Y-19.372 E25.49809
G1 X-32.258 Y-19.63 E25.52493
G1 X-29.05 Y-21.24 E25.704
G1 X-29.05 Y-39.883 E26.6341
G1 X-29.01 Y-40.672 E26.67352
G1 X-28.891 Y-41.452 E26.71288
G1 X-28.693 Y-42.217 E26.75231
G1 X-28.419 Y-42.957 E26.79168
G1 X-28.071 Y-43.666 E26.83108
G1 X-27.653 Y-44.337 E26.87052
G1 X-27.17 Y-44.961 E26.90989
G1 X-26.765 Y-45.398 E26.93961
G1 X-26.648 Y-45.515 E26.94787
G1 X-26.062 Y-46.045 E26.98729
G1 X-25.426 Y-46.512 E27.02665
G1 X-24.746 Y-46.913 E27.06604
G1 X-24.028 Y-47.243 E27.10546
G1 X-23.281 Y-47.498 E27.14484
G1 X-22.512 Y-47.677 E27.18423
G1 X-21.728 Y-47.777 E27.22366
G1 X-21.133 Y-47.8 E27.25337
G1 X-11.367 Y-47.8 E27.7406
G1 X-10.578 Y-47.76 E27.78001
G1 X-9.798 Y-47.641 E27.81938
G1 X-9.033 Y-47.443 E27.8588
G1 X-8.293 Y-47.169 E27.89817
G1 X-7.584 Y-46.821 E27.93757
G1 X-6.913 Y-46.403 E27.97701
G1 X-6.289 Y-45.92 E28.01638
G1 X-5.852 Y-45.515 E28.0461
G1 X-5.735 Y-45.398 E28.05436
G1 X-5.205 Y-44.812 E28.09378
G1 X-4.738 Y-44.176 E28.13314
G1 X-4.337 Y-43.496 E28.17253
G1 X-4.007 Y-42.778 E28.21195
G1 X-3.752 Y-42.031 E28.25133
G1 X-3.573 Y-41.262 E28.29072
G1 X-3.473 Y-40.478 E28.33015
G1 X-3.45 Y-39.883 E28.35986
G1 X-3.45 Y-27.69 E28.96817
G1 X-2.86 Y-27.735 E28.99769
G1 X-2.271 Y-27.757 E29.0271
G0 F3600 X-2.271 Y-27.357
G1 F1800 X2.271 Y-27.357 E29.2537
G1 X2.83 Y-27.336 E29.28161
G1 X3.85 Y-27.259 E29.33264
G1 X3.85 Y-39.883 E29.96245
G1 X3.89 Y-40.651 E30.00082
G1 X4.009 Y-41.411 E30.0392
G1 X4.207 Y-42.154 E30.07756
G1 X4.481 Y-42.873 E30.11595
G1 X4.828 Y-43.559 E30.1543
G1 X5.244 Y-44.206 E30.19268
G1 X5.725 Y-44.806 E30.23105
G1 X6.134 Y-45.233 E30.26054
G1 X6.706 Y-45.747 E30.29891
G1 X7.328 Y-46.2 E30.3373
G1 X7.993 Y-46.586 E30.37566
G1 X8.695 Y-46.901 E30.41405
G1 X9.426 Y-47.141 E30.45243
G1 X10.177 Y-47.304 E30.49077
G1 X10.942 Y-47.388 E30.52917
G1 X11.367 Y-47.4 E30.55038
G1 X21.133 Y-47.4 E31.03761
G1 X21.901 Y-47.36 E31.07598
G1 X22.661 Y-47.241 E31.11435
G1 X23.404 Y-47.043 E31.15272
G1 X24.123 Y-46.769 E31.1911
G1 X24.809 Y-46.422 E31.22946
G1 X25.456 Y-46.006 E31.26783
G1 X26.056 Y-45.525 E31.3062
G1 X26.483 Y-45.116 E31.3357
G1 X26.997 Y-44.544 E31.37406
G1 X27.45 Y-43.922 E31.41245
G1 X27.836 Y-43.257 E31.45081
G1 X28.151 Y-42.555 E31.4892
G1 X28.391 Y-41.824 E31.52759
G1 X28.554 Y-41.073 E31.56593
G1 X28.638 Y-40.308 E31.60432
G1 X28.65 Y-39.883 E31.62553
G1 X28.65 Y-20.994 E32.56791
G1 X32.196 Y-19.208 E32.76599
G1 X32.652 Y-18.958 E32.79194
G1 X34.85 Y-17.65 E32.91954
G1 X34.85 Y-17.883 E32.93117
G1 X34.89 Y-18.651 E32.96954
G1 X35.009 Y-19.411 E33.00791
G1 X35.207 Y-20.154 E33.04628
G1 X35.481 Y-20.873 E33.08466
G1 X35.828 Y-21.559 E33.12302
G1 X36.244 Y-22.206 E33.16139
G1 X36.725 Y-22.806 E33.19976
G1 X37.134 Y-23.233 E33.22926
G1 X37.706 Y-23.747 E33.26762
G1 X38.328 Y-24.2 E33.30601
G1 X38.993 Y-24.586 E33.34437
G1 X39.695 Y-24.901 E33.38276
G1 X40.426 Y-25.141 E33.42115
G1 X41.177 Y-25.304 E33.45949
G1 X41.942 Y-25.388 E33.49788
G1 X42.367 Y-25.4 E33.51909
G1 X52.133 Y-25.4 E34.00632
G1 X52.901 Y-25.36 E34.04469
G1 X53.661 Y-25.241 E34.08307
G1 X54.404 Y-25.043 E34.12143
G1 X55.123 Y-24.769 E34.15982
G1 X55.809 Y-24.422 E34.19817
G1 X56.456 Y-24.006 E34.23655
G1 X57.056 Y-23.525 E34.27491
G1 X57.483 Y-23.116 E34.30441
G1 X57.997 Y-22.544 E34.34278
G1 X58.45 Y-21.922 E34.38117
G1 X58.836 Y-21.257 E34.41953
G1 X59.151 Y-20.555 E34.45792
G1 X59.391 Y-19.824 E34.4963
G1 X59.554 Y-19.073 E34.53464
G1 X59.638 Y-18.308 E34.57304
G1 X59.65 Y-17.883 E34.59425
G1 X59.65 Y5.1 E35.74087
G1 X61.883 Y5.1 E35.85228
G1 X62.651 Y5.14 E35.89065
G1 X63.411 Y5.259 E35.92902
G1 X64.154 Y5.457 E35.96739
G1 X64.873 Y5.731 E36.00577
G1 X65.559 Y6.078 E36.04413
G1 X66.206 Y6.494 E36.0825
G1 X66.806 Y6.975 E36.12087
G1 X67.233 Y7.384 E36.15037
G1 X67.747 Y7.956 E36.18873
G1 X68.2 Y8.578 E36.22712
G1 X68.586 Y9.243 E36.26548
G1 X68.901 Y9.945 E36.30387
G1 X69.141 Y10.676 E36.34226
G1 X69.304 Y11.427 E36.3806
G1 X69.388 Y12.192 E36.41899
G1 X69.4 Y12.617 E36.4402
G1 X69.4 Y22.383 E36.92743
G1 X69.389 Y22.6 E36.93827
G1 X79.87 Y22.6 E37.46117
G1 X80.638 Y22.64 E37.49954
G1 X81.398 Y22.759 E37.53792
G1 X82.141 Y22.957 E37.57628
G1 X82.86 Y23.231 E37.61467
G1 X83.546 Y23.578 E37.65302
G1 X84.193 Y23.994 E37.6914
G1 X84.793 Y24.475 E37.72976
G1 X85.22 Y24.884 E37.75926
G1 X85.734 Y25.456 E37.79763
G1 X86.187 Y26.078 E37.83602
G1 X86.573 Y26.743 E37.87438
G1 X86.888 Y27.445 E37.91276
G1 X87.128 Y28.176 E37.95115
G1 X87.291 Y28.927 E37.98949
G1 X87.375 Y29.692 E38.02788
G1 X87.387 Y30.117 E38.0491
G1 X87.387 Y39.883 E38.53632
G1 X87.347 Y40.651 E38.57469
G1 X87.228 Y41.411 E38.61307
G1 X87.03 Y42.154 E38.65143
G1 X86.756 Y42.873 E38.68982
G1 X86.409 Y43.559 E38.72817
G1 X85.993 Y44.206 E38.76655
G1 X85.512 Y44.806 E38.80492
G1 X85.103 Y45.233 E38.83441
G1 X84.531 Y45.747 E38.87278
G1 X83.909 Y46.2 E38.91117
G1 X83.244 Y46.586 E38.94953
G1 X82.542 Y46.901 E38.98792
G1 X81.811 Y47.141 E39.0263
G1 X81.06 Y47.304 E39.06464
G1 X80.295 Y47.388 E39.10304
G1 X79.87 Y47.4 E39.12425
G1 X45.112 Y47.4 E40.85833
G1 X44.344 Y47.36 E40.8967
G1 X43.584 Y47.241 E40.93508
G1 X42.841 Y47.043 E40.97344
G1 X42.122 Y46.769 E41.01183
G1 X41.436 Y46.422 E41.05018
G1 X40.789 Y46.006 E41.08856
G1 X39.996 Y45.347 E41.14
G1 X39.88 Y45.236 E41.14801
G1 X39.353 Y44.676 E41.18637
G1 X38.886 Y44.064 E41.22478
G1 X38.486 Y43.407 E41.26316
G1 X38.156 Y42.712 E41.30154
G1 X37.9 Y41.987 E41.3399
G1 X37.72 Y41.239 E41.37828
G1 X37.603 Y40.205 E41.4302
G1 X37.458 Y36.806 E41.59993
G1 X37.052 Y33.645 E41.75893
G1 X36.784 Y32.4 E41.82246
G1 X-36.782 Y32.4 E45.49269
G1 X-37.054 Y33.657 E45.55685
G1 X-37.458 Y36.808 E45.71534
G1 X-37.603 Y40.205 E45.88497
G1 X-37.676 Y40.971 E45.92336
G1 X-37.827 Y41.725 E45.96172
G1 X-38.057 Y42.459 E46.0001
G1 X-38.361 Y43.166 E46.03849
G1 X-38.737 Y43.837 E46.07687
G1 X-39.181 Y44.465 E46.11524
G1 X-39.88 Y45.236 E46.16716
G1 X-39.996 Y45.347 E46.17517
G1 X-40.579 Y45.849 E46.21355
G1 X-41.21 Y46.288 E46.2519
G1 X-41.884 Y46.659 E46.29029
G1 X-42.592 Y46.958 E46.32863
G1 X-43.328 Y47.182 E46.36701
G1 X-44.083 Y47.328 E46.40538
G1 X-45.112 Y47.4 E46.45684
G1 X-79.87 Y47.4 E48.19092
G1 X-80.638 Y47.36 E48.22929
G1 X-81.398 Y47.241 E48.26767
G1 X-82.141 Y47.043 E48.30603
G1 X-82.86 Y46.769 E48.34442
G1 X-83.546 Y46.422 E48.38277
G1 X-84.193 Y46.006 E48.42115
G1 X-84.793 Y45.525 E48.45951
G1 X-85.22 Y45.116 E48.48901
G1 X-85.734 Y44.544 E48.52738
G1 X-86.187 Y43.922 E48.56577
G1 X-86.573 Y43.257 E48.60413
G1 X-86.888 Y42.555 E48.64252
G1 X-87.128 Y41.824 E48.6809
G1 X-87.291 Y41.073 E48.71924
G1 X-87.375 Y40.308 E48.75764
G1 X-87.387 Y39.884 E48.7788
G1 X-87.388 Y30.118 E49.26603
G1 X-87.348 Y29.35 E49.30439
G1 X-87.229 Y28.59 E49.34277
G1 X-87.031 Y27.846 E49.38118
G1 X-86.757 Y27.128 E49.41952
G1 X-86.41 Y26.441 E49.45792
G1 X-85.994 Y25.794 E49.4963
G1 X-85.513 Y25.194 E49.53466
G1 X-85.104 Y24.767 E49.56416
G1 X-84.532 Y24.253 E49.60253
G1 X-83.91 Y23.8 E49.64092
G1 X-83.245 Y23.414 E49.67928
G1 X-82.543 Y23.099 E49.71767
G1 X-81.812 Y22.859 E49.75605
G1 X-81.061 Y22.696 E49.79439
G1 X-80.296 Y22.612 E49.83279
G1 X-79.871 Y22.6 E49.854
G1 X-69.394 Y22.6 E50.3767
G1 X-69.4 Y22.383 E50.38753
G1 X-69.4 Y12.617 E50.87475
G1 X-69.36 Y11.849 E50.91312
G1 X-69.241 Y11.089 E50.9515
G1 X-69.043 Y10.346 E50.98986
G1 X-68.769 Y9.627 E51.02825
G1 X-68.422 Y8.941 E51.0666
G1 X-68.006 Y8.294 E51.10498
G1 X-67.525 Y7.694 E51.14335
G1 X-67.116 Y7.267 E51.17284
G1 X-66.544 Y6.753 E51.21121
G1 X-65.922 Y6.3 E51.2496
G1 X-65.257 Y5.914 E51.28796
G1 X-64.555 Y5.599 E51.32635
G1 X-63.824 Y5.359 E51.36473
G1 X-63.073 Y5.196 E51.40307
G1 X-62.308 Y5.112 E51.44147
G1 X-61.883 Y5.1 E51.46268
G1 X-59.4 Y5.1 E51.58656
G1 X-59.4 Y-17.883 E52.73318
G1 X-59.36 Y-18.651 E52.77155
G1 X-59.241 Y-19.411 E52.80993
G1 X-59.043 Y-20.154 E52.84829
G1 X-58.769 Y-20.873 E52.88668
G1 X-58.422 Y-21.559 E52.92503
G1 X-58.006 Y-22.206 E52.96341
G1 X-57.525 Y-22.806 E53.00178
