;FLAVOR:Marlin
;TIME:10837
;Filament used: 15.9839m
;Layer height: 0.3
;MINX:-39.05
;MINY:-45.3
;MINZ:0.3
;MAXX:39.05
;MAXY:45.3
;MAXZ:9.9
;Generated with Cura_SteamEngine 4.7.1
M140 S50
M105
M190 S50
M104 S250
M105
M109 S250
M82 ;absolute extrusion mode
G28 ;Home
G1 Z15.0 F6000 ;Move the platform down 15mm
;Prime the extruder
G92 E0
G1 F200 E3
G92 E0
G92 E0
G92 E0
G1 F1500 E-6.5
;LAYER_COUNT:33
;LAYER:0
M107
G0 F3600 X-13.45 Y-35.3 Z0.3
;TYPE:SKIRT
G1 F1500 E0
G1 F1800 X13.45 Y-35.3 E1.34205
G1 X13.45 Y-37.383 E1.44597
G1 X13.49 Y-38.172 E1.48538
G1 X13.609 Y-38.952 E1.52475
G1 X13.807 Y-39.717 E1.56417
G1 X14.081 Y-40.457 E1.60354
G1 X14.429 Y-41.166 E1.64294
G1 X14.847 Y-41.837 E1.68238
G1 X15.33 Y-42.461 E1.72175
G1 X15.735 Y-42.898 E1.75148
G1 X15.852 Y-43.015 E1.75973
G1 X16.438 Y-43.545 E1.79915
G1 X17.074 Y-44.012 E1.83852
G1 X17.754 Y-44.413 E1.8779
G1 X18.472 Y-44.743 E1.91732
G1 X19.219 Y-44.998 E1.9567
G1 X19.988 Y-45.177 E1.99609
G1 X20.772 Y-45.277 E2.03553
G1 X21.367 Y-45.3 E2.06523
G1 X31.133 Y-45.3 E2.55246
G1 X31.922 Y-45.26 E2.59187
G1 X32.702 Y-45.141 E2.63124
G1 X33.467 Y-44.943 E2.67066
G1 X34.207 Y-44.669 E2.71003
G1 X34.916 Y-44.321 E2.74943
G1 X35.587 Y-43.903 E2.78887
G1 X36.211 Y-43.42 E2.82824
G1 X36.648 Y-43.015 E2.85797
G1 X36.765 Y-42.898 E2.86622
G1 X37.295 Y-42.312 E2.90564
G1 X37.762 Y-41.676 E2.94501
G1 X38.163 Y-40.996 E2.98439
G1 X38.493 Y-40.278 E3.02382
G1 X38.748 Y-39.531 E3.06319
G1 X38.927 Y-38.762 E3.10259
G1 X39.027 Y-37.978 E3.14202
G1 X39.05 Y-37.383 E3.17172
G1 X39.05 Y37.383 E6.90181
G1 X39.01 Y38.172 E6.94123
G1 X38.891 Y38.952 E6.98059
G1 X38.693 Y39.717 E7.02002
G1 X38.419 Y40.457 E7.05939
G1 X38.071 Y41.166 E7.09879
G1 X37.653 Y41.837 E7.13823
G1 X37.17 Y42.461 E7.1776
G1 X36.765 Y42.898 E7.20732
G1 X36.648 Y43.015 E7.21558
G1 X36.062 Y43.545 E7.255
G1 X35.426 Y44.012 E7.29436
G1 X34.746 Y44.413 E7.33375
G1 X34.028 Y44.743 E7.37317
G1 X33.281 Y44.998 E7.41255
G1 X32.512 Y45.177 E7.45194
G1 X31.728 Y45.277 E7.49137
G1 X31.133 Y45.3 E7.52108
G1 X21.367 Y45.3 E8.00831
G1 X20.578 Y45.26 E8.04772
G1 X19.798 Y45.141 E8.08709
G1 X19.033 Y44.943 E8.12651
G1 X18.293 Y44.669 E8.16588
G1 X17.584 Y44.321 E8.20528
G1 X16.913 Y43.903 E8.24472
G1 X16.289 Y43.42 E8.28409
G1 X15.852 Y43.015 E8.31381
G1 X15.735 Y42.898 E8.32207
G1 X15.205 Y42.312 E8.36149
G1 X14.738 Y41.676 E8.40085
G1 X14.337 Y40.996 E8.44024
G1 X14.007 Y40.278 E8.47966
G1 X13.752 Y39.531 E8.51904
G1 X13.573 Y38.762 E8.55843
G1 X13.473 Y37.978 E8.59786
G1 X13.45 Y37.383 E8.62757
G1 X13.45 Y35.3 E8.73149
G1 X-13.45 Y35.3 E10.07354
G1 X-13.45 Y37.383 E10.17746
G1 X-13.49 Y38.172 E10.21687
G1 X-13.609 Y38.952 E10.25624
G1 X-13.807 Y39.717 E10.29566
G1 X-14.081 Y40.457 E10.33503
G1 X-14.429 Y41.166 E10.37443
G1 X-14.847 Y41.837 E10.41387
G1 X-15.33 Y42.461 E10.45324
G1 X-15.735 Y42.898 E10.48297
G1 X-15.852 Y43.015 E10.49122
G1 X-16.438 Y43.545 E10.53064
G1 X-17.074 Y44.012 E10.57001
G1 X-17.754 Y44.413 E10.60939
G1 X-18.472 Y44.743 E10.64882
G1 X-19.219 Y44.998 E10.6882
G1 X-19.988 Y45.177 E10.72759
G1 X-20.772 Y45.277 E10.76702
G1 X-21.367 Y45.3 E10.79672
G1 X-31.133 Y45.3 E11.28395
G1 X-31.922 Y45.26 E11.32337
G1 X-32.702 Y45.141 E11.36273
G1 X-33.467 Y44.943 E11.40215
G1 X-34.207 Y44.669 E11.44152
G1 X-34.916 Y44.321 E11.48093
G1 X-35.587 Y43.903 E11.52037
G1 X-36.211 Y43.42 E11.55973
G1 X-36.648 Y43.015 E11.58946
G1 X-36.765 Y42.898 E11.59771
G1 X-37.295 Y42.312 E11.63713
G1 X-37.762 Y41.676 E11.6765
G1 X-38.163 Y40.996 E11.71588
G1 X-38.493 Y40.278 E11.75531
G1 X-38.748 Y39.531 E11.79469
G1 X-38.927 Y38.762 E11.83408
G1 X-39.027 Y37.978 E11.87351
G1 X-39.05 Y37.383 E11.90322
G1 X-39.05 Y-37.383 E15.63331
G1 X-39.01 Y-38.172 E15.67272
G1 X-38.891 Y-38.952 E15.71209
G1 X-38.693 Y-39.717 E15.75151
G1 X-38.419 Y-40.457 E15.79088
G1 X-38.071 Y-41.166 E15.83028
G1 X-37.653 Y-41.837 E15.86972
G1 X-37.17 Y-42.461 E15.90909
G1 X-36.765 Y-42.898 E15.93881
G1 X-36.648 Y-43.015 E15.94707
G1 X-36.062 Y-43.545 E15.98649
G1 X-35.426 Y-44.012 E16.02585
G1 X-34.746 Y-44.413 E16.06524
G1 X-34.028 Y-44.743 E16.10466
G1 X-33.281 Y-44.998 E16.14404
G1 X-32.512 Y-45.177 E16.18343
G1 X-31.728 Y-45.277 E16.22286
G1 X-31.133 Y-45.3 E16.25257
G1 X-21.367 Y-45.3 E16.7398
G1 X-20.578 Y-45.26 E16.77921
G1 X-19.798 Y-45.141 E16.81858
G1 X-19.033 Y-44.943 E16.858
G1 X-18.293 Y-44.669 E16.89737
G1 X-17.584 Y-44.321 E16.93677
G1 X-16.913 Y-43.903 E16.97621
G1 X-16.289 Y-43.42 E17.01558
G1 X-15.852 Y-43.015 E17.04531
G1 X-15.735 Y-42.898 E17.05356
G1 X-15.205 Y-42.312 E17.09298
G1 X-14.738 Y-41.676 E17.13235
G1 X-14.337 Y-40.996 E17.17173
G1 X-14.007 Y-40.278 E17.21115
G1 X-13.752 Y-39.531 E17.25053
G1 X-13.573 Y-38.762 E17.28993
G1 X-13.473 Y-37.978 E17.32936
G1 X-13.45 Y-37.383 E17.35906
G1 X-13.45 Y-35.3 E17.46298
G0 F3600 X-13.85 Y-34.9
G1 F1800 X13.85 Y-34.9 E18.84494
G1 X13.85 Y-37.383 E18.96882
G1 X13.89 Y-38.151 E19.00719
G1 X14.009 Y-38.911 E19.04557
G1 X14.207 Y-39.654 E19.08393
G1 X14.481 Y-40.373 E19.12232
G1 X14.828 Y-41.059 E19.16067
G1 X15.244 Y-41.706 E19.19905
G1 X15.725 Y-42.306 E19.23741
G1 X16.134 Y-42.733 E19.26691
G1 X16.706 Y-43.247 E19.30528
G1 X17.328 Y-43.7 E19.34367
G1 X17.993 Y-44.086 E19.38203
G1 X18.695 Y-44.401 E19.42041
G1 X19.426 Y-44.641 E19.4588
G1 X20.177 Y-44.804 E19.49714
G1 X20.942 Y-44.888 E19.53553
G1 X21.367 Y-44.9 E19.55675
G1 X31.133 Y-44.9 E20.04397
G1 X31.901 Y-44.86 E20.08234
G1 X32.661 Y-44.741 E20.12072
G1 X33.404 Y-44.543 E20.15908
G1 X34.123 Y-44.269 E20.19747
G1 X34.809 Y-43.922 E20.23582
G1 X35.456 Y-43.506 E20.2742
G1 X36.056 Y-43.025 E20.31256
G1 X36.483 Y-42.616 E20.34206
G1 X36.997 Y-42.044 E20.38043
G1 X37.45 Y-41.422 E20.41882
G1 X37.836 Y-40.757 E20.45718
G1 X38.151 Y-40.055 E20.49557
G1 X38.391 Y-39.324 E20.53395
G1 X38.554 Y-38.573 E20.57229
G1 X38.638 Y-37.808 E20.61069
G1 X38.65 Y-37.383 E20.6319
G1 X38.65 Y37.383 E24.36199
G1 X38.61 Y38.151 E24.40036
G1 X38.491 Y38.911 E24.43874
G1 X38.293 Y39.654 E24.4771
G1 X38.019 Y40.373 E24.51549
G1 X37.672 Y41.059 E24.55384
G1 X37.256 Y41.706 E24.59221
G1 X36.775 Y42.306 E24.63058
G1 X36.366 Y42.733 E24.66008
G1 X35.794 Y43.247 E24.69845
G1 X35.172 Y43.7 E24.73683
G1 X34.507 Y44.086 E24.7752
G1 X33.805 Y44.401 E24.81358
G1 X33.074 Y44.641 E24.85197
G1 X32.323 Y44.804 E24.89031
G1 X31.558 Y44.888 E24.9287
G1 X31.133 Y44.9 E24.94992
G1 X21.367 Y44.9 E25.43714
G1 X20.599 Y44.86 E25.47551
G1 X19.839 Y44.741 E25.51389
G1 X19.096 Y44.543 E25.55225
G1 X18.377 Y44.269 E25.59064
G1 X17.691 Y43.922 E25.62899
G1 X17.044 Y43.506 E25.66737
G1 X16.444 Y43.025 E25.70573
G1 X16.017 Y42.616 E25.73523
G1 X15.503 Y42.044 E25.7736
G1 X15.05 Y41.422 E25.81199
G1 X14.664 Y40.757 E25.85035
G1 X14.349 Y40.055 E25.88874
G1 X14.109 Y39.324 E25.92712
G1 X13.946 Y38.573 E25.96546
G1 X13.862 Y37.808 E26.00386
G1 X13.85 Y37.383 E26.02507
G1 X13.85 Y34.9 E26.14895
G1 X-13.85 Y34.9 E27.5309
G1 X-13.85 Y37.383 E27.65478
G1 X-13.89 Y38.151 E27.69315
G1 X-14.009 Y38.911 E27.73153
G1 X-14.207 Y39.654 E27.76989
G1 X-14.481 Y40.373 E27.80828
G1 X-14.828 Y41.059 E27.84663
G1 X-15.244 Y41.706 E27.88501
G1 X-15.725 Y42.306 E27.92337
G1 X-16.134 Y42.733 E27.95287
G1 X-16.706 Y43.247 E27.99124
G1 X-17.328 Y43.7 E28.02963
G1 X-17.993 Y44.086 E28.06799
G1 X-18.695 Y44.401 E28.10638
G1 X-19.426 Y44.641 E28.14476
G1 X-20.177 Y44.804 E28.1831
G1 X-20.942 Y44.888 E28.2215
G1 X-21.367 Y44.9 E28.24271
G1 X-31.133 Y44.9 E28.72994
G1 X-31.901 Y44.86 E28.7683
G1 X-32.661 Y44.741 E28.80668
G1 X-33.404 Y44.543 E28.84504
G1 X-34.123 Y44.269 E28.88343
G1 X-34.809 Y43.922 E28.92178
G1 X-35.456 Y43.506 E28.96016
G1 X-36.056 Y43.025 E28.99853
G1 X-36.483 Y42.616 E29.02802
G1 X-36.997 Y42.044 E29.06639
G1 X-37.45 Y41.422 E29.10478
G1 X-37.836 Y40.757 E29.14314
G1 X-38.151 Y40.055 E29.18153
G1 X-38.391 Y39.324 E29.21991
G1 X-38.554 Y38.573 E29.25825
G1 X-38.638 Y37.808 E29.29665
G1 X-38.65 Y37.383 E29.31786
G1 X-38.65 Y-37.383 E33.04795
G1 X-38.61 Y-38.151 E33.08632
G1 X-38.491 Y-38.911 E33.1247
G1 X-38.293 Y-39.654 E33.16306
G1 X-38.019 Y-40.373 E33.20145
G1 X-37.672 Y-41.059 E33.2398
G1 X-37.256 Y-41.706 E33.27818
G1 X-36.775 Y-42.306 E33.31654
G1 X-36.366 Y-42.733 E33.34604
G1 X-35.794 Y-43.247 E33.38441
G1 X-35.172 Y-43.7 E33.4228
G1 X-34.507 Y-44.086 E33.46116
G1 X-33.805 Y-44.401 E33.49955
G1 X-33.074 Y-44.641 E33.53793
G1 X-32.323 Y-44.804 E33.57627
G1 X-31.558 Y-44.888 E33.61467
G1 X-31.133 Y-44.9 E33.63588
G1 X-21.367 Y-44.9 E34.1231
G1 X-20.599 Y-44.86 E34.16147
G1 X-19.839 Y-44.741 E34.19985
G1 X-19.096 Y-44.543 E34.23821
G1 X-18.377 Y-44.269 E34.2766
G1 X-17.691 Y-43.922 E34.31495
G1 X-17.044 Y-43.506 E34.35333
G1 X-16.444 Y-43.025 E34.3917
G1 X-16.017 Y-42.616 E34.42119
G1 X-15.503 Y-42.044 E34.45956
G1 X-15.05 Y-41.422 E34.49795
G1 X-14.664 Y-40.757 E34.53631
G1 X-14.349 Y-40.055 E34.5747
G1 X-14.109 Y-39.324 E34.61308
G1 X-13.946 Y-38.573 E34.65142
G1 X-13.862 Y-37.808 E34.68982
G1 X-13.85 Y-37.383 E34.71103
G1 X-13.85 Y-34.9 E34.83491
G0 F3600 X-14.25 Y-34.5
G1 F1800 X14.25 Y-34.5 E36.25678
G1 X14.25 Y-37.383 E36.40061
G1 X14.29 Y-38.13 E36.43793
G1 X14.409 Y-38.868 E36.47523
G1 X14.607 Y-39.59 E36.51258
G1 X14.88 Y-40.286 E36.54988
G1 X15.227 Y-40.949 E36.58721
G1 X15.642 Y-41.572 E36.62456
G1 X16.3 Y-42.333 E36.67475
G1 X16.417 Y-42.45 E36.683
G1 X16.974 Y-42.95 E36.72035
G1 X17.58 Y-43.387 E36.75762
G1 X18.23 Y-43.758 E36.79496
G1 X18.916 Y-44.057 E36.83229
G1 X19.63 Y-44.281 E36.86963
G1 X20.363 Y-44.428 E36.90693
G1 X21.367 Y-44.5 E36.95714
G1 X31.133 Y-44.5 E37.44437
G1 X31.88 Y-44.46 E37.48169
G1 X32.618 Y-44.341 E37.51899
G1 X33.34 Y-44.143 E37.55634
G1 X34.036 Y-43.87 E37.59364
G1 X34.699 Y-43.523 E37.63097
G1 X35.322 Y-43.108 E37.66832
G1 X36.083 Y-42.45 E37.71851
G1 X36.2 Y-42.333 E37.72676
G1 X36.7 Y-41.776 E37.76411
G1 X37.137 Y-41.17 E37.80138
G1 X37.508 Y-40.52 E37.83872
G1 X37.807 Y-39.834 E37.87605
G1 X38.031 Y-39.12 E37.91339
G1 X38.178 Y-38.387 E37.95068
G1 X38.25 Y-37.383 E38.0009
G1 X38.25 Y37.383 E41.73099
G1 X38.21 Y38.13 E41.76832
G1 X38.091 Y38.868 E41.80561
G1 X37.893 Y39.59 E41.84296
G1 X37.62 Y40.286 E41.88026
G1 X37.273 Y40.949 E41.91759
G1 X36.858 Y41.572 E41.95494
G1 X36.2 Y42.333 E42.00513
G1 X36.083 Y42.45 E42.01339
G1 X35.526 Y42.95 E42.05073
G1 X34.92 Y43.387 E42.088
G1 X34.27 Y43.758 E42.12534
G1 X33.584 Y44.057 E42.16268
G1 X32.87 Y44.281 E42.20001
G1 X32.137 Y44.428 E42.23731
G1 X31.133 Y44.5 E42.28753
G1 X21.367 Y44.5 E42.77475
G1 X20.62 Y44.46 E42.81207
G1 X19.882 Y44.341 E42.84937
G1 X19.16 Y44.143 E42.88672
G1 X18.464 Y43.87 E42.92402
G1 X17.801 Y43.523 E42.96135
G1 X17.178 Y43.108 E42.9987
G1 X16.417 Y42.45 E43.04889
G1 X16.3 Y42.333 E43.05714
G1 X15.8 Y41.776 E43.09449
G1 X15.363 Y41.17 E43.13176
G1 X14.992 Y40.52 E43.1691
G1 X14.693 Y39.834 E43.20644
G1 X14.469 Y39.12 E43.24377
G1 X14.322 Y38.387 E43.28107
G1 X14.25 Y37.383 E43.33128
G1 X14.25 Y34.5 E43.47512
G1 X-14.25 Y34.5 E44.89699
G1 X-14.25 Y37.383 E45.04082
G1 X-14.29 Y38.13 E45.07814
G1 X-14.409 Y38.868 E45.11544
G1 X-14.607 Y39.59 E45.15279
G1 X-14.88 Y40.286 E45.19009
G1 X-15.227 Y40.949 E45.22742
G1 X-15.642 Y41.572 E45.26477
G1 X-16.3 Y42.333 E45.31496
G1 X-16.417 Y42.45 E45.32321
G1 X-16.974 Y42.95 E45.36056
G1 X-17.58 Y43.387 E45.39783
G1 X-18.23 Y43.758 E45.43517
G1 X-18.916 Y44.057 E45.4725
G1 X-19.63 Y44.281 E45.50984
G1 X-20.363 Y44.428 E45.54714
G1 X-21.367 Y44.5 E45.59735
G1 X-31.133 Y44.5 E46.08458
G1 X-31.88 Y44.46 E46.1219
G1 X-32.618 Y44.341 E46.1592
G1 X-33.34 Y44.143 E46.19655
G1 X-34.036 Y43.87 E46.23385
G1 X-34.699 Y43.523 E46.27118
G1 X-35.322 Y43.108 E46.30853
G1 X-36.083 Y42.45 E46.35872
G1 X-36.2 Y42.333 E46.36697
G1 X-36.7 Y41.776 E46.40432
G1 X-37.137 Y41.17 E46.44159
G1 X-37.508 Y40.52 E46.47893
G1 X-37.807 Y39.834 E46.51626
G1 X-38.031 Y39.12 E46.5536
G1 X-38.178 Y38.387 E46.5909
G1 X-38.25 Y37.383 E46.64111
G1 X-38.25 Y-37.383 E50.3712
G1 X-38.21 Y-38.13 E50.40853
G1 X-38.091 Y-38.868 E50.44582
G1 X-37.893 Y-39.59 E50.48317
G1 X-37.62 Y-40.286 E50.52047
G1 X-37.273 Y-40.949 E50.5578
G1 X-36.858 Y-41.572 E50.59515
G1 X-36.2 Y-42.333 E50.64534
G1 X-36.083 Y-42.45 E50.6536
G1 X-35.526 Y-42.95 E50.69094
G1 X-34.92 Y-43.387 E50.72821
G1 X-34.27 Y-43.758 E50.76555
G1 X-33.584 Y-44.057 E50.80289
G1 X-32.87 Y-44.281 E50.84022
G1 X-32.137 Y-44.428 E50.87752
G1 X-31.133 Y-44.5 E50.92774
G1 X-21.367 Y-44.5 E51.41496
G1 X-20.62 Y-44.46 E51.45229
G1 X-19.882 Y-44.341 E51.48958
G1 X-19.16 Y-44.143 E51.52693
G1 X-18.464 Y-43.87 E51.56423
G1 X-17.801 Y-43.523 E51.60156
G1 X-17.178 Y-43.108 E51.63891
G1 X-16.417 Y-42.45 E51.6891
G1 X-16.3 Y-42.333 E51.69736
G1 X-15.8 Y-41.776 E51.7347
G1 X-15.363 Y-41.17 E51.77197
G1 X-14.992 Y-40.52 E51.80931
G1 X-14.693 Y-39.834 E51.84665
G1 X-14.469 Y-39.12 E51.88398
G1 X-14.322 Y-38.387 E51.92128
G1 X-14.25 Y-37.383 E51.9715
G1 X-14.25 Y-34.5 E52.11533
G0 F3600 X-14.65 Y-34.1
G1 F1800 X14.65 Y-34.1 E53.57711
G1 X14.65 Y-37.383 E53.7409
G1 X14.69 Y-38.108 E53.77713
G1 X14.809 Y-38.825 E53.81339
G1 X15.007 Y-39.524 E53.84963
G1 X15.28 Y-40.197 E53.88587
G1 X15.625 Y-40.836 E53.9221
G1 X16.039 Y-41.433 E53.95834
G1 X16.583 Y-42.05 E53.99938
G1 X16.7 Y-42.167 E54.00763
G1 X17.241 Y-42.651 E54.04385
G1 X17.832 Y-43.074 E54.08011
G1 X18.466 Y-43.428 E54.11634
G1 X19.135 Y-43.711 E54.15258
G1 X19.831 Y-43.919 E54.18882
G1 X20.546 Y-44.049 E54.22507
G1 X21.367 Y-44.1 E54.26611
G1 X31.133 Y-44.1 E54.75334
G1 X31.858 Y-44.06 E54.78957
G1 X32.575 Y-43.941 E54.82583
G1 X33.274 Y-43.743 E54.86207
G1 X33.947 Y-43.47 E54.8983
G1 X34.586 Y-43.125 E54.93453
G1 X35.183 Y-42.711 E54.97078
G1 X35.8 Y-42.167 E55.01182
G1 X35.917 Y-42.05 E55.02007
G1 X36.401 Y-41.509 E55.05629
G1 X36.824 Y-40.918 E55.09255
G1 X37.178 Y-40.284 E55.12877
G1 X37.461 Y-39.615 E55.16501
G1 X37.669 Y-38.919 E55.20126
G1 X37.799 Y-38.204 E55.23751
G1 X37.85 Y-37.383 E55.27855
G1 X37.85 Y37.383 E59.00864
G1 X37.81 Y38.108 E59.04487
G1 X37.691 Y38.825 E59.08113
G1 X37.493 Y39.524 E59.11737
G1 X37.22 Y40.197 E59.15361
G1 X36.875 Y40.836 E59.18984
G1 X36.461 Y41.433 E59.22608
G1 X35.917 Y42.05 E59.26712
G1 X35.8 Y42.167 E59.27537
G1 X35.259 Y42.651 E59.31159
G1 X34.668 Y43.074 E59.34785
G1 X34.034 Y43.428 E59.38408
G1 X33.365 Y43.711 E59.42032
G1 X32.669 Y43.919 E59.45656
G1 X31.954 Y44.049 E59.49281
G1 X31.133 Y44.1 E59.53385
G1 X21.367 Y44.1 E60.02108
G1 X20.642 Y44.06 E60.05731
G1 X19.925 Y43.941 E60.09357
G1 X19.226 Y43.743 E60.12981
G1 X18.553 Y43.47 E60.16604
G1 X17.914 Y43.125 E60.20227
G1 X17.317 Y42.711 E60.23852
G1 X16.7 Y42.167 E60.27956
G1 X16.583 Y42.05 E60.28781
G1 X16.099 Y41.509 E60.32403
G1 X15.676 Y40.918 E60.36029
G1 X15.322 Y40.284 E60.39651
G1 X15.039 Y39.615 E60.43275
G1 X14.831 Y38.919 E60.469
G1 X14.701 Y38.204 E60.50525
G1 X14.65 Y37.383 E60.54629
G1 X14.65 Y34.1 E60.71008
G1 X-14.65 Y34.1 E62.17186
G1 X-14.65 Y37.383 E62.33565
G1 X-14.69 Y38.108 E62.37188
G1 X-14.809 Y38.825 E62.40814
G1 X-15.007 Y39.524 E62.44438
G1 X-15.28 Y40.197 E62.48062
G1 X-15.625 Y40.836 E62.51685
G1 X-16.039 Y41.433 E62.55309
G1 X-16.583 Y42.05 E62.59413
G1 X-16.7 Y42.167 E62.60239
G1 X-17.241 Y42.651 E62.6386
G1 X-17.832 Y43.074 E62.67486
G1 X-18.466 Y43.428 E62.71109
G1 X-19.135 Y43.711 E62.74733
G1 X-19.831 Y43.919 E62.78357
G1 X-20.546 Y44.049 E62.81982
G1 X-21.367 Y44.1 E62.86086
G1 X-31.133 Y44.1 E63.34809
G1 X-31.858 Y44.06 E63.38432
G1 X-32.575 Y43.941 E63.42058
G1 X-33.274 Y43.743 E63.45682
G1 X-33.947 Y43.47 E63.49306
G1 X-34.586 Y43.125 E63.52929
G1 X-35.183 Y42.711 E63.56553
G1 X-35.8 Y42.167 E63.60657
G1 X-35.917 Y42.05 E63.61482
G1 X-36.401 Y41.509 E63.65104
G1 X-36.824 Y40.918 E63.6873
G1 X-37.178 Y40.284 E63.72353
G1 X-37.461 Y39.615 E63.75977
G1 X-37.669 Y38.919 E63.79601
G1 X-37.799 Y38.204 E63.83226
G1 X-37.85 Y37.383 E63.8733
G1 X-37.85 Y-37.383 E67.60339
G1 X-37.81 Y-38.108 E67.63962
G1 X-37.691 Y-38.825 E67.67588
G1 X-37.493 Y-39.524 E67.71212
G1 X-37.22 Y-40.197 E67.74836
G1 X-36.875 Y-40.836 E67.78459
G1 X-36.461 Y-41.433 E67.82083
G1 X-35.917 Y-42.05 E67.86187
G1 X-35.8 Y-42.167 E67.87013
G1 X-35.259 Y-42.651 E67.90634
