;FLAVOR:Marlin
;TIME:11682
;Filament used: 15.1968m
;Layer height: 0.3
;MINX:-36.653
;MINY:-65.3
;MINZ:0.3
;MAXX:38.947
;MAXY:65.3
;MAXZ:90.9
;Generated with Cura_SteamEngine 4.7.1
M140 S50
M105
M190 S50
M104 S250
M105
M109 S250
M82 ;absolute extrusion mode
G28 ;Home
G1 Z15.0 F6000 ;Move the platform down 15mm
;Prime the extruder
G92 E0
G1 F200 E3
G92 E0
G92 E0
G92 E0
G1 F1500 E-6.5
;LAYER_COUNT:303
;LAYER:0
M107
G0 F3600 X8.347 Y-6.3 Z0.3
;TYPE:SKIRT
G1 F1500 E0
G1 F1800 X8.347 Y-57.5 E2.55438
G1 X8.387 Y-58.289 E2.59379
G1 X8.506 Y-59.069 E2.63316
G1 X8.704 Y-59.834 E2.67258
G1 X8.978 Y-60.574 E2.71195
G1 X9.326 Y-61.283 E2.75135
G1 X9.744 Y-61.954 E2.79079
G1 X10.227 Y-62.578 E2.83016
G1 X10.77 Y-63.151 E2.86954
G1 X11.369 Y-63.666 E2.90896
G1 X12.017 Y-64.117 E2.94834
G1 X12.708 Y-64.501 E2.98778
G1 X13.433 Y-64.813 E3.02716
G1 X14.186 Y-65.05 E3.06655
G1 X14.96 Y-65.209 E3.10597
G1 X15.745 Y-65.29 E3.14534
G1 X16.147 Y-65.3 E3.1654
G1 X26.147 Y-65.3 E3.6643
G1 X26.936 Y-65.26 E3.70372
G1 X27.716 Y-65.141 E3.74308
G1 X28.481 Y-64.943 E3.7825
G1 X29.221 Y-64.669 E3.82187
G1 X29.93 Y-64.321 E3.86128
G1 X30.601 Y-63.903 E3.90072
G1 X31.225 Y-63.42 E3.94008
G1 X31.798 Y-62.877 E3.97947
G1 X32.313 Y-62.278 E4.01888
G1 X32.764 Y-61.63 E4.05827
G1 X33.148 Y-60.939 E4.09771
G1 X33.46 Y-60.214 E4.13709
G1 X33.697 Y-59.461 E4.17647
G1 X33.856 Y-58.687 E4.21589
G1 X33.937 Y-57.902 E4.25526
G1 X33.947 Y-57.5 E4.27532
G1 X33.947 Y-15.77 E6.35724
G1 X34.221 Y-15.669 E6.37181
G1 X34.93 Y-15.321 E6.41121
G1 X35.601 Y-14.903 E6.45066
G1 X36.225 Y-14.42 E6.49002
G1 X36.798 Y-13.877 E6.52941
G1 X37.313 Y-13.278 E6.56882
G1 X37.764 Y-12.63 E6.60821
G1 X38.148 Y-11.939 E6.64765
G1 X38.46 Y-11.214 E6.68702
G1 X38.697 Y-10.461 E6.72641
G1 X38.856 Y-9.687 E6.76583
G1 X38.937 Y-8.902 E6.8052
G1 X38.947 Y-8.5 E6.82526
G1 X38.947 Y57.5 E10.11802
G1 X38.907 Y58.289 E10.15743
G1 X38.788 Y59.069 E10.1968
G1 X38.59 Y59.834 E10.23622
G1 X38.316 Y60.574 E10.27559
G1 X37.968 Y61.283 E10.31499
G1 X37.55 Y61.954 E10.35443
G1 X37.067 Y62.578 E10.3938
G1 X36.524 Y63.151 E10.43318
G1 X35.925 Y63.666 E10.47259
G1 X35.277 Y64.117 E10.51198
G1 X34.586 Y64.501 E10.55142
G1 X33.861 Y64.813 E10.5908
G1 X33.108 Y65.05 E10.63018
G1 X32.334 Y65.209 E10.6696
G1 X31.549 Y65.29 E10.70898
G1 X31.147 Y65.3 E10.72904
G1 X26.147 Y65.3 E10.97849
G1 X25.358 Y65.26 E11.0179
G1 X24.578 Y65.141 E11.05727
G1 X23.813 Y64.943 E11.09669
G1 X23.073 Y64.669 E11.13606
G1 X22.364 Y64.321 E11.17546
G1 X21.693 Y63.903 E11.2149
G1 X21.069 Y63.42 E11.25427
G1 X20.496 Y62.877 E11.29366
G1 X19.981 Y62.278 E11.33307
G1 X19.53 Y61.63 E11.37246
G1 X19.146 Y60.939 E11.41189
G1 X18.834 Y60.214 E11.45127
G1 X18.597 Y59.461 E11.49066
G1 X18.438 Y58.687 E11.53008
G1 X18.357 Y57.902 E11.56945
G1 X18.347 Y57.5 E11.58951
G1 X18.347 Y19.3 E13.49532
G1 X15.947 Y19.3 E13.61505
G1 X15.947 Y57.5 E15.52086
G1 X15.907 Y58.289 E15.56027
G1 X15.788 Y59.069 E15.59964
G1 X15.59 Y59.834 E15.63906
G1 X15.316 Y60.574 E15.67843
G1 X14.968 Y61.283 E15.71783
G1 X14.55 Y61.954 E15.75727
G1 X14.067 Y62.578 E15.79664
G1 X13.524 Y63.151 E15.83603
G1 X12.925 Y63.666 E15.87544
G1 X12.277 Y64.117 E15.91483
G1 X11.586 Y64.501 E15.95426
G1 X10.861 Y64.813 E15.99364
G1 X10.108 Y65.05 E16.03303
G1 X9.334 Y65.209 E16.07245
G1 X8.549 Y65.29 E16.11182
G1 X8.147 Y65.3 E16.13188
G1 X-2.853 Y65.3 E16.68067
G1 X-3.642 Y65.26 E16.72009
G1 X-4.422 Y65.141 E16.75945
G1 X-5.187 Y64.943 E16.79888
G1 X-5.927 Y64.669 E16.83824
G1 X-6.636 Y64.321 E16.87765
G1 X-7.307 Y63.903 E16.91709
G1 X-7.931 Y63.42 E16.95646
G1 X-8.504 Y62.877 E16.99584
G1 X-9.019 Y62.278 E17.03525
G1 X-9.47 Y61.63 E17.07464
G1 X-9.854 Y60.939 E17.11408
G1 X-10.166 Y60.214 E17.15346
G1 X-10.403 Y59.461 E17.19284
G1 X-10.562 Y58.687 E17.23226
G1 X-10.643 Y57.902 E17.27163
G1 X-10.653 Y57.5 E17.2917
G1 X-10.653 Y19.3 E19.1975
G1 X-16.053 Y19.3 E19.46691
G1 X-16.053 Y57.5 E21.37271
G1 X-16.093 Y58.289 E21.41213
G1 X-16.212 Y59.069 E21.45149
G1 X-16.41 Y59.834 E21.49092
G1 X-16.684 Y60.574 E21.53028
G1 X-17.032 Y61.283 E21.56969
G1 X-17.45 Y61.954 E21.60913
G1 X-17.933 Y62.578 E21.6485
G1 X-18.476 Y63.151 E21.68788
G1 X-19.075 Y63.666 E21.72729
G1 X-19.723 Y64.117 E21.76668
G1 X-20.414 Y64.501 E21.80612
G1 X-21.139 Y64.813 E21.8455
G1 X-21.892 Y65.05 E21.88488
G1 X-22.666 Y65.209 E21.9243
G1 X-23.451 Y65.29 E21.96367
G1 X-23.853 Y65.3 E21.98374
G1 X-28.853 Y65.3 E22.23319
G1 X-29.642 Y65.26 E22.2726
G1 X-30.422 Y65.141 E22.31197
G1 X-31.187 Y64.943 E22.35139
G1 X-31.927 Y64.669 E22.39076
G1 X-32.636 Y64.321 E22.43016
G1 X-33.307 Y63.903 E22.4696
G1 X-33.931 Y63.42 E22.50897
G1 X-34.504 Y62.877 E22.54835
G1 X-35.019 Y62.278 E22.58776
G1 X-35.47 Y61.63 E22.62715
G1 X-35.854 Y60.939 E22.66659
G1 X-36.166 Y60.214 E22.70597
G1 X-36.403 Y59.461 E22.74535
G1 X-36.562 Y58.687 E22.78478
G1 X-36.643 Y57.902 E22.82415
G1 X-36.653 Y57.5 E22.84421
G1 X-36.653 Y-57.5 E28.58158
G1 X-36.613 Y-58.289 E28.621
G1 X-36.494 Y-59.069 E28.66036
G1 X-36.296 Y-59.834 E28.69978
G1 X-36.022 Y-60.574 E28.73915
G1 X-35.674 Y-61.283 E28.77856
G1 X-35.256 Y-61.954 E28.818
G1 X-34.773 Y-62.578 E28.85737
G1 X-34.23 Y-63.151 E28.89675
G1 X-33.631 Y-63.666 E28.93616
G1 X-32.983 Y-64.117 E28.97555
G1 X-32.292 Y-64.501 E29.01499
G1 X-31.567 Y-64.813 E29.05437
G1 X-30.814 Y-65.05 E29.09375
G1 X-30.04 Y-65.209 E29.13317
G1 X-29.255 Y-65.29 E29.17254
G1 X-28.853 Y-65.3 E29.1926
G1 X-23.853 Y-65.3 E29.44206
G1 X-23.064 Y-65.26 E29.48147
G1 X-22.284 Y-65.141 E29.52083
G1 X-21.519 Y-64.943 E29.56026
G1 X-20.779 Y-64.669 E29.59963
G1 X-20.07 Y-64.321 E29.63903
G1 X-19.399 Y-63.903 E29.67847
G1 X-18.775 Y-63.42 E29.71784
G1 X-18.202 Y-62.877 E29.75722
G1 X-17.687 Y-62.278 E29.79663
G1 X-17.236 Y-61.63 E29.83602
G1 X-16.852 Y-60.939 E29.87546
G1 X-16.54 Y-60.214 E29.91484
G1 X-16.303 Y-59.461 E29.95422
G1 X-16.144 Y-58.687 E29.99364
G1 X-16.063 Y-57.902 E30.03302
G1 X-16.053 Y-57.5 E30.05308
G1 X-16.053 Y-6.3 E32.60746
G1 X8.347 Y-6.3 E33.82478
G0 F3600 X8.747 Y-5.9
G1 F1800 X8.747 Y-57.5 E36.39911
G1 X8.787 Y-58.268 E36.43748
G1 X8.906 Y-59.028 E36.47586
G1 X9.104 Y-59.771 E36.51422
G1 X9.378 Y-60.49 E36.55261
G1 X9.725 Y-61.176 E36.59096
G1 X10.141 Y-61.823 E36.62934
G1 X10.622 Y-62.423 E36.6677
G1 X11.163 Y-62.97 E36.70608
G1 X11.758 Y-63.458 E36.74448
G1 X12.4 Y-63.881 E36.78283
G1 X13.083 Y-64.236 E36.82124
G1 X13.798 Y-64.517 E36.85956
G1 X14.54 Y-64.723 E36.89798
G1 X15.298 Y-64.851 E36.93633
G1 X16.147 Y-64.9 E36.97876
G1 X26.147 Y-64.9 E37.47766
G1 X26.915 Y-64.86 E37.51603
G1 X27.675 Y-64.741 E37.55441
G1 X28.418 Y-64.543 E37.59277
G1 X29.137 Y-64.269 E37.63116
G1 X29.823 Y-63.922 E37.66951
G1 X30.47 Y-63.506 E37.70789
G1 X31.07 Y-63.025 E37.74625
G1 X31.617 Y-62.484 E37.78464
G1 X32.105 Y-61.889 E37.82303
G1 X32.528 Y-61.247 E37.86139
G1 X32.883 Y-60.564 E37.89979
G1 X33.164 Y-59.849 E37.93812
G1 X33.37 Y-59.107 E37.97654
G1 X33.498 Y-58.349 E38.01489
G1 X33.547 Y-57.5 E38.05731
G1 X33.547 Y-15.494 E40.153
G1 X34.137 Y-15.269 E40.18451
G1 X34.823 Y-14.922 E40.22286
G1 X35.47 Y-14.506 E40.26124
G1 X36.07 Y-14.025 E40.2996
G1 X36.617 Y-13.484 E40.33798
G1 X37.105 Y-12.889 E40.37638
G1 X37.528 Y-12.247 E40.41473
G1 X37.883 Y-11.564 E40.45313
G1 X38.164 Y-10.849 E40.49146
G1 X38.37 Y-10.107 E40.52988
G1 X38.498 Y-9.349 E40.56823
G1 X38.547 Y-8.5 E40.61066
G1 X38.547 Y57.5 E43.90341
G1 X38.507 Y58.268 E43.94178
G1 X38.388 Y59.028 E43.98016
G1 X38.19 Y59.771 E44.01852
G1 X37.916 Y60.49 E44.05691
G1 X37.569 Y61.176 E44.09526
G1 X37.153 Y61.823 E44.13364
G1 X36.672 Y62.423 E44.172
G1 X36.131 Y62.97 E44.21039
G1 X35.536 Y63.458 E44.24878
G1 X34.894 Y63.881 E44.28714
G1 X34.211 Y64.236 E44.32554
G1 X33.496 Y64.517 E44.36387
G1 X32.754 Y64.723 E44.40228
G1 X31.996 Y64.851 E44.44064
G1 X31.147 Y64.9 E44.48306
G1 X26.147 Y64.9 E44.73252
G1 X25.379 Y64.86 E44.77088
G1 X24.619 Y64.741 E44.80926
G1 X23.876 Y64.543 E44.84762
G1 X23.157 Y64.269 E44.88601
G1 X22.471 Y63.922 E44.92437
G1 X21.824 Y63.506 E44.96274
G1 X21.224 Y63.025 E45.00111
G1 X20.677 Y62.484 E45.03949
G1 X20.189 Y61.889 E45.07788
G1 X19.766 Y61.247 E45.11624
G1 X19.411 Y60.564 E45.15464
G1 X19.13 Y59.849 E45.19297
G1 X18.924 Y59.107 E45.23139
G1 X18.796 Y58.349 E45.26974
G1 X18.747 Y57.5 E45.31217
G1 X18.747 Y18.9 E47.23793
G1 X15.547 Y18.9 E47.39758
G1 X15.547 Y57.5 E49.32334
G1 X15.507 Y58.268 E49.36171
G1 X15.388 Y59.028 E49.40008
G1 X15.19 Y59.771 E49.43845
G1 X14.916 Y60.49 E49.47683
G1 X14.569 Y61.176 E49.51519
G1 X14.153 Y61.823 E49.55356
G1 X13.672 Y62.423 E49.59193
G1 X13.131 Y62.97 E49.63031
G1 X12.536 Y63.458 E49.6687
G1 X11.894 Y63.881 E49.70706
G1 X11.211 Y64.236 E49.74546
G1 X10.496 Y64.517 E49.78379
G1 X9.754 Y64.723 E49.82221
G1 X8.996 Y64.851 E49.86056
G1 X8.147 Y64.9 E49.90299
G1 X-2.853 Y64.9 E50.45178
G1 X-3.621 Y64.86 E50.49015
G1 X-4.381 Y64.741 E50.52853
G1 X-5.124 Y64.543 E50.56689
G1 X-5.843 Y64.269 E50.60528
G1 X-6.529 Y63.922 E50.64363
G1 X-7.176 Y63.506 E50.68201
G1 X-7.776 Y63.025 E50.72037
G1 X-8.323 Y62.484 E50.75875
G1 X-8.811 Y61.889 E50.79715
G1 X-9.234 Y61.247 E50.8355
G1 X-9.589 Y60.564 E50.87391
G1 X-9.87 Y59.849 E50.91223
G1 X-10.076 Y59.107 E50.95065
G1 X-10.204 Y58.349 E50.989
G1 X-10.253 Y57.5 E51.03143
G1 X-10.253 Y18.9 E52.95719
G1 X-16.453 Y18.9 E53.26651
G1 X-16.453 Y57.5 E55.19227
G1 X-16.493 Y58.268 E55.23064
G1 X-16.612 Y59.028 E55.26902
G1 X-16.81 Y59.771 E55.30738
G1 X-17.084 Y60.49 E55.34577
G1 X-17.431 Y61.176 E55.38412
G1 X-17.847 Y61.823 E55.4225
G1 X-18.328 Y62.423 E55.46087
G1 X-18.869 Y62.97 E55.49925
G1 X-19.464 Y63.458 E55.53764
G1 X-20.106 Y63.881 E55.576
G1 X-20.789 Y64.236 E55.6144
G1 X-21.504 Y64.517 E55.65273
G1 X-22.246 Y64.723 E55.69115
G1 X-23.004 Y64.851 E55.7295
G1 X-23.853 Y64.9 E55.77193
G1 X-28.853 Y64.9 E56.02138
G1 X-29.621 Y64.86 E56.05974
G1 X-30.381 Y64.741 E56.09812
G1 X-31.124 Y64.543 E56.13648
G1 X-31.843 Y64.269 E56.17487
G1 X-32.529 Y63.922 E56.21323
G1 X-33.176 Y63.506 E56.2516
G1 X-33.776 Y63.025 E56.28997
G1 X-34.323 Y62.484 E56.32835
G1 X-34.811 Y61.889 E56.36674
G1 X-35.234 Y61.247 E56.4051
G1 X-35.589 Y60.564 E56.4435
G1 X-35.87 Y59.849 E56.48183
G1 X-36.076 Y59.107 E56.52025
G1 X-36.204 Y58.349 E56.5586
G1 X-36.253 Y57.5 E56.60103
G1 X-36.253 Y-57.5 E62.3384
G1 X-36.213 Y-58.268 E62.37677
G1 X-36.094 Y-59.028 E62.41515
G1 X-35.896 Y-59.771 E62.45351
G1 X-35.622 Y-60.49 E62.4919
G1 X-35.275 Y-61.176 E62.53025
G1 X-34.859 Y-61.823 E62.56863
G1 X-34.378 Y-62.423 E62.60699
G1 X-33.837 Y-62.97 E62.64537
G1 X-33.242 Y-63.458 E62.68377
G1 X-32.6 Y-63.881 E62.72212
G1 X-31.917 Y-64.236 E62.76053
G1 X-31.202 Y-64.517 E62.79885
G1 X-30.46 Y-64.723 E62.83727
G1 X-29.702 Y-64.851 E62.87562
G1 X-28.853 Y-64.9 E62.91805
G1 X-23.853 Y-64.9 E63.1675
G1 X-23.085 Y-64.86 E63.20587
G1 X-22.325 Y-64.741 E63.24425
G1 X-21.582 Y-64.543 E63.28261
G1 X-20.863 Y-64.269 E63.321
G1 X-20.177 Y-63.922 E63.35935
G1 X-19.53 Y-63.506 E63.39773
G1 X-18.93 Y-63.025 E63.43609
G1 X-18.383 Y-62.484 E63.47448
G1 X-17.895 Y-61.889 E63.51287
G1 X-17.472 Y-61.247 E63.55122
G1 X-17.117 Y-60.564 E63.58963
G1 X-16.836 Y-59.849 E63.62795
G1 X-16.63 Y-59.107 E63.66637
G1 X-16.502 Y-58.349 E63.70472
G1 X-16.453 Y-57.5 E63.74715
G1 X-16.453 Y-5.9 E66.32149
G1 X8.747 Y-5.9 E67.57872
G0 F3600 X9.147 Y-5.5
G1 F1800 X9.147 Y-57.5 E70.17301
G1 X9.187 Y-58.247 E70.21033
G1 X9.306 Y-58.985 E70.24763
G1 X9.504 Y-59.707 E70.28498
G1 X9.777 Y-60.403 E70.32228
G1 X10.124 Y-61.066 E70.35961
G1 X10.539 Y-61.689 E70.39696
G1 X11.018 Y-62.263 E70.43425
G1 X11.555 Y-62.784 E70.47158
G1 X12.145 Y-63.243 E70.50888
G1 X12.781 Y-63.638 E70.54623
G1 X13.455 Y-63.962 E70.58354
G1 X14.16 Y-64.212 E70.62086
G1 X14.888 Y-64.386 E70.6582
G1 X15.63 Y-64.481 E70.69552
G1 X16.147 Y-64.5 E70.72133
G1 X26.147 Y-64.5 E71.22023
G1 X26.894 Y-64.46 E71.25755
G1 X27.632 Y-64.341 E71.29485
G1 X28.354 Y-64.143 E71.3322
G1 X29.05 Y-63.87 E71.3695
G1 X29.713 Y-63.523 E71.40683
G1 X30.336 Y-63.108 E71.44418
G1 X30.91 Y-62.629 E71.48148
G1 X31.431 Y-62.092 E71.5188
G1 X31.89 Y-61.502 E71.5561
G1 X32.285 Y-60.866 E71.59345
G1 X32.609 Y-60.192 E71.63076
G1 X32.859 Y-59.487 E71.66808
G1 X33.033 Y-58.759 E71.70542
G1 X33.128 Y-58.017 E71.74274
G1 X33.147 Y-57.5 E71.76855
G1 X33.147 Y-15.2 E73.87891
G1 X33.354 Y-15.143 E73.88962
G1 X34.05 Y-14.87 E73.92692
G1 X34.713 Y-14.523 E73.96425
G1 X35.336 Y-14.108 E74.0016
G1 X35.91 Y-13.629 E74.0389
G1 X36.431 Y-13.092 E74.07623
G1 X36.89 Y-12.502 E74.11352
G1 X37.285 Y-11.866 E74.15087
G1 X37.609 Y-11.192 E74.18818
G1 X37.859 Y-10.487 E74.2255
G1 X38.033 Y-9.759 E74.26284
G1 X38.128 Y-9.017 E74.30016
G1 X38.147 Y-8.5 E74.32597
G1 X38.147 Y57.5 E77.61873
G1 X38.107 Y58.247 E77.65605
G1 X37.988 Y58.985 E77.69334
G1 X37.79 Y59.707 E77.73069
G1 X37.517 Y60.403 E77.76799
G1 X37.17 Y61.066 E77.80533
G1 X36.755 Y61.689 E77.84267
G1 X36.276 Y62.263 E77.87997
G1 X35.739 Y62.784 E77.9173
G1 X35.149 Y63.243 E77.95459
G1 X34.513 Y63.638 E77.99194
G1 X33.839 Y63.962 E78.02925
G1 X33.134 Y64.212 E78.06657
G1 X32.406 Y64.386 E78.10392
G1 X31.664 Y64.481 E78.14124
G1 X31.147 Y64.5 E78.16705
G1 X26.147 Y64.5 E78.4165
G1 X25.4 Y64.46 E78.45382
G1 X24.662 Y64.341 E78.49111
G1 X23.94 Y64.143 E78.52846
G1 X23.244 Y63.87 E78.56576
G1 X22.581 Y63.523 E78.6031
G1 X21.958 Y63.108 E78.64044
G1 X21.384 Y62.629 E78.67774
G1 X20.863 Y62.092 E78.71507
G1 X20.404 Y61.502 E78.75236
G1 X20.009 Y60.866 E78.78972
G1 X19.685 Y60.192 E78.82702
G1 X19.435 Y59.487 E78.86434
G1 X19.261 Y58.759 E78.90169
G1 X19.166 Y58.017 E78.93901
G1 X19.147 Y57.5 E78.96482
G1 X19.147 Y18.5 E80.91054
G1 X15.147 Y18.5 E81.1101
G1 X15.147 Y57.5 E83.05581
G1 X15.107 Y58.247 E83.09314
G1 X14.988 Y58.985 E83.13043
G1 X14.79 Y59.707 E83.16778
G1 X14.517 Y60.403 E83.20508
G1 X14.17 Y61.066 E83.24241
G1 X13.755 Y61.689 E83.27976
G1 X13.276 Y62.263 E83.31706
G1 X12.739 Y62.784 E83.35439
G1 X12.149 Y63.243 E83.39168
G1 X11.513 Y63.638 E83.42903
G1 X10.839 Y63.962 E83.46634
G1 X10.134 Y64.212 E83.50366
G1 X9.406 Y64.386 E83.541
G1 X8.664 Y64.481 E83.57832
G1 X8.147 Y64.5 E83.60413
G1 X-2.853 Y64.5 E84.15293
G1 X-3.6 Y64.46 E84.19025
G1 X-4.338 Y64.341 E84.22754
G1 X-5.06 Y64.143 E84.26489
G1 X-5.756 Y63.87 E84.30219
G1 X-6.419 Y63.523 E84.33953
G1 X-7.042 Y63.108 E84.37687
G1 X-7.616 Y62.629 E84.41417
G1 X-8.137 Y62.092 E84.4515
G1 X-8.596 Y61.502 E84.48879
G1 X-8.991 Y60.866 E84.52614
G1 X-9.315 Y60.192 E84.56345
G1 X-9.565 Y59.487 E84.60077
G1 X-9.739 Y58.759 E84.63812
G1 X-9.834 Y58.017 E84.67544
G1 X-9.853 Y57.5 E84.70125
G1 X-9.853 Y18.5 E86.64696
G1 X-16.853 Y18.5 E86.9962
G1 X-16.853 Y57.5 E88.94191
G1 X-16.893 Y58.247 E88.97924
G1 X-17.012 Y58.985 E89.01653
G1 X-17.21 Y59.707 E89.05388
G1 X-17.483 Y60.403 E89.09118
G1 X-17.83 Y61.066 E89.12851
G1 X-18.245 Y61.689 E89.16586
G1 X-18.724 Y62.263 E89.20316
G1 X-19.261 Y62.784 E89.24049
G1 X-19.851 Y63.243 E89.27778
G1 X-20.487 Y63.638 E89.31513
G1 X-21.161 Y63.962 E89.35244
G1 X-21.866 Y64.212 E89.38976
G1 X-22.594 Y64.386 E89.4271
G1 X-23.336 Y64.481 E89.46442
G1 X-23.853 Y64.5 E89.49023
G1 X-28.853 Y64.5 E89.73968
G1 X-29.6 Y64.46 E89.77701
G1 X-30.338 Y64.341 E89.8143
G1 X-31.06 Y64.143 E89.85165
G1 X-31.756 Y63.87 E89.88895
G1 X-32.419 Y63.523 E89.92628
G1 X-33.042 Y63.108 E89.96363
G1 X-33.616 Y62.629 E90.00093
G1 X-34.137 Y62.092 E90.03826
G1 X-34.596 Y61.502 E90.07555
G1 X-34.991 Y60.866 E90.1129
G1 X-35.315 Y60.192 E90.15021
G1 X-35.565 Y59.487 E90.18753
G1 X-35.739 Y58.759 E90.22487
G1 X-35.834 Y58.017 E90.26219
G1 X-35.853 Y57.5 E90.288
G1 X-35.853 Y-57.5 E96.02538
G1 X-35.813 Y-58.247 E96.0627
G1 X-35.694 Y-58.985 E96.09999
G1 X-35.496 Y-59.707 E96.13734
G1 X-35.223 Y-60.403 E96.17464
G1 X-34.876 Y-61.066 E96.21198
G1 X-34.461 Y-61.689 E96.24932
G1 X-33.982 Y-62.263 E96.28662
G1 X-33.445 Y-62.784 E96.32395
G1 X-32.855 Y-63.243 E96.36124
G1 X-32.219 Y-63.638 E96.3986
G1 X-31.545 Y-63.962 E96.43591
G1 X-30.84 Y-64.212 E96.47322
G1 X-30.112 Y-64.386 E96.51057
G1 X-29.37 Y-64.481 E96.54789
G1 X-28.853 Y-64.5 E96.5737
G1 X-23.853 Y-64.5 E96.82315
G1 X-23.106 Y-64.46 E96.86047
